Dreamcore.cube
# Created for Nothing Camera preset - Dreamcore
TITLE "Dreamcore"
LUT_3D_SIZE 5
DOMAIN_MIN 0.0 0.0 0.0
DOMAIN_MAX 1.0 1.0 1.0
0.385294 0.385294 0.385294
0.692365 0.271134 0.270181
0.969940 0.178801 0.177011
1.000000 0.237288 0.235563
1.000000 0.237288 0.235563
0.143318 0.661410 0.143318
0.590338 0.589000 0.140689
0.939106 0.506406 0.099916
1.000000 0.479754 0.175890
1.000000 0.479754 0.175890
0.028218 0.947608 0.028218
0.421805 0.885171 0.028306
0.797551 0.795658 0.046130
0.998974 0.747139 0.006914
0.998974 0.747139 0.006914
0.042999 1.000000 0.042999
0.384203 1.000000 0.004944
0.691262 0.945901 0.000000
0.944193 0.939439 0.000000
0.944193 0.939439 0.000000
0.042999 1.000000 0.042999
0.384203 1.000000 0.004944
0.691262 0.945901 0.000000
0.944193 0.939439 0.000000
0.944193 0.939439 0.000000
0.343008 0.343008 0.701563
0.696313 0.242246 0.700399
0.967799 0.157543 0.610995
1.000000 0.223104 0.575746
1.000000 0.223104 0.575746
0.143951 0.632076 0.646124
0.543448 0.544398 0.551288
0.891608 0.416131 0.421973
1.000000 0.428581 0.432215
1.000000 0.428581 0.432215
0.028650 0.927262 0.439788
0.340132 0.820074 0.344601
0.751040 0.750943 0.329318
0.937530 0.685987 0.326040
0.937530 0.685987 0.326040
0.028581 1.000000 0.388877
0.299468 0.962104 0.299619
0.633591 0.932245 0.285186
0.920825 0.917617 0.283652
0.920825 0.917617 0.283652
0.028581 1.000000 0.388877
0.299468 0.962104 0.299619
0.633591 0.932245 0.285186
0.920825 0.917617 0.283652
0.920825 0.917617 0.283652
0.316844 0.316844 0.989202
0.621418 0.182028 1.000000
0.976945 0.126128 0.985868
1.000000 0.212350 0.857219
1.000000 0.212350 0.857219
0.108297 0.548614 0.967114
0.497809 0.498650 0.902090
0.889456 0.391237 0.901269
1.000000 0.409388 0.808761
1.000000 0.409388 0.808761
0.037894 0.882715 0.910359
0.344884 0.785885 0.808650
0.706774 0.708455 0.720999
0.889793 0.616820 0.628167
0.889793 0.616820 0.628167
0.015481 1.000000 0.768740
0.311119 0.944444 0.678161
0.573500 0.890491 0.580083
0.863997 0.862404 0.547587
0.863997 0.862404 0.547587
0.015481 1.000000 0.768740
0.311119 0.944444 0.678161
0.573500 0.890491 0.580083
0.863997 0.862404 0.547587
0.863997 0.862404 0.547587
0.372898 0.372898 1.000000
0.610643 0.284572 1.000000
0.857703 0.226444 1.000000
1.000000 0.206642 1.000000
1.000000 0.206642 1.000000
0.245464 0.560825 1.000000
0.540430 0.541080 1.000000
0.811423 0.433756 1.000000
1.000000 0.397421 1.000000
1.000000 0.397421 1.000000
0.103554 0.773752 1.000000
0.313849 0.721797 0.999222
0.685905 0.687334 0.909260
0.891003 0.606290 0.891003
0.891003 0.606290 0.891003
0.008134 0.986224 1.000000
0.311983 0.931683 0.940411
0.577433 0.879828 0.884087
0.822753 0.822753 0.822753
0.822753 0.822753 0.822753
0.008134 0.986224 1.000000
0.311983 0.931683 0.940411
0.577433 0.879828 0.884087
0.822753 0.822753 0.822753
0.822753 0.822753 0.822753
0.372898 0.372898 1.000000
0.610643 0.284572 1.000000
0.857703 0.226444 1.000000
1.000000 0.206642 1.000000
1.000000 0.206642 1.000000
0.245464 0.560825 1.000000
0.540430 0.541080 1.000000
0.811423 0.433756 1.000000
1.000000 0.397421 1.000000
1.000000 0.397421 1.000000
0.103554 0.773752 1.000000
0.313849 0.721797 0.999222
0.685905 0.687334 0.909260
0.891003 0.606290 0.891003
0.891003 0.606290 0.891003
0.008134 0.986224 1.000000
0.311983 0.931683 0.940411
0.577433 0.879828 0.884087
0.822753 0.822753 0.822753
0.822753 0.822753 0.822753
0.008134 0.986224 1.000000
0.311983 0.931683 0.940411
0.577433 0.879828 0.884087
0.822753 0.822753 0.822753
0.822753 0.822753 0.822753
