Dreamcore.cube
# Created for Nothing Camera preset - Dreamcore
TITLE "Dreamcore"
LUT_3D_SIZE 9
DOMAIN_MIN 0.0 0.0 0.0
DOMAIN_MAX 1.0 1.0 1.0
0.385294 0.385294 0.385294
0.501694 0.335083 0.334707
0.692365 0.271134 0.270181
0.841050 0.219460 0.218054
0.969940 0.178801 0.177011
1.000000 0.243333 0.241621
1.000000 0.237288 0.235563
1.000000 0.237288 0.235563
1.000000 0.237288 0.235563
0.264454 0.480618 0.264454
0.452242 0.451356 0.238085
0.650471 0.425744 0.193681
0.774296 0.409188 0.155828
0.947479 0.381716 0.117608
1.000000 0.400092 0.188273
1.000000 0.399983 0.192647
1.000000 0.399983 0.192647
1.000000 0.399983 0.192647
0.143318 0.661410 0.143318
0.417279 0.606131 0.143350
0.590338 0.589000 0.140689
0.723912 0.550612 0.125760
0.939106 0.506406 0.099916
1.000000 0.479764 0.146474
1.000000 0.479754 0.175890
1.000000 0.479754 0.175890
1.000000 0.479754 0.175890
0.095276 0.765151 0.095276
0.347687 0.757328 0.092512
0.493015 0.706372 0.101821
0.706022 0.703263 0.093962
0.872118 0.673123 0.066790
0.999399 0.650951 0.042566
1.000000 0.630656 0.090457
1.000000 0.630656 0.090457
1.000000 0.630656 0.090457
0.028218 0.947608 0.028218
0.225949 0.923824 0.023966
0.421805 0.885171 0.028306
0.652674 0.818111 0.045392
0.797551 0.795658 0.046130
0.949671 0.750379 0.026503
0.998974 0.747139 0.006914
0.998974 0.747139 0.006914
0.998974 0.747139 0.006914
0.019415 1.000000 0.019415
0.171435 1.000000 0.003787
0.385580 0.992607 0.000000
0.578503 0.944854 0.005871
0.706372 0.941601 0.002163
0.934182 0.930597 0.003640
0.947895 0.923804 0.001511
0.947895 0.923804 0.001511
0.947895 0.923804 0.001511
0.042999 1.000000 0.042999
0.175235 1.000000 0.022469
0.384203 1.000000 0.004944
0.561450 0.956298 0.000000
0.691262 0.945901 0.000000
0.919669 0.943660 0.000000
0.944193 0.939439 0.000000
0.944193 0.939439 0.000000
0.944193 0.939439 0.000000
0.042999 1.000000 0.042999
0.175235 1.000000 0.022469
0.384203 1.000000 0.004944
0.561450 0.956298 0.000000
0.691262 0.945901 0.000000
0.919669 0.943660 0.000000
0.944193 0.939439 0.000000
0.944193 0.939439 0.000000
0.944193 0.939439 0.000000
0.042999 1.000000 0.042999
0.175235 1.000000 0.022469
0.384203 1.000000 0.004944
0.561450 0.956298 0.000000
0.691262 0.945901 0.000000
0.919669 0.943660 0.000000
0.944193 0.939439 0.000000
0.944193 0.939439 0.000000
0.944193 0.939439 0.000000
0.367587 0.367587 0.536051
0.498745 0.322325 0.502268
0.691775 0.259681 0.440832
0.836860 0.207534 0.400195
0.969903 0.165991 0.370512
1.000000 0.234866 0.406138
1.000000 0.229135 0.405182
1.000000 0.229135 0.405182
1.000000 0.229135 0.405182
0.258834 0.470788 0.475794
0.443858 0.444034 0.445357
0.619496 0.379363 0.379412
0.742314 0.355867 0.355280
0.921732 0.324746 0.324624
1.000000 0.369707 0.369884
1.000000 0.374380 0.374693
1.000000 0.374380 0.374693
1.000000 0.374380 0.374693
0.147808 0.647067 0.437528
0.369333 0.586080 0.371330
0.543775 0.543815 0.359221
0.696985 0.513712 0.333832
0.912153 0.460933 0.288475
1.000000 0.442639 0.289356
1.000000 0.456716 0.319032
1.000000 0.456716 0.319032
1.000000 0.456716 0.319032
0.094864 0.762359 0.365447
0.285811 0.715984 0.290315
0.458308 0.715269 0.265593
0.679921 0.678192 0.249273
0.854556 0.652891 0.209568
0.970255 0.625946 0.195113
1.000000 0.615659 0.212376
1.000000 0.615659 0.212376
1.000000 0.615659 0.212376
0.025572 0.939207 0.238670
0.179421 0.886569 0.184292
0.383734 0.864472 0.172985
0.627187 0.797124 0.173828
0.774197 0.773077 0.173888
0.944521 0.731665 0.141542
0.972309 0.719898 0.139573
0.972309 0.719898 0.139573
0.972309 0.719898 0.139573
0.013571 1.000000 0.186878
0.119908 0.991269 0.124091
0.348378 0.987416 0.113442
0.555886 0.969510 0.098305
0.693013 0.953835 0.088374
0.942310 0.939358 0.091382
0.957410 0.928569 0.090134
0.957410 0.928569 0.090134
0.957410 0.928569 0.090134
0.035641 1.000000 0.191656
0.124488 1.000000 0.128250
0.348737 1.000000 0.107706
0.539531 0.982828 0.090318
0.679473 0.962554 0.080578
0.927444 0.960103 0.079931
0.958312 0.953901 0.082262
0.958312 0.953901 0.082262
0.958312 0.953901 0.082262
0.035641 1.000000 0.191656
0.124488 1.000000 0.128250
0.348737 1.000000 0.107706
0.539531 0.982828 0.090318
0.679473 0.962554 0.080578
0.927444 0.960103 0.079931
0.958312 0.953901 0.082262
0.958312 0.953901 0.082262
0.958312 0.953901 0.082262
0.035641 1.000000 0.191656
0.124488 1.000000 0.128250
0.348737 1.000000 0.107706
0.539531 0.982828 0.090318
0.679473 0.962554 0.080578
0.927444 0.960103 0.079931
0.958312 0.953901 0.082262
0.958312 0.953901 0.082262
0.958312 0.953901 0.082262
0.343008 0.343008 0.701563
0.455406 0.280172 0.711979
0.696313 0.242246 0.700399
0.832627 0.197243 0.653780
0.967799 0.157543 0.610995
1.000000 0.228478 0.580297
1.000000 0.223104 0.575746
1.000000 0.223104 0.575746
1.000000 0.223104 0.575746
0.229531 0.437168 0.699714
0.411891 0.412018 0.647880
0.616570 0.373683 0.624146
0.737534 0.354195 0.571357
0.923275 0.320185 0.514526
1.000000 0.364443 0.511241
1.000000 0.370568 0.511367
1.000000 0.370568 0.511367
1.000000 0.370568 0.511367
0.143951 0.632076 0.646124
0.369678 0.571756 0.582334
0.543448 0.544398 0.551288
0.672880 0.473022 0.480105
0.891608 0.416131 0.421973
1.000000 0.394814 0.399357
1.000000 0.428581 0.432215
1.000000 0.428581 0.432215
1.000000 0.428581 0.432215
0.106406 0.747459 0.558954
0.280234 0.713650 0.484975
0.412157 0.682850 0.419938
0.657615 0.656837 0.387180
0.819983 0.625286 0.370959
0.942758 0.599193 0.355581
0.993773 0.587844 0.349216
0.993773 0.587844 0.349216
0.993773 0.587844 0.349216
0.028650 0.927262 0.439788
0.175772 0.879273 0.391692
0.340132 0.820074 0.344601
0.590052 0.772488 0.324445
0.751040 0.750943 0.329318
0.912928 0.695431 0.325645
0.937530 0.685987 0.326040
0.937530 0.685987 0.326040
0.937530 0.685987 0.326040
0.008208 1.000000 0.390782
0.116526 0.989623 0.351024
0.302203 0.948306 0.303269
0.512582 0.946268 0.302092
0.644690 0.917804 0.285536
0.901731 0.900156 0.290710
0.920883 0.887857 0.290863
0.920883 0.887857 0.290863
0.920883 0.887857 0.290863
0.028581 1.000000 0.388877
0.117446 1.000000 0.351943
0.299468 0.962104 0.299619
0.493076 0.953362 0.300516
0.633591 0.932245 0.285186
0.882756 0.923314 0.278302
0.920825 0.917617 0.283652
0.920825 0.917617 0.283652
0.920825 0.917617 0.283652
0.028581 1.000000 0.388877
0.117446 1.000000 0.351943
0.299468 0.962104 0.299619
0.493076 0.953362 0.300516
0.633591 0.932245 0.285186
0.882756 0.923314 0.278302
0.920825 0.917617 0.283652
0.920825 0.917617 0.283652
0.920825 0.917617 0.283652
0.028581 1.000000 0.388877
0.117446 1.000000 0.351943
0.299468 0.962104 0.299619
0.493076 0.953362 0.300516
0.633591 0.932245 0.285186
0.882756 0.923314 0.278302
0.920825 0.917617 0.283652
0.920825 0.917617 0.283652
0.920825 0.917617 0.283652
0.322585 0.322585 0.878481
0.436691 0.277897 0.868115
0.655762 0.197769 0.868816
0.833508 0.177370 0.847269
0.970477 0.144866 0.782951
1.000000 0.222459 0.704131
1.000000 0.217500 0.698854
1.000000 0.217500 0.698854
1.000000 0.217500 0.698854
0.230778 0.423519 0.823314
0.396588 0.396680 0.782602
0.576713 0.346772 0.768683
0.736483 0.344742 0.748501
0.923572 0.316848 0.681631
1.000000 0.358746 0.647498
1.000000 0.366469 0.645037
1.000000 0.366469 0.645037
1.000000 0.366469 0.645037
0.112321 0.589504 0.787791
0.359224 0.541291 0.729863
0.517033 0.517949 0.698806
0.674243 0.462478 0.680610
0.888376 0.408038 0.624412
1.000000 0.382364 0.606654
1.000000 0.419112 0.615210
1.000000 0.419112 0.615210
1.000000 0.419112 0.615210
0.104213 0.734741 0.748061
0.277383 0.703005 0.709802
0.410079 0.673543 0.679545
0.647717 0.648312 0.652232
0.781657 0.578952 0.584394
0.913672 0.546383 0.552402
0.965642 0.536831 0.542866
0.965642 0.536831 0.542866
0.965642 0.536831 0.542866
0.041145 0.905799 0.708654
0.185400 0.858795 0.673352
0.348029 0.803464 0.628162
0.550833 0.740470 0.561090
0.696628 0.697829 0.530673
0.885257 0.661251 0.517184
0.908043 0.652213 0.509956
0.908043 0.652213 0.509956
0.908043 0.652213 0.509956
0.003353 1.000000 0.647895
0.126813 0.974940 0.603856
0.301870 0.948205 0.535318
0.466233 0.909911 0.477753
0.618492 0.902130 0.462780
0.869335 0.868801 0.432143
0.894605 0.856092 0.429938
0.894605 0.856092 0.429938
0.894605 0.856092 0.429938
0.021851 1.000000 0.620352
0.112079 0.998792 0.582298
0.299795 0.958646 0.514975
0.450514 0.920070 0.462088
0.608061 0.918065 0.446610
0.848044 0.896353 0.407852
0.894530 0.892099 0.411675
0.894530 0.892099 0.411675
0.894530 0.892099 0.411675
0.021851 1.000000 0.620352
0.112079 0.998792 0.582298
0.299795 0.958646 0.514975
0.450514 0.920070 0.462088
0.608061 0.918065 0.446610
0.848044 0.896353 0.407852
0.894530 0.892099 0.411675
0.894530 0.892099 0.411675
0.894530 0.892099 0.411675
0.021851 1.000000 0.620352
0.112079 0.998792 0.582298
0.299795 0.958646 0.514975
0.450514 0.920070 0.462088
0.608061 0.918065 0.446610
0.848044 0.896353 0.407852
0.894530 0.892099 0.411675
0.894530 0.892099 0.411675
0.894530 0.892099 0.411675
0.316844 0.316844 0.989202
0.429541 0.277149 0.983042
0.621418 0.182028 1.000000
0.789093 0.143094 0.999043
0.976945 0.126128 0.985868
1.000000 0.216633 0.859471
1.000000 0.212350 0.857219
1.000000 0.212350 0.857219
1.000000 0.212350 0.857219
0.221550 0.411279 0.958659
0.391166 0.391223 0.929942
0.553634 0.357290 0.932200
0.684251 0.306793 0.941591
0.934514 0.302343 0.935309
1.000000 0.352665 0.853583
1.000000 0.362118 0.844871
1.000000 0.362118 0.844871
1.000000 0.362118 0.844871
0.108297 0.548614 0.967114
0.370020 0.528664 0.917469
0.497809 0.498650 0.902090
0.633440 0.437874 0.907948
0.889456 0.391237 0.901269
1.000000 0.370109 0.844002
1.000000 0.409388 0.808761
1.000000 0.409388 0.808761
1.000000 0.409388 0.808761
0.061852 0.675694 0.973750
0.231119 0.646147 0.927497
0.395805 0.635616 0.875428
0.625686 0.626304 0.825631
0.774486 0.569124 0.793512
0.909882 0.542028 0.735373
0.960504 0.532165 0.717641
0.960504 0.532165 0.717641
0.960504 0.532165 0.717641
0.037894 0.882715 0.910359
0.179904 0.838399 0.864160
0.344884 0.785885 0.808650
0.548130 0.724392 0.743095
0.706774 0.708455 0.720999
0.870547 0.624583 0.636623
0.889793 0.616820 0.628167
0.889793 0.616820 0.628167
0.889793 0.616820 0.628167
0.000187 0.998841 0.811509
0.126859 0.971142 0.761725
0.314091 0.935238 0.699497
0.461713 0.908409 0.638204
0.584575 0.871607 0.593996
0.836092 0.836544 0.561103
0.868425 0.824525 0.562642
0.868425 0.824525 0.562642
0.868425 0.824525 0.562642
0.015481 1.000000 0.768740
0.116142 0.988641 0.737359
0.311119 0.944444 0.678161
0.446021 0.919539 0.623580
0.573500 0.890491 0.580083
0.808608 0.865486 0.542086
0.863997 0.862404 0.547587
0.863997 0.862404 0.547587
0.863997 0.862404 0.547587
0.015481 1.000000 0.768740
0.116142 0.988641 0.737359
0.311119 0.944444 0.678161
0.446021 0.919539 0.623580
0.573500 0.890491 0.580083
0.808608 0.865486 0.542086
0.863997 0.862404 0.547587
0.863997 0.862404 0.547587
0.863997 0.862404 0.547587
0.015481 1.000000 0.768740
0.116142 0.988641 0.737359
0.311119 0.944444 0.678161
0.446021 0.919539 0.623580
0.573500 0.890491 0.580083
0.808608 0.865486 0.542086
0.863997 0.862404 0.547587
0.863997 0.862404 0.547587
0.863997 0.862404 0.547587
0.374937 0.374937 1.000000
0.470335 0.346800 1.000000
0.611651 0.286482 1.000000
0.718268 0.247355 1.000000
0.858261 0.227898 1.000000
0.999110 0.211834 1.000000
1.000000 0.207681 0.999994
1.000000 0.207681 0.999994
1.000000 0.207681 0.999994
0.294372 0.449067 1.000000
0.451321 0.451341 1.000000
0.578698 0.437398 1.000000
0.667295 0.402098 1.000000
0.847143 0.369474 1.000000
0.991944 0.353348 1.000000
1.000000 0.357545 0.989235
1.000000 0.357545 0.989235
1.000000 0.357545 0.989235
0.242920 0.561088 1.000000
0.423663 0.548595 1.000000
0.531124 0.531805 1.000000
0.641184 0.481647 1.000000
0.829201 0.404929 1.000000
0.983459 0.370137 1.000000
1.000000 0.399497 0.951834
1.000000 0.399497 0.951834
1.000000 0.399497 0.951834
0.157749 0.629041 1.000000
0.299985 0.638990 1.000000
0.430632 0.641104 0.986547
0.621895 0.622515 0.948034
0.738874 0.556247 0.938171
0.909725 0.529849 0.922787
0.959014 0.523843 0.903579
0.959014 0.523843 0.903579
0.959014 0.523843 0.903579
0.063021 0.807399 1.000000
0.160369 0.785653 1.000000
0.319020 0.734718 0.958478
0.576650 0.715088 0.904172
0.687264 0.688738 0.885257
0.874960 0.614497 0.876360
0.890781 0.608223 0.872425
0.890781 0.608223 0.872425
0.890781 0.608223 0.872425
0.000000 0.979498 0.999159
0.123568 0.958904 0.972615
0.313950 0.924644 0.935891
0.464897 0.890359 0.903247
0.586256 0.856451 0.870677
0.834231 0.835725 0.845832
0.837081 0.788600 0.802016
0.837081 0.788600 0.802016
0.837081 0.788600 0.802016
0.009499 1.000000 0.984215
0.113793 0.985406 0.980423
0.312080 0.940888 0.938150
0.450509 0.910552 0.899797
0.577749 0.884267 0.857243
0.773529 0.838301 0.791694
0.809464 0.809197 0.756473
0.809464 0.809197 0.756473
0.809464 0.809197 0.756473
0.009499 1.000000 0.984215
0.113793 0.985406 0.980423
0.312080 0.940888 0.938150
0.450509 0.910552 0.899797
0.577749 0.884267 0.857243
0.773529 0.838301 0.791694
0.809464 0.809197 0.756473
0.809464 0.809197 0.756473
0.809464 0.809197 0.756473
0.009499 1.000000 0.984215
0.113793 0.985406 0.980423
0.312080 0.940888 0.938150
0.450509 0.910552 0.899797
0.577749 0.884267 0.857243
0.773529 0.838301 0.791694
0.809464 0.809197 0.756473
0.809464 0.809197 0.756473
0.809464 0.809197 0.756473
0.372898 0.372898 1.000000
0.469102 0.344644 1.000000
0.610643 0.284572 1.000000
0.716731 0.245651 1.000000
0.857703 0.226444 1.000000
0.998938 0.210689 1.000000
1.000000 0.206642 1.000000
1.000000 0.206642 1.000000
1.000000 0.206642 1.000000
0.292681 0.448614 1.000000
0.451240 0.451254 1.000000
0.577625 0.437373 1.000000
0.666566 0.403048 1.000000
0.844537 0.372749 1.000000
0.982458 0.360569 1.000000
1.000000 0.356427 1.000000
1.000000 0.356427 1.000000
1.000000 0.356427 1.000000
0.245464 0.560825 1.000000
0.428462 0.550700 1.000000
0.540430 0.541080 1.000000
0.649829 0.502225 1.000000
0.811423 0.433756 1.000000
0.939259 0.406001 1.000000
1.000000 0.397421 1.000000
1.000000 0.397421 1.000000
1.000000 0.397421 1.000000
0.186863 0.628398 1.000000
0.340974 0.644770 1.000000
0.456799 0.646358 1.000000
0.625673 0.626279 0.986276
0.735614 0.565153 0.980135
0.898129 0.519926 0.969367
0.960401 0.520123 0.960401
0.960401 0.520123 0.960401
0.960401 0.520123 0.960401
0.103554 0.773752 1.000000
0.199112 0.754240 1.000000
0.313849 0.721797 0.999222
0.579039 0.712908 0.934845
0.685905 0.687334 0.909260
0.871192 0.609104 0.894815
0.891003 0.606290 0.891003
0.891003 0.606290 0.891003
0.891003 0.606290 0.891003
0.026470 0.942100 1.000000
0.120351 0.951412 0.995018
0.312220 0.920107 0.948361
0.462397 0.886981 0.911963
0.583129 0.851373 0.884285
0.831627 0.833106 0.868013
0.837787 0.786542 0.837787
0.837787 0.786542 0.837787
0.837787 0.786542 0.837787
0.008134 0.986224 1.000000
0.113248 0.972593 0.984697
0.311983 0.931683 0.940411
0.449458 0.904205 0.910610
0.577433 0.879828 0.884087
0.773376 0.835977 0.836859
0.822753 0.822753 0.822753
0.822753 0.822753 0.822753
0.822753 0.822753 0.822753
0.008134 0.986224 1.000000
0.113248 0.972593 0.984697
0.311983 0.931683 0.940411
0.449458 0.904205 0.910610
0.577433 0.879828 0.884087
0.773376 0.835977 0.836859
0.822753 0.822753 0.822753
0.822753 0.822753 0.822753
0.822753 0.822753 0.822753
0.008134 0.986224 1.000000
0.113248 0.972593 0.984697
0.311983 0.931683 0.940411
0.449458 0.904205 0.910610
0.577433 0.879828 0.884087
0.773376 0.835977 0.836859
0.822753 0.822753 0.822753
0.822753 0.822753 0.822753
0.822753 0.822753 0.822753
0.372898 0.372898 1.000000
0.469102 0.344644 1.000000
0.610643 0.284572 1.000000
0.716731 0.245651 1.000000
0.857703 0.226444 1.000000
0.998938 0.210689 1.000000
1.000000 0.206642 1.000000
1.000000 0.206642 1.000000
1.000000 0.206642 1.000000
0.292681 0.448614 1.000000
0.451240 0.451254 1.000000
0.577625 0.437373 1.000000
0.666566 0.403048 1.000000
0.844537 0.372749 1.000000
0.982458 0.360569 1.000000
1.000000 0.356427 1.000000
1.000000 0.356427 1.000000
1.000000 0.356427 1.000000
0.245464 0.560825 1.000000
0.428462 0.550700 1.000000
0.540430 0.541080 1.000000
0.649829 0.502225 1.000000
0.811423 0.433756 1.000000
0.939259 0.406001 1.000000
1.000000 0.397421 1.000000
1.000000 0.397421 1.000000
1.000000 0.397421 1.000000
0.186863 0.628398 1.000000
0.340974 0.644770 1.000000
0.456799 0.646358 1.000000
0.625673 0.626279 0.986276
0.735614 0.565153 0.980135
0.898129 0.519926 0.969367
0.960401 0.520123 0.960401
0.960401 0.520123 0.960401
0.960401 0.520123 0.960401
0.103554 0.773752 1.000000
0.199112 0.754240 1.000000
0.313849 0.721797 0.999222
0.579039 0.712908 0.934845
0.685905 0.687334 0.909260
0.871192 0.609104 0.894815
0.891003 0.606290 0.891003
0.891003 0.606290 0.891003
0.891003 0.606290 0.891003
0.026470 0.942100 1.000000
0.120351 0.951412 0.995018
0.312220 0.920107 0.948361
0.462397 0.886981 0.911963
0.583129 0.851373 0.884285
0.831627 0.833106 0.868013
0.837787 0.786542 0.837787
0.837787 0.786542 0.837787
0.837787 0.786542 0.837787
0.008134 0.986224 1.000000
0.113248 0.972593 0.984697
0.311983 0.931683 0.940411
0.449458 0.904205 0.910610
0.577433 0.879828 0.884087
0.773376 0.835977 0.836859
0.822753 0.822753 0.822753
0.822753 0.822753 0.822753
0.822753 0.822753 0.822753
0.008134 0.986224 1.000000
0.113248 0.972593 0.984697
0.311983 0.931683 0.940411
0.449458 0.904205 0.910610
0.577433 0.879828 0.884087
0.773376 0.835977 0.836859
0.822753 0.822753 0.822753
0.822753 0.822753 0.822753
0.822753 0.822753 0.822753
0.008134 0.986224 1.000000
0.113248 0.972593 0.984697
0.311983 0.931683 0.940411
0.449458 0.904205 0.910610
0.577433 0.879828 0.884087
0.773376 0.835977 0.836859
0.822753 0.822753 0.822753
0.822753 0.822753 0.822753
0.822753 0.822753 0.822753
0.372898 0.372898 1.000000
0.469102 0.344644 1.000000
0.610643 0.284572 1.000000
0.716731 0.245651 1.000000
0.857703 0.226444 1.000000
0.998938 0.210689 1.000000
1.000000 0.206642 1.000000
1.000000 0.206642 1.000000
1.000000 0.206642 1.000000
0.292681 0.448614 1.000000
0.451240 0.451254 1.000000
0.577625 0.437373 1.000000
0.666566 0.403048 1.000000
0.844537 0.372749 1.000000
0.982458 0.360569 1.000000
1.000000 0.356427 1.000000
1.000000 0.356427 1.000000
1.000000 0.356427 1.000000
0.245464 0.560825 1.000000
0.428462 0.550700 1.000000
0.540430 0.541080 1.000000
0.649829 0.502225 1.000000
0.811423 0.433756 1.000000
0.939259 0.406001 1.000000
1.000000 0.397421 1.000000
1.000000 0.397421 1.000000
1.000000 0.397421 1.000000
0.186863 0.628398 1.000000
0.340974 0.644770 1.000000
0.456799 0.646358 1.000000
0.625673 0.626279 0.986276
0.735614 0.565153 0.980135
0.898129 0.519926 0.969367
0.960401 0.520123 0.960401
0.960401 0.520123 0.960401
0.960401 0.520123 0.960401
0.103554 0.773752 1.000000
0.199112 0.754240 1.000000
0.313849 0.721797 0.999222
0.579039 0.712908 0.934845
0.685905 0.687334 0.909260
0.871192 0.609104 0.894815
0.891003 0.606290 0.891003
0.891003 0.606290 0.891003
0.891003 0.606290 0.891003
0.026470 0.942100 1.000000
0.120351 0.951412 0.995018
0.312220 0.920107 0.948361
0.462397 0.886981 0.911963
0.583129 0.851373 0.884285
0.831627 0.833106 0.868013
0.837787 0.786542 0.837787
0.837787 0.786542 0.837787
0.837787 0.786542 0.837787
0.008134 0.986224 1.000000
0.113248 0.972593 0.984697
0.311983 0.931683 0.940411
0.449458 0.904205 0.910610
0.577433 0.879828 0.884087
0.773376 0.835977 0.836859
0.822753 0.822753 0.822753
0.822753 0.822753 0.822753
0.822753 0.822753 0.822753
0.008134 0.986224 1.000000
0.113248 0.972593 0.984697
0.311983 0.931683 0.940411
0.449458 0.904205 0.910610
0.577433 0.879828 0.884087
0.773376 0.835977 0.836859
0.822753 0.822753 0.822753
0.822753 0.822753 0.822753
0.822753 0.822753 0.822753
0.008134 0.986224 1.000000
0.113248 0.972593 0.984697
0.311983 0.931683 0.940411
0.449458 0.904205 0.910610
0.577433 0.879828 0.884087
0.773376 0.835977 0.836859
0.822753 0.822753 0.822753
0.822753 0.822753 0.822753
0.822753 0.822753 0.822753
