Dreamcore_Poolrooms.cube
# Dreamcore - Poolrooms v2 (Cool Fluorescent Liminal)
TITLE "Dreamcore_Poolrooms"
LUT_3D_SIZE 9
DOMAIN_MIN 0.0 0.0 0.0
DOMAIN_MAX 1.0 1.0 1.0
0.024677 0.069808 0.079992
0.123634 0.074849 0.082176
0.184602 0.081867 0.088898
0.335447 0.099796 0.106484
0.403437 0.107797 0.114369
0.553724 0.125719 0.132070
0.628375 0.134595 0.140852
0.752618 0.149512 0.155630
0.850148 0.162852 0.168851
0.039376 0.159495 0.082459
0.127176 0.156010 0.084878
0.183353 0.160520 0.089162
0.336950 0.181816 0.108475
0.405315 0.189632 0.116364
0.555489 0.207351 0.134070
0.630475 0.216012 0.142939
0.755149 0.230746 0.157857
0.850562 0.245211 0.173333
0.046576 0.220376 0.087632
0.132595 0.223383 0.087182
0.186140 0.212187 0.090421
0.335143 0.232150 0.108267
0.405719 0.241839 0.116842
0.556198 0.260236 0.134704
0.631559 0.269114 0.143700
0.756689 0.284137 0.158808
0.850715 0.299148 0.175847
0.065227 0.372578 0.102432
0.146439 0.375138 0.098817
0.203052 0.374456 0.098409
0.334645 0.354201 0.107184
0.399787 0.360847 0.114035
0.554166 0.386307 0.136450
0.630125 0.396805 0.146379
0.758763 0.413899 0.162416
0.848198 0.427474 0.182901
0.073551 0.442138 0.109556
0.151901 0.444686 0.104569
0.208421 0.443734 0.104244
0.343104 0.418592 0.115651
0.400655 0.417558 0.115415
0.544372 0.436969 0.134228
0.621309 0.448626 0.145438
0.753469 0.468348 0.163435
0.842360 0.482320 0.184599
0.091857 0.593101 0.126393
0.164573 0.593485 0.118286
0.220167 0.591224 0.118020
0.360731 0.567624 0.129377
0.420426 0.554878 0.134790
0.539600 0.554076 0.134976
0.611135 0.559518 0.143653
0.743765 0.581072 0.163381
0.834515 0.594078 0.182201
0.100355 0.664136 0.134730
0.169196 0.664746 0.125327
0.224432 0.662949 0.125203
0.361727 0.652738 0.130094
0.429370 0.624040 0.144952
0.544572 0.622812 0.145220
0.612293 0.623415 0.145699
0.735186 0.638767 0.162655
0.826163 0.653259 0.177752
0.115729 0.792588 0.150664
0.180461 0.793647 0.138967
0.235605 0.792265 0.139018
0.367934 0.791086 0.139449
0.440863 0.773688 0.148511
0.559423 0.744770 0.164302
0.628776 0.743315 0.164504
0.733037 0.744213 0.165485
0.812935 0.750398 0.176147
0.131149 0.880009 0.166728
0.192549 0.879914 0.153664
0.246305 0.877389 0.153638
0.374587 0.875157 0.154120
0.443972 0.871219 0.154711
0.569274 0.836131 0.167426
0.644770 0.833586 0.167664
0.745197 0.830811 0.168579
0.816969 0.829110 0.170917
0.036799 0.076452 0.176391
0.129848 0.077602 0.175474
0.190144 0.075964 0.176098
0.346273 0.088097 0.185503
0.414263 0.095970 0.191093
0.564492 0.113571 0.205912
0.639130 0.122318 0.213565
0.763363 0.136994 0.226971
0.862271 0.148721 0.237802
0.028130 0.169357 0.180546
0.132467 0.170942 0.180163
0.196567 0.171496 0.178497
0.347604 0.189369 0.195738
0.416151 0.197271 0.203552
0.566480 0.215138 0.221267
0.641517 0.223842 0.229912
0.765209 0.239710 0.245676
0.863834 0.251764 0.257678
0.030019 0.238361 0.180907
0.140641 0.228515 0.179327
0.200199 0.231486 0.180540
0.349124 0.245194 0.197782
0.417760 0.252822 0.205203
0.567675 0.270385 0.222520
0.642995 0.279081 0.231119
0.765595 0.295947 0.248332
0.864032 0.308172 0.260499
0.065402 0.372329 0.186721
0.158087 0.380747 0.193255
0.214013 0.383384 0.191161
0.346259 0.366412 0.194129
0.413357 0.374820 0.202018
0.568626 0.400554 0.224620
0.644124 0.410072 0.233414
0.764652 0.426768 0.254065
0.860876 0.438503 0.266209
0.073734 0.441973 0.192637
0.164990 0.450491 0.199189
0.218967 0.452177 0.195328
0.354087 0.430244 0.200704
0.411275 0.428696 0.199646
0.557472 0.450624 0.219879
0.635034 0.462505 0.230864
0.760433 0.481922 0.253935
0.854926 0.495151 0.267117
0.091957 0.592346 0.207557
0.180470 0.598869 0.213648
0.230396 0.599213 0.206580
0.367163 0.594245 0.206748
0.431049 0.565860 0.216666
0.549623 0.564720 0.216184
0.623047 0.571825 0.225314
0.755369 0.593613 0.246820
0.846000 0.607335 0.265980
0.100464 0.663497 0.213562
0.186312 0.670162 0.219563
0.234370 0.670860 0.211094
0.368645 0.669429 0.210885
0.438471 0.648830 0.219192
0.554727 0.633847 0.225252
0.622620 0.634312 0.225625
0.746983 0.651318 0.243361
0.837162 0.665798 0.259589
0.115853 0.792185 0.227720
0.200165 0.799254 0.234289
0.248790 0.796687 0.227435
0.379235 0.795469 0.227566
0.446628 0.793943 0.227416
0.571421 0.762924 0.236036
0.642660 0.760541 0.236828
0.748472 0.760664 0.238323
0.827445 0.765062 0.251428
0.131207 0.879227 0.241933
0.214265 0.885116 0.249185
0.256919 0.884871 0.237471
0.384751 0.882588 0.237659
0.453526 0.879927 0.237469
0.576679 0.854087 0.243582
0.654256 0.843668 0.245642
0.754677 0.841240 0.245875
0.826193 0.839112 0.248397
0.042252 0.081562 0.242208
0.136082 0.083327 0.242298
0.193426 0.081671 0.238447
0.352658 0.081509 0.246798
0.421511 0.088587 0.249625
0.571745 0.106207 0.260924
0.646422 0.114969 0.267527
0.770706 0.129667 0.279717
0.869621 0.141405 0.289859
0.028967 0.168575 0.250532
0.141767 0.175746 0.243827
0.202312 0.176123 0.243450
0.354628 0.181376 0.248633
0.423183 0.189055 0.254456
0.573459 0.206508 0.269999
0.648519 0.215024 0.277990
0.773285 0.229539 0.291896
0.872255 0.240997 0.303019
0.030241 0.234524 0.246802
0.133093 0.236194 0.246564
0.201868 0.237168 0.246268
0.354934 0.248314 0.254791
0.424172 0.256488 0.262868
0.574579 0.274588 0.280842
0.650069 0.283455 0.289664
0.774357 0.299496 0.305626
0.872803 0.311496 0.317592
0.039503 0.400401 0.248777
0.158049 0.380523 0.250969
0.220942 0.386115 0.255298
0.354276 0.374848 0.254505
0.423383 0.385068 0.264016
0.578395 0.409865 0.286065
0.652073 0.417591 0.293819
0.773520 0.433954 0.312846
0.869588 0.445382 0.324635
0.064815 0.451648 0.250048
0.164911 0.450219 0.256959
0.227233 0.454791 0.260670
0.362118 0.441004 0.260048
0.418893 0.436737 0.259195
0.567062 0.460608 0.281166
0.645097 0.472353 0.291520
0.769712 0.491056 0.313593
0.863418 0.502946 0.325385
0.091995 0.591587 0.264681
0.180239 0.598080 0.270548
0.241800 0.601924 0.274315
0.373381 0.602346 0.268419
0.438811 0.581027 0.273296
0.556572 0.572124 0.274966
0.631780 0.580781 0.285007
0.762832 0.602623 0.309067
0.854597 0.617193 0.326677
0.100520 0.662860 0.270092
0.186089 0.669528 0.275938
0.247430 0.673914 0.279979
0.375681 0.675099 0.273280
0.443747 0.668420 0.274691
0.561945 0.641772 0.283565
0.630002 0.642096 0.283815
0.755990 0.660751 0.301900
0.845005 0.675058 0.319562
0.115926 0.791748 0.283878
0.200128 0.798774 0.290231
0.264571 0.799924 0.297673
0.386630 0.801145 0.289118
0.454080 0.799570 0.288759
0.577966 0.770904 0.293391
0.650335 0.769305 0.293170
0.755734 0.768549 0.295310
0.834749 0.773157 0.309503
0.131215 0.878400 0.296714
0.214161 0.884240 0.303703
0.274326 0.887642 0.308652
0.392121 0.887732 0.298560
0.460974 0.885030 0.298184
0.581448 0.868175 0.300337
0.661016 0.850721 0.302630
0.761088 0.848253 0.302712
0.832611 0.846107 0.305085
0.055583 0.094064 0.401998
0.149753 0.096352 0.403700
0.208206 0.094825 0.399217
0.351525 0.092215 0.393908
0.420658 0.089363 0.397018
0.586222 0.091701 0.409380
0.664283 0.097144 0.412390
0.788622 0.111873 0.419244
0.887549 0.123633 0.426363
0.057285 0.181475 0.397397
0.155013 0.188291 0.404074
0.217153 0.190278 0.405992
0.358832 0.185454 0.397142
0.429113 0.182992 0.400801
0.591288 0.188583 0.410885
0.666391 0.197115 0.414866
0.791209 0.211657 0.424355
0.890189 0.223133 0.433115
0.039458 0.234730 0.411100
0.154709 0.245673 0.400938
0.219297 0.250108 0.405309
0.363227 0.247073 0.399344
0.434354 0.245342 0.403014
0.592051 0.255587 0.412259
0.667555 0.264262 0.417745
0.792856 0.279005 0.429144
0.891343 0.290200 0.438295
0.036282 0.397879 0.412543
0.137475 0.399787 0.412676
0.206381 0.400951 0.412638
0.376333 0.404609 0.413358
0.445233 0.404583 0.411224
0.593675 0.422291 0.428698
0.667512 0.430325 0.436737
0.794155 0.445222 0.451664
0.890698 0.456333 0.462816
0.038570 0.480334 0.418024
0.137987 0.480231 0.416080
0.206260 0.479188 0.413748
0.380213 0.467708 0.411126
0.438124 0.457018 0.404538
0.589547 0.484961 0.431724
0.663434 0.492742 0.438917
0.790782 0.507843 0.453547
0.884468 0.519046 0.464425
0.043859 0.643298 0.416346
0.153435 0.627211 0.412535
0.233996 0.610026 0.412523
0.393601 0.612527 0.424105
0.457162 0.613115 0.420809
0.576755 0.593929 0.414787
0.654761 0.604452 0.430593
0.785977 0.628257 0.457723
0.877155 0.642278 0.472593
0.065146 0.700887 0.410956
0.177122 0.678887 0.412474
0.247518 0.673436 0.416546
0.397928 0.684928 0.428964
0.461680 0.686375 0.424828
0.581588 0.665596 0.420408
0.651294 0.664836 0.420134
0.777031 0.683686 0.446690
0.865878 0.699593 0.465938
0.111477 0.796489 0.419205
0.200272 0.798383 0.425458
0.264636 0.799504 0.430571
0.410287 0.812981 0.442880
0.472728 0.814086 0.436427
0.593932 0.809417 0.435262
0.667040 0.787787 0.431924
0.772682 0.786883 0.433012
0.853857 0.793803 0.449132
0.131396 0.877681 0.428858
0.214227 0.883482 0.435049
0.274325 0.886849 0.439211
0.417348 0.898798 0.451608
0.479626 0.898750 0.443546
0.595850 0.896233 0.442844
0.677348 0.874993 0.439214
0.777251 0.866326 0.437918
0.849155 0.864056 0.439317
0.061556 0.099672 0.473990
0.155611 0.101983 0.475909
0.214432 0.100680 0.472123
0.357590 0.098117 0.464640
0.423223 0.096431 0.464707
0.583113 0.094715 0.476219
0.665849 0.095538 0.481943
0.796760 0.103767 0.487756
0.895709 0.115526 0.492967
0.063298 0.187057 0.469833
0.160912 0.193885 0.476635
0.223041 0.195862 0.478659
0.365090 0.190967 0.468671
0.430854 0.189651 0.468260
0.591506 0.188162 0.480017
0.673080 0.190274 0.484423
0.799393 0.203389 0.490779
0.898395 0.214858 0.497740
0.058587 0.242364 0.472273
0.160641 0.251327 0.473959
0.225251 0.255781 0.478472
0.370212 0.253262 0.472484
0.435619 0.251849 0.470607
0.596719 0.250746 0.482277
0.675728 0.255971 0.485759
0.801088 0.270711 0.493827
0.899258 0.281704 0.500830
0.037230 0.397133 0.490643
0.138266 0.399045 0.490938
0.207191 0.400214 0.491062
0.387033 0.412042 0.487216
0.449128 0.405916 0.479839
0.600861 0.412463 0.487397
0.674882 0.420005 0.493039
0.802167 0.434112 0.505629
0.898942 0.444474 0.515507
0.038819 0.472754 0.488605
0.137938 0.473873 0.487966
0.206128 0.474003 0.486863
0.373520 0.476717 0.486674
0.451873 0.477239 0.485810
0.594922 0.485739 0.492078
0.670534 0.494522 0.500810
0.799342 0.510241 0.516533
0.893548 0.521615 0.527921
0.043996 0.642455 0.494148
0.140194 0.640960 0.491929
0.207671 0.639156 0.489951
0.392810 0.611974 0.488583
0.465610 0.616998 0.493568
0.584562 0.602397 0.484593
0.666397 0.616710 0.503749
0.797677 0.640648 0.529553
0.886967 0.651107 0.540500
0.046420 0.720651 0.491277
0.139619 0.719691 0.489339
0.219589 0.704568 0.486350
0.397598 0.684428 0.494449
0.472018 0.690820 0.500159
0.591743 0.680855 0.493356
0.659242 0.673369 0.490318
0.788073 0.696178 0.521148
0.876919 0.712922 0.540397
0.072807 0.838013 0.490249
0.182761 0.817212 0.491856
0.264544 0.798987 0.496705
0.409928 0.812415 0.509124
0.485892 0.818586 0.515376
0.602779 0.819765 0.510996
0.675585 0.798140 0.504301
0.780877 0.795866 0.504985
0.863658 0.804636 0.523770
0.110896 0.899212 0.494850
0.214145 0.882605 0.501878
0.274180 0.885935 0.506337
0.416921 0.897839 0.518899
0.494746 0.902958 0.525578
0.605137 0.903025 0.519801
0.686860 0.894463 0.517220
0.785410 0.875607 0.511887
0.857626 0.873347 0.513514
0.074889 0.112202 0.633796
0.168779 0.114484 0.635752
0.227956 0.113545 0.633405
0.372156 0.110860 0.624004
0.436693 0.109849 0.620983
0.581690 0.106263 0.621981
0.657691 0.103751 0.625380
0.795343 0.105326 0.638072
0.904793 0.106616 0.645868
0.076659 0.199599 0.629975
0.174153 0.206447 0.636858
0.236233 0.208385 0.638899
0.380687 0.204847 0.630908
0.444894 0.202595 0.625898
0.589276 0.199370 0.626078
0.666428 0.196906 0.630288
0.804551 0.198289 0.642505
0.912551 0.200787 0.649042
0.077699 0.257108 0.627522
0.173893 0.263959 0.634430
0.238518 0.268434 0.639012
0.386279 0.268106 0.636291
0.450754 0.265219 0.630622
0.594002 0.261849 0.628824
0.672060 0.259673 0.633553
0.810472 0.260968 0.644717
0.916299 0.264223 0.648475
0.039350 0.395709 0.661624
0.155854 0.402490 0.648456
0.237094 0.411232 0.638843
0.404815 0.428494 0.643632
0.471238 0.428784 0.643679
0.603578 0.415751 0.634625
0.681101 0.412786 0.638292
0.819377 0.416231 0.645564
0.915864 0.426673 0.649474
0.040934 0.471277 0.659556
0.139749 0.472145 0.658009
0.207848 0.472303 0.656208
0.400309 0.488413 0.636054
0.472906 0.494284 0.640685
0.601976 0.483403 0.632204
0.681403 0.481312 0.635758
0.816015 0.490651 0.642055
0.910248 0.501477 0.648117
0.044432 0.631600 0.650900
0.140327 0.631731 0.649448
0.207748 0.631081 0.647685
0.375442 0.630143 0.643740
0.454827 0.630614 0.642910
0.611475 0.634803 0.644568
0.685436 0.632320 0.640152
0.814030 0.647734 0.655464
0.905019 0.658214 0.666018
0.046756 0.720015 0.654686
0.139834 0.719149 0.651759
0.207289 0.718187 0.649177
0.373895 0.713988 0.643621
0.455215 0.714151 0.641991
0.611766 0.704120 0.641171
0.675182 0.690620 0.628142
0.812518 0.723430 0.664116
0.897090 0.733247 0.672666
0.051063 0.861441 0.651858
0.145716 0.858111 0.648162
0.217833 0.851655 0.643958
0.384213 0.842990 0.641767
0.480791 0.824633 0.641822
0.620908 0.830667 0.652581
0.698234 0.832048 0.649864
0.795568 0.812085 0.635727
0.882890 0.825954 0.659286
0.064655 0.949051 0.644860
0.155213 0.947343 0.643207
0.227158 0.938234 0.640339
0.408809 0.906318 0.642202
0.494648 0.902115 0.647519
0.624627 0.912809 0.658341
0.705013 0.913170 0.654200
0.799182 0.891965 0.638455
0.871825 0.889072 0.637010
0.081465 0.118388 0.712962
0.175225 0.120661 0.714989
0.234462 0.119863 0.713368
0.379344 0.117311 0.704185
0.443877 0.116129 0.699987
0.587110 0.114918 0.697754
0.660618 0.111154 0.700246
0.791298 0.109421 0.709264
0.900749 0.110731 0.718906
0.083267 0.205752 0.709495
0.180641 0.212608 0.716471
0.242706 0.214532 0.718583
0.387888 0.211493 0.711686
0.452731 0.209419 0.706939
0.595125 0.207330 0.702827
0.668554 0.203937 0.704813
0.800470 0.202304 0.714544
0.909929 0.203359 0.723819
0.084340 0.263314 0.707378
0.180403 0.270174 0.714380
0.245048 0.274666 0.719064
0.393426 0.274913 0.717518
0.458669 0.272349 0.712258
0.600167 0.269425 0.706362
0.673690 0.266585 0.708002
0.806143 0.264777 0.716722
0.914665 0.265234 0.723551
0.058784 0.400127 0.730416
0.176977 0.412210 0.716181
0.247187 0.419013 0.716331
0.413168 0.436565 0.722092
0.479786 0.437425 0.721918
0.609688 0.421746 0.712506
0.680981 0.418904 0.711061
0.817719 0.417014 0.720147
0.922735 0.418703 0.725025
0.041962 0.470129 0.744442
0.144854 0.471953 0.738904
0.224600 0.476298 0.727200
0.408203 0.495914 0.713707
0.481015 0.502117 0.718387
0.609354 0.491065 0.711622
0.680874 0.487431 0.708973
0.819544 0.486264 0.718376
0.918469 0.492218 0.722260
0.045447 0.630226 0.735593
0.141044 0.630345 0.734296
0.208418 0.629688 0.732793
0.377243 0.629626 0.727807
0.456983 0.630365 0.727447
0.625594 0.645895 0.725095
0.689300 0.632669 0.715273
0.822238 0.636694 0.722366
0.913245 0.646071 0.729405
0.047009 0.708099 0.728343
0.139975 0.708882 0.727496
0.207351 0.709092 0.726491
0.373832 0.707856 0.722175
0.455314 0.709427 0.722319
0.606925 0.714258 0.724627
0.697905 0.717169 0.725973
0.817310 0.721429 0.728417
0.905265 0.733035 0.739960
0.051220 0.860927 0.738388
0.145393 0.857928 0.734934
0.217789 0.851088 0.729713
0.376019 0.851988 0.729395
0.459388 0.851587 0.728895
0.614287 0.839536 0.727968
0.708530 0.837692 0.733973
0.804072 0.821681 0.718263
0.896737 0.842359 0.749486
0.064771 0.948126 0.731912
0.155209 0.946386 0.731040
0.220948 0.944198 0.730194
0.376562 0.943497 0.730656
0.469870 0.932089 0.729257
0.623874 0.911804 0.735475
0.717941 0.918825 0.744261
0.816404 0.915543 0.739114
0.881023 0.899549 0.724861
0.091610 0.127938 0.834713
0.185230 0.130202 0.836905
0.244486 0.129568 0.836275
0.390142 0.127204 0.827582
0.455250 0.126105 0.823637
0.597842 0.124454 0.818363
0.669382 0.123936 0.817843
0.791616 0.118396 0.821898
0.894512 0.117106 0.828463
0.093472 0.215320 0.831967
0.202335 0.232674 0.827542
0.263163 0.235555 0.829961
0.402128 0.229786 0.827898
0.465239 0.224908 0.826534
0.605901 0.216850 0.824122
0.677786 0.216067 0.823726
0.800005 0.210972 0.827352
0.903633 0.209685 0.834617
0.094606 0.272976 0.830529
0.202105 0.288229 0.826169
0.266487 0.294530 0.831343
0.409801 0.295116 0.832773
0.472331 0.289642 0.831279
0.610999 0.279046 0.828323
0.683206 0.278351 0.828022
0.804885 0.273290 0.831175
0.907737 0.271613 0.838443
0.091196 0.414510 0.834408
0.204065 0.427397 0.824062
0.268596 0.433484 0.829433
0.426817 0.449754 0.842912
0.493459 0.451078 0.844809
0.623030 0.436874 0.840675
0.691271 0.429724 0.838482
0.815126 0.425590 0.840147
0.916864 0.423590 0.847496
0.062745 0.473819 0.860754
0.189241 0.484621 0.835640
0.266879 0.494305 0.828170
0.422528 0.509390 0.841098
0.495916 0.516530 0.846981
0.625948 0.510194 0.845758
0.692524 0.499349 0.841732
0.816404 0.495315 0.842093
0.915779 0.494011 0.849081
0.047152 0.628503 0.876078
0.151223 0.625762 0.867528
0.218328 0.625767 0.867538
0.394634 0.633512 0.858395
0.491721 0.644493 0.846417
0.641191 0.661049 0.856976
0.711663 0.657078 0.855907
0.823203 0.640679 0.849250
0.919574 0.638288 0.855772
0.048767 0.706577 0.873015
0.150317 0.702683 0.864156
0.217368 0.703431 0.863819
0.378225 0.707998 0.865085
0.460072 0.709945 0.865042
0.633624 0.726704 0.853042
0.720373 0.736740 0.859680
0.823346 0.719990 0.850623
0.916134 0.719012 0.856076
0.051583 0.846921 0.869580
0.151875 0.839703 0.860554
0.218154 0.840018 0.859938
0.376127 0.843539 0.861111
0.459721 0.844536 0.860900
0.605879 0.848231 0.862412
0.702547 0.850388 0.863123
0.834206 0.855558 0.866228
0.910790 0.851405 0.860585
0.064988 0.947267 0.872111
0.155302 0.945501 0.870215
0.220973 0.943286 0.868208
0.376266 0.942577 0.866747
0.462227 0.940738 0.865028
0.603075 0.940147 0.864309
0.706464 0.939167 0.863889
0.832891 0.927770 0.863782
0.891716 0.912488 0.842732
0.115319 0.149858 0.922841
0.206672 0.153354 0.925057
0.263666 0.152716 0.924466
0.402129 0.144702 0.922518
0.465533 0.140628 0.921641
0.606862 0.132482 0.919874
0.678440 0.131980 0.919373
0.797571 0.131023 0.918895
0.896055 0.124928 0.923965
0.117095 0.234024 0.920276
0.214175 0.243974 0.927522
0.274939 0.247073 0.929799
0.413474 0.242000 0.928415
0.476066 0.236840 0.927564
0.615277 0.226335 0.925842
0.686833 0.224035 0.925315
0.806273 0.223143 0.924782
0.904449 0.217174 0.929630
0.118187 0.289633 0.918938
0.213932 0.299298 0.926205
0.278571 0.306103 0.931150
0.421915 0.307978 0.932806
0.483818 0.302229 0.931966
0.621083 0.290512 0.930281
0.691630 0.286163 0.929623
0.811229 0.284810 0.928954
0.907827 0.278888 0.932817
0.121594 0.428755 0.916777
0.215876 0.437904 0.924206
0.280670 0.444388 0.929347
0.439257 0.461773 0.941981
0.505673 0.463381 0.943532
0.634389 0.450511 0.941478
0.701037 0.440971 0.939603
0.822105 0.435609 0.937966
0.915940 0.430500 0.939913
0.103912 0.485315 0.933418
0.214972 0.499252 0.923013
0.278653 0.504513 0.927433
0.434756 0.520794 0.939188
0.508677 0.528859 0.944111
0.638430 0.524774 0.943904
0.704082 0.513775 0.941079
0.823572 0.504730 0.938341
0.914524 0.501071 0.939066
0.059807 0.624339 0.973499
0.154738 0.625423 0.973182
0.231694 0.627622 0.963815
0.426736 0.647807 0.938326
0.507271 0.656301 0.939030
0.654347 0.673769 0.949831
0.726631 0.673484 0.949470
0.830805 0.648194 0.943728
0.917707 0.644810 0.942679
0.061269 0.700766 0.968182
0.153896 0.702397 0.967217
0.220993 0.703305 0.965772
0.384089 0.708758 0.963856
0.482374 0.716276 0.949840
0.647233 0.738417 0.942219
0.733976 0.749826 0.947725
0.834402 0.733590 0.943426
0.914169 0.725797 0.939994
0.063869 0.837772 0.961626
0.155289 0.839008 0.960259
0.221604 0.839361 0.958405
0.379698 0.843089 0.958026
0.463737 0.844265 0.956408
0.610003 0.848507 0.956096
0.707810 0.851448 0.955091
0.855590 0.873045 0.950910
0.914269 0.851787 0.941820
0.065358 0.931654 0.953497
0.155572 0.931395 0.951802
0.221192 0.930286 0.949631
0.376228 0.932167 0.949105
0.462459 0.931795 0.947360
0.602785 0.933565 0.946931
0.706950 0.934395 0.946077
0.831170 0.937189 0.946769
0.919573 0.940620 0.948433
