Dreamcore_Anemoia.cube
# Dreamcore - Anemoia v2 (Balanced Nostalgic)
TITLE "Dreamcore_Anemoia"
LUT_3D_SIZE 5
DOMAIN_MIN 0.0 0.0 0.0
DOMAIN_MAX 1.0 1.0 1.0
0.025095 0.053289 0.057369
0.190771 0.066069 0.069163
0.419557 0.085459 0.087530
0.655258 0.105643 0.106510
0.879614 0.126225 0.125817
0.049971 0.205127 0.072265
0.191858 0.209084 0.066231
0.420796 0.232053 0.088143
0.657342 0.253049 0.106947
0.879388 0.275505 0.129807
0.084378 0.421644 0.096912
0.215636 0.421353 0.091710
0.419333 0.425200 0.078500
0.647910 0.447159 0.103542
0.875755 0.471229 0.130402
0.114248 0.635178 0.117343
0.239874 0.631112 0.112556
0.438863 0.638662 0.092769
0.637250 0.634087 0.091928
0.861805 0.658584 0.117174
0.141127 0.843401 0.135560
0.266001 0.836859 0.133796
0.454787 0.835156 0.123509
0.659527 0.837993 0.105805
0.838227 0.829226 0.106071
0.042932 0.069440 0.220950
0.197922 0.060890 0.227037
0.432134 0.071980 0.232973
0.668088 0.091550 0.246229
0.894162 0.110489 0.261345
0.040309 0.213553 0.214996
0.206273 0.224928 0.224313
0.436935 0.244077 0.242014
0.673502 0.263887 0.260337
0.898796 0.284293 0.279265
0.084696 0.421576 0.230034
0.239024 0.439395 0.245507
0.433160 0.439306 0.231101
0.665302 0.464817 0.256371
0.889531 0.487517 0.280816
0.119280 0.634482 0.250056
0.260347 0.648842 0.257990
0.450546 0.649255 0.246383
0.651464 0.648681 0.238185
0.872371 0.673619 0.268119
0.153404 0.843640 0.271622
0.285919 0.853026 0.275411
0.471746 0.845991 0.272105
0.675189 0.855761 0.241987
0.854134 0.845502 0.243889
0.065859 0.091429 0.447563
0.213397 0.082807 0.454670
0.437348 0.068833 0.459786
0.682907 0.077029 0.466169
0.911784 0.093359 0.473766
0.066951 0.233678 0.441550
0.232806 0.249794 0.454801
0.447183 0.234053 0.459318
0.691115 0.245488 0.466321
0.918042 0.263612 0.476679
0.063667 0.443081 0.439625
0.225925 0.451224 0.445612
0.457015 0.463376 0.455562
0.685879 0.482862 0.472909
0.915044 0.501718 0.490115
0.086460 0.666604 0.441586
0.259258 0.656797 0.450479
0.478859 0.672416 0.469071
0.674742 0.672468 0.455035
0.894897 0.701644 0.492352
0.150920 0.844484 0.456664
0.296702 0.853585 0.471158
0.501834 0.871343 0.484668
0.693229 0.872860 0.462125
0.873686 0.865733 0.461275
0.089423 0.114037 0.680243
0.237990 0.110732 0.684106
0.447951 0.078531 0.702006
0.684201 0.077381 0.699198
0.919912 0.085765 0.705851
0.092884 0.257636 0.674127
0.256378 0.272495 0.688429
0.460246 0.251729 0.698253
0.694949 0.242363 0.699603
0.931482 0.249716 0.702848
0.080347 0.454127 0.672512
0.248369 0.466873 0.676436
0.489126 0.494996 0.687378
0.695614 0.470172 0.687375
0.932269 0.481778 0.692145
0.087114 0.665336 0.656271
0.242545 0.672707 0.661562
0.471177 0.685804 0.671429
0.697488 0.695785 0.679221
0.918832 0.720815 0.702696
0.109679 0.884044 0.659074
0.260689 0.887369 0.665619
0.504661 0.878204 0.680177
0.721224 0.890095 0.698130
0.893662 0.886401 0.685247
0.124248 0.147231 0.895585
0.271702 0.149341 0.896468
0.463471 0.109479 0.922633
0.694679 0.086953 0.936115
0.921216 0.086103 0.933766
0.127752 0.286597 0.890597
0.290892 0.305618 0.905359
0.484866 0.287765 0.916945
0.704461 0.251596 0.937384
0.931746 0.248986 0.933439
0.123037 0.478477 0.889731
0.292169 0.498038 0.896004
0.518792 0.523929 0.913835
0.706723 0.487398 0.924709
0.935056 0.477076 0.921787
0.103254 0.674188 0.886510
0.258005 0.682517 0.890187
0.497110 0.701785 0.894492
0.738420 0.736474 0.905439
0.928384 0.706963 0.901719
0.110202 0.881764 0.865712
0.260795 0.884955 0.866634
0.486909 0.893463 0.871709
0.717179 0.902315 0.877087
0.913330 0.906937 0.881068
