Dreamcore_Poolrooms.cube
# Dreamcore - Poolrooms v2 (Cool Fluorescent Liminal)
TITLE "Dreamcore_Poolrooms"
LUT_3D_SIZE 5
DOMAIN_MIN 0.0 0.0 0.0
DOMAIN_MAX 1.0 1.0 1.0
0.024677 0.069808 0.079992
0.184602 0.081867 0.088898
0.403437 0.107797 0.114369
0.628375 0.134595 0.140852
0.850148 0.162852 0.168851
0.046576 0.220376 0.087632
0.186140 0.212187 0.090421
0.405719 0.241839 0.116842
0.631559 0.269114 0.143700
0.850715 0.299148 0.175847
0.073551 0.442138 0.109556
0.208421 0.443734 0.104244
0.400655 0.417558 0.115415
0.621309 0.448626 0.145438
0.842360 0.482320 0.184599
0.100355 0.664136 0.134730
0.224432 0.662949 0.125203
0.429370 0.624040 0.144952
0.612293 0.623415 0.145699
0.826163 0.653259 0.177752
0.131149 0.880009 0.166728
0.246305 0.877389 0.153638
0.443972 0.871219 0.154711
0.644770 0.833586 0.167664
0.816969 0.829110 0.170917
0.042252 0.081562 0.242208
0.193426 0.081671 0.238447
0.421511 0.088587 0.249625
0.646422 0.114969 0.267527
0.869621 0.141405 0.289859
0.030241 0.234524 0.246802
0.201868 0.237168 0.246268
0.424172 0.256488 0.262868
0.650069 0.283455 0.289664
0.872803 0.311496 0.317592
0.064815 0.451648 0.250048
0.227233 0.454791 0.260670
0.418893 0.436737 0.259195
0.645097 0.472353 0.291520
0.863418 0.502946 0.325385
0.100520 0.662860 0.270092
0.247430 0.673914 0.279979
0.443747 0.668420 0.274691
0.630002 0.642096 0.283815
0.845005 0.675058 0.319562
0.131215 0.878400 0.296714
0.274326 0.887642 0.308652
0.460974 0.885030 0.298184
0.661016 0.850721 0.302630
0.832611 0.846107 0.305085
0.061556 0.099672 0.473990
0.214432 0.100680 0.472123
0.423223 0.096431 0.464707
0.665849 0.095538 0.481943
0.895709 0.115526 0.492967
0.058587 0.242364 0.472273
0.225251 0.255781 0.478472
0.435619 0.251849 0.470607
0.675728 0.255971 0.485759
0.899258 0.281704 0.500830
0.038819 0.472754 0.488605
0.206128 0.474003 0.486863
0.451873 0.477239 0.485810
0.670534 0.494522 0.500810
0.893548 0.521615 0.527921
0.046420 0.720651 0.491277
0.219589 0.704568 0.486350
0.472018 0.690820 0.500159
0.659242 0.673369 0.490318
0.876919 0.712922 0.540397
0.110896 0.899212 0.494850
0.274180 0.885935 0.506337
0.494746 0.902958 0.525578
0.686860 0.894463 0.517220
0.857626 0.873347 0.513514
0.081465 0.118388 0.712962
0.234462 0.119863 0.713368
0.443877 0.116129 0.699987
0.660618 0.111154 0.700246
0.900749 0.110731 0.718906
0.084340 0.263314 0.707378
0.245048 0.274666 0.719064
0.458669 0.272349 0.712258
0.673690 0.266585 0.708002
0.914665 0.265234 0.723551
0.041962 0.470129 0.744442
0.224600 0.476298 0.727200
0.481015 0.502117 0.718387
0.680874 0.487431 0.708973
0.918469 0.492218 0.722260
0.047009 0.708099 0.728343
0.207351 0.709092 0.726491
0.455314 0.709427 0.722319
0.697905 0.717169 0.725973
0.905265 0.733035 0.739960
0.064771 0.948126 0.731912
0.220948 0.944198 0.730194
0.469870 0.932089 0.729257
0.717941 0.918825 0.744261
0.881023 0.899549 0.724861
0.115319 0.149858 0.922841
0.263666 0.152716 0.924466
0.465533 0.140628 0.921641
0.678440 0.131980 0.919373
0.896055 0.124928 0.923965
0.118187 0.289633 0.918938
0.278571 0.306103 0.931150
0.483818 0.302229 0.931966
0.691630 0.286163 0.929623
0.907827 0.278888 0.932817
0.103912 0.485315 0.933418
0.278653 0.504513 0.927433
0.508677 0.528859 0.944111
0.704082 0.513775 0.941079
0.914524 0.501071 0.939066
0.061269 0.700766 0.968182
0.220993 0.703305 0.965772
0.482374 0.716276 0.949840
0.733976 0.749826 0.947725
0.914169 0.725797 0.939994
0.065358 0.931654 0.953497
0.221192 0.930286 0.949631
0.462459 0.931795 0.947360
0.706950 0.934395 0.946077
0.919573 0.940620 0.948433
