Dreamcore_Eternal3PM.cube
# Dreamcore - Eternal 3PM v2 (Warm Overcast Haze)
TITLE "Dreamcore_Eternal3PM"
LUT_3D_SIZE 33
DOMAIN_MIN 0.0 0.0 0.0
DOMAIN_MAX 1.0 1.0 1.0
0.058454 0.062382 0.041217
0.075184 0.063065 0.042676
0.100654 0.064716 0.044479
0.129584 0.066367 0.046136
0.156279 0.067869 0.047692
0.175211 0.068909 0.048780
0.181320 0.069192 0.049078
0.193930 0.069859 0.049781
0.221840 0.071432 0.051435
0.259837 0.073604 0.053718
0.302688 0.076068 0.056304
0.345137 0.078516 0.058865
0.381909 0.080633 0.061071
0.407708 0.082099 0.062596
0.417231 0.082596 0.063114
0.427446 0.083135 0.063674
0.453801 0.084642 0.065234
0.491010 0.086803 0.067465
0.533771 0.089304 0.070036
0.576764 0.091826 0.072619
0.614648 0.094046 0.074884
0.642064 0.095638 0.076504
0.653636 0.096274 0.077150
0.664349 0.096858 0.077743
0.694437 0.098620 0.079527
0.734317 0.100981 0.081910
0.774190 0.103347 0.084291
0.804218 0.105119 0.086067
0.814846 0.105708 0.086657
0.833184 0.106770 0.087718
0.867970 0.108841 0.089784
0.899590 0.110722 0.091655
0.908086 0.112530 0.093520
0.058545 0.077568 0.042806
0.075247 0.078756 0.041872
0.100267 0.079780 0.044273
0.128837 0.081715 0.046580
0.155628 0.083259 0.048133
0.174797 0.084284 0.049219
0.181130 0.084515 0.049525
0.193385 0.085105 0.050196
0.221067 0.086626 0.051820
0.258956 0.088753 0.054080
0.301806 0.091172 0.056651
0.344347 0.093572 0.059205
0.381289 0.095637 0.061413
0.407323 0.097048 0.062947
0.417126 0.097483 0.063479
0.427091 0.097930 0.064022
0.453296 0.099355 0.065567
0.490441 0.101442 0.067787
0.533212 0.103874 0.070351
0.576273 0.106329 0.072931
0.614270 0.108482 0.075197
0.641831 0.110005 0.076822
0.653566 0.110568 0.077476
0.664144 0.111062 0.078059
0.694164 0.112741 0.079835
0.734055 0.115025 0.082213
0.773990 0.117317 0.084593
0.804108 0.119013 0.086371
0.814811 0.119522 0.086963
0.833097 0.120496 0.088019
0.867904 0.122487 0.090082
0.899565 0.124288 0.091953
0.907843 0.126204 0.094052
0.060122 0.101042 0.045237
0.075754 0.103025 0.043601
0.100566 0.103435 0.043141
0.128812 0.104447 0.045873
0.155323 0.106235 0.048387
0.174499 0.107458 0.049833
0.180997 0.107741 0.050247
0.192814 0.108375 0.050986
0.220265 0.109955 0.052573
0.258043 0.112146 0.054802
0.300892 0.114615 0.057353
0.343526 0.117047 0.059895
0.380639 0.119130 0.062101
0.406910 0.120544 0.063642
0.416998 0.120967 0.064190
0.426715 0.121368 0.064716
0.452770 0.122767 0.066245
0.489855 0.124840 0.068452
0.532638 0.127261 0.071008
0.575770 0.129706 0.073583
0.613885 0.131846 0.075849
0.641593 0.133351 0.077478
0.653492 0.133888 0.078141
0.663937 0.134336 0.078715
0.693892 0.135982 0.080482
0.733797 0.138242 0.082854
0.773799 0.140511 0.085231
0.804010 0.142181 0.087010
0.814789 0.142654 0.087607
0.833025 0.143588 0.088658
0.867856 0.145548 0.090718
0.899563 0.147318 0.092587
0.907332 0.149574 0.095212
0.062206 0.128259 0.047666
0.076533 0.128027 0.047594
0.101654 0.131950 0.044413
0.129344 0.131538 0.044609
0.155688 0.132294 0.047144
0.175006 0.133401 0.049062
0.181707 0.133709 0.049684
0.193032 0.134402 0.050778
0.219848 0.136228 0.052980
0.257150 0.138763 0.055670
0.299995 0.141387 0.058197
0.342720 0.143939 0.060727
0.380005 0.146110 0.062931
0.406511 0.147585 0.064479
0.416885 0.148041 0.065043
0.426360 0.148440 0.065554
0.452266 0.149866 0.067068
0.489289 0.151980 0.069262
0.532085 0.154448 0.071809
0.575290 0.156937 0.074379
0.613522 0.159115 0.076645
0.641379 0.160648 0.078279
0.653441 0.161201 0.078951
0.663757 0.161644 0.079518
0.693647 0.163304 0.081276
0.733566 0.165587 0.083643
0.773637 0.167882 0.086018
0.803943 0.169571 0.087799
0.814799 0.170049 0.088401
0.832986 0.170984 0.089448
0.867842 0.172959 0.091504
0.899596 0.174742 0.093372
0.906787 0.177340 0.096594
0.064195 0.153807 0.049916
0.078280 0.153616 0.049847
0.101551 0.156090 0.047724
0.130506 0.158514 0.045637
0.156397 0.158075 0.045939
0.175626 0.158395 0.047755
0.182600 0.158611 0.048408
0.193581 0.159112 0.049468
0.220091 0.160797 0.052105
0.257002 0.163457 0.055487
0.299339 0.166477 0.058728
0.341953 0.169316 0.061501
0.379407 0.171631 0.063705
0.406148 0.173214 0.065262
0.416806 0.173744 0.065844
0.426046 0.174179 0.066341
0.451800 0.175674 0.067842
0.488760 0.177876 0.070025
0.531567 0.180436 0.072564
0.574843 0.183014 0.075132
0.613192 0.185272 0.077399
0.641196 0.186873 0.079039
0.653422 0.187478 0.079723
0.663611 0.187954 0.080284
0.693434 0.189666 0.082035
0.733368 0.192013 0.084398
0.773505 0.194372 0.086772
0.803906 0.196118 0.088557
0.814839 0.196638 0.089165
0.832976 0.197612 0.090209
0.867856 0.199640 0.092264
0.899657 0.201475 0.094132
0.906403 0.204272 0.097819
0.065635 0.172699 0.051514
0.079474 0.172579 0.051451
0.101697 0.172790 0.051127
0.131090 0.178478 0.046519
0.157399 0.178343 0.046467
0.176407 0.177936 0.046838
0.183289 0.177719 0.047394
0.193921 0.178087 0.048420
0.220219 0.179476 0.051034
0.256977 0.181979 0.054697
0.299085 0.185114 0.058462
0.341492 0.188217 0.061688
0.378843 0.190830 0.064233
0.405815 0.192548 0.065802
0.416757 0.193179 0.066404
0.425769 0.193678 0.066890
0.451368 0.195270 0.068381
0.488261 0.197585 0.070557
0.531075 0.200262 0.073093
0.574419 0.202955 0.075661
0.612881 0.205320 0.077933
0.641030 0.207018 0.079582
0.653420 0.207706 0.080278
0.663482 0.208244 0.080835
0.693237 0.210037 0.082582
0.733181 0.212475 0.084944
0.773383 0.214927 0.087320
0.803876 0.216759 0.089110
0.814887 0.217353 0.089727
0.832972 0.218395 0.090770
0.867875 0.220505 0.092826
0.899721 0.222420 0.094697
0.906120 0.225362 0.098750
0.066054 0.179895 0.051987
0.079643 0.179866 0.051934
0.101672 0.179828 0.051889
0.130925 0.186295 0.046730
0.157360 0.186260 0.046685
0.176872 0.186161 0.046745
0.183979 0.185929 0.047016
0.193835 0.185878 0.047848
0.219909 0.187186 0.050439
0.256561 0.189608 0.054088
0.298603 0.192813 0.058095
0.341008 0.196035 0.061478
0.378387 0.198832 0.064222
0.405497 0.200728 0.065917
0.416720 0.201478 0.066541
0.425510 0.202059 0.067019
0.450951 0.203751 0.068504
0.487772 0.206177 0.070679
0.530587 0.208971 0.073217
0.573993 0.211781 0.075791
0.612563 0.214261 0.078073
0.640854 0.216070 0.079734
0.653406 0.216863 0.080445
0.663343 0.217487 0.081000
0.693024 0.219377 0.082746
0.732974 0.221920 0.085111
0.773235 0.224478 0.087494
0.803817 0.226415 0.089294
0.814905 0.227106 0.089920
0.832936 0.228239 0.090964
0.867858 0.230450 0.093025
0.899744 0.232465 0.094902
0.905984 0.235511 0.099136
0.066686 0.189336 0.052683
0.080006 0.189205 0.052622
0.101899 0.189064 0.052568
0.130387 0.194894 0.047795
0.157418 0.195700 0.046994
0.177231 0.195568 0.046940
0.184855 0.195393 0.046960
0.194166 0.194984 0.047330
0.219634 0.195622 0.049825
0.256170 0.197756 0.053469
0.298167 0.200792 0.057649
0.340545 0.203940 0.061233
0.378073 0.206670 0.064033
0.405196 0.208616 0.066010
0.416683 0.209314 0.066669
0.425259 0.209799 0.067133
0.450539 0.211411 0.068606
0.487286 0.213770 0.070772
0.530102 0.216502 0.073306
0.573567 0.219251 0.075881
0.612245 0.221670 0.078167
0.640677 0.223415 0.079834
0.653389 0.224140 0.080555
0.663203 0.224678 0.081101
0.692810 0.226492 0.082841
0.732763 0.228967 0.085205
0.773082 0.231462 0.087589
0.803751 0.233335 0.089392
0.814915 0.233957 0.090023
0.832891 0.235016 0.091064
0.867829 0.237161 0.093124
0.899755 0.239113 0.095003
0.905894 0.242122 0.099353
0.068694 0.213791 0.054818
0.081745 0.213596 0.054750
0.103509 0.213393 0.054688
0.130087 0.216251 0.052182
0.158501 0.220988 0.048173
0.178536 0.220788 0.048114
0.186534 0.220597 0.048050
0.195861 0.220406 0.047988
0.219993 0.219424 0.048587
0.256428 0.220933 0.052224
0.298427 0.223464 0.056405
0.340735 0.226511 0.060604
0.378220 0.229221 0.063768
0.405522 0.231153 0.065894
0.417183 0.231865 0.066716
0.425460 0.232324 0.067286
0.450307 0.234040 0.069093
0.486829 0.236484 0.071436
0.529650 0.239227 0.073961
0.573182 0.241979 0.076530
0.611973 0.244388 0.078814
0.640550 0.246106 0.080486
0.653425 0.246785 0.081214
0.663119 0.247254 0.081751
0.692656 0.249022 0.083482
0.732619 0.251465 0.085839
0.773001 0.253927 0.088221
0.803762 0.255757 0.090025
0.815006 0.256319 0.090659
0.832929 0.257314 0.091694
0.867889 0.259411 0.093750
0.899859 0.261313 0.095627
0.905633 0.264298 0.100360
0.071690 0.248558 0.057918
0.084475 0.248331 0.057847
0.106111 0.248102 0.057778
0.131672 0.247873 0.057711
0.158961 0.254122 0.052411
0.180595 0.256963 0.049864
0.188909 0.256736 0.049800
0.197891 0.256509 0.049736
0.222706 0.256282 0.049674
0.257175 0.255160 0.050531
0.299186 0.256912 0.054710
0.341594 0.259395 0.058915
0.379114 0.261952 0.062623
0.406448 0.263911 0.065287
0.418310 0.264609 0.066244
0.426343 0.265022 0.066876
0.450925 0.266731 0.068879
0.487103 0.269312 0.071634
0.529470 0.272342 0.074741
0.572861 0.275286 0.077558
0.611768 0.277757 0.079839
0.640494 0.279508 0.081512
0.653533 0.280185 0.082248
0.663111 0.280626 0.082778
0.692579 0.282405 0.084498
0.732556 0.284877 0.086846
0.773007 0.287365 0.089223
0.803864 0.289205 0.091026
0.815189 0.289747 0.091664
0.833061 0.290722 0.092694
0.867764 0.292718 0.094725
0.899131 0.294240 0.096549
0.905210 0.296965 0.101889
0.075271 0.288874 0.061513
0.087789 0.288647 0.061440
0.109298 0.288421 0.061367
0.134859 0.288197 0.061295
0.159994 0.289868 0.059680
0.181446 0.295318 0.054984
0.191053 0.297514 0.052940
0.200397 0.298632 0.051775
0.224986 0.298408 0.051709
0.260415 0.298191 0.051638
0.300266 0.296938 0.052752
0.342778 0.298672 0.056960
0.380475 0.300731 0.060679
0.408041 0.302408 0.063386
0.420140 0.303074 0.064555
0.427953 0.303442 0.065300
0.452261 0.305103 0.067681
0.488111 0.307722 0.071004
0.530283 0.310803 0.074467
0.573437 0.313941 0.077755
0.612042 0.316699 0.080573
0.640591 0.318691 0.082647
0.653724 0.319444 0.083477
0.663188 0.319893 0.083999
0.692589 0.321733 0.085708
0.732582 0.324289 0.088047
0.773104 0.326858 0.090418
0.803692 0.328485 0.092191
0.815384 0.328654 0.092837
0.831123 0.329095 0.093725
0.864364 0.330717 0.095652
0.896795 0.332275 0.097531
0.904412 0.334939 0.103654
0.078997 0.329908 0.065141
0.091245 0.329706 0.065069
0.112627 0.329510 0.064996
0.138186 0.329317 0.064920
0.162949 0.329126 0.064845
0.182744 0.331922 0.062320
0.191952 0.334206 0.060214
0.200816 0.336328 0.058240
0.227409 0.341503 0.053761
0.262733 0.341321 0.053685
0.303840 0.341149 0.053604
0.344075 0.339775 0.054943
0.381950 0.341254 0.058671
0.409752 0.342600 0.061396
0.422132 0.343156 0.062592
0.429768 0.343441 0.063319
0.453928 0.344861 0.065681
0.489676 0.347252 0.069186
0.531660 0.350330 0.073303
0.574615 0.353526 0.077105
0.613153 0.356372 0.080249
0.641795 0.358438 0.082478
0.655024 0.359263 0.083420
0.664275 0.359782 0.084071
0.692488 0.361374 0.086119
0.730853 0.363735 0.088913
0.770418 0.366019 0.091429
0.801809 0.367595 0.093238
0.815640 0.367926 0.094010
0.828792 0.368204 0.094743
0.861019 0.369805 0.096604
0.894312 0.371466 0.098528
0.903281 0.373984 0.105441
0.082389 0.366751 0.068355
0.094366 0.366597 0.068288
0.115617 0.366451 0.068216
0.141172 0.366311 0.068141
0.166044 0.366172 0.068067
0.185232 0.366028 0.067996
0.194053 0.367346 0.066720
0.202109 0.369412 0.064827
0.227587 0.375909 0.059284
0.264818 0.380280 0.055494
0.305923 0.380167 0.055408
0.347708 0.380060 0.055319
0.383287 0.378577 0.056821
0.411325 0.379596 0.059562
0.423985 0.380056 0.060784
0.431452 0.380284 0.061494
0.455462 0.381479 0.063836
0.491152 0.383579 0.067327
0.533153 0.386376 0.071436
0.576081 0.389495 0.075631
0.614348 0.392326 0.079370
0.642615 0.393979 0.081705
0.656281 0.394505 0.082816
0.664130 0.394573 0.083446
0.690820 0.396150 0.085612
0.728541 0.398564 0.088472
0.768061 0.401084 0.091344
0.800186 0.403032 0.093675
0.815884 0.403696 0.094804
0.826742 0.403978 0.095580
0.857704 0.405654 0.097446
0.891657 0.407484 0.099405
0.901866 0.409815 0.107044
0.084940 0.394426 0.070718
0.096642 0.394337 0.070658
0.117758 0.394259 0.070590
0.143305 0.394188 0.070520
0.168282 0.394118 0.070449
0.187674 0.394042 0.070383
0.196449 0.393952 0.070327
0.203682 0.394467 0.069770
0.227901 0.400936 0.064299
0.266266 0.409827 0.056821
0.307363 0.409790 0.056734
0.349233 0.409759 0.056643
0.386398 0.409514 0.056846
0.412478 0.408147 0.058122
0.425418 0.408550 0.059369
0.432722 0.408758 0.060062
0.456579 0.409793 0.062384
0.491791 0.411473 0.065830
0.532954 0.413709 0.069864
0.575135 0.416305 0.073993
0.613253 0.418813 0.077721
0.642272 0.420732 0.080556
0.657202 0.421556 0.082013
0.664012 0.421711 0.082653
0.689239 0.423277 0.084729
0.726133 0.425799 0.087740
0.765620 0.428564 0.090918
0.798775 0.430737 0.093321
0.816432 0.431697 0.094593
0.825626 0.431991 0.095248
0.854942 0.433863 0.097372
0.888959 0.436109 0.099837
0.900587 0.438323 0.107882
0.086122 0.407895 0.071794
0.097544 0.407886 0.071742
0.118521 0.407888 0.071684
0.144054 0.407899 0.071621
0.169131 0.407911 0.071558
0.188724 0.407916 0.071500
0.197789 0.407905 0.071453
0.204648 0.407890 0.071409
0.228004 0.413397 0.066801
0.265803 0.423008 0.058794
0.307735 0.424709 0.057342
0.349681 0.424765 0.057254
0.387236 0.424817 0.057171
0.414305 0.424167 0.058039
0.426075 0.423123 0.058593
0.432816 0.423259 0.059233
0.455557 0.424106 0.061447
0.489904 0.425729 0.064800
0.530719 0.428037 0.068785
0.572910 0.430742 0.072901
0.611431 0.433419 0.076654
0.641282 0.435576 0.079558
0.657510 0.436714 0.081130
0.663599 0.437047 0.081712
0.687256 0.438821 0.084011
0.723355 0.441504 0.087036
0.762855 0.444482 0.090250
0.796776 0.447046 0.092985
0.816289 0.448393 0.094407
0.824283 0.448827 0.094976
0.852067 0.450812 0.096987
0.886358 0.453310 0.099470
0.900522 0.455410 0.106614
0.086596 0.414057 0.072218
0.097724 0.414010 0.072165
0.118544 0.413978 0.072106
0.144046 0.413954 0.072042
0.169207 0.413932 0.071978
0.188986 0.413904 0.071919
0.198327 0.413860 0.071871
0.204941 0.413812 0.071827
0.227754 0.418520 0.067853
0.265054 0.428059 0.059876
0.307331 0.430744 0.057528
0.348874 0.430562 0.057432
0.386207 0.430382 0.057339
0.413691 0.429677 0.057964
0.426992 0.429070 0.058443
0.432135 0.428117 0.058828
0.453882 0.428774 0.060952
0.487516 0.430207 0.064242
0.527935 0.432346 0.068195
0.570084 0.434926 0.072312
0.608954 0.437534 0.076104
0.639582 0.439686 0.079088
0.657051 0.440886 0.080786
0.662688 0.441166 0.081328
0.684800 0.442798 0.083479
0.720028 0.445463 0.086592
0.759479 0.448449 0.089814
0.794215 0.451106 0.092624
0.815427 0.452671 0.094267
0.822687 0.453108 0.094785
0.848745 0.455031 0.096672
0.883093 0.457618 0.099162
0.900304 0.459637 0.104699
0.088633 0.435814 0.074051
0.099463 0.435718 0.073996
0.120125 0.435639 0.073932
0.145597 0.435570 0.073863
0.170843 0.435503 0.073794
0.190808 0.435428 0.073731
0.200423 0.435335 0.073680
0.206712 0.434957 0.073609
0.228148 0.436732 0.071608
0.263681 0.445636 0.063701
0.306746 0.451369 0.058428
0.348250 0.450896 0.058315
0.385831 0.450424 0.058207
0.414486 0.449938 0.058112
0.428771 0.448998 0.058623
0.433958 0.448278 0.058824
0.452975 0.446766 0.059862
0.485871 0.447668 0.063094
0.525865 0.449285 0.067019
0.567939 0.451390 0.071143
0.607120 0.453594 0.074980
0.638481 0.455420 0.078051
0.657138 0.456378 0.079882
0.662592 0.456342 0.080425
0.683084 0.457506 0.082435
0.717328 0.459846 0.085785
0.756589 0.462533 0.089155
0.792023 0.464929 0.092050
0.814827 0.466340 0.093901
0.821788 0.466480 0.094466
0.845863 0.467993 0.096333
0.880067 0.470270 0.098816
0.900139 0.471890 0.102752
0.091883 0.469374 0.076934
0.102415 0.469255 0.076878
0.122922 0.469157 0.076811
0.148368 0.469070 0.076737
0.173550 0.468374 0.076610
0.193574 0.467644 0.076487
0.203498 0.466896 0.076379
0.209271 0.466142 0.076278
0.229530 0.465424 0.076158
0.262959 0.472654 0.069441
0.306892 0.483041 0.060097
0.348501 0.482636 0.059739
0.386324 0.481951 0.059617
0.415542 0.481249 0.059508
0.431233 0.480514 0.059424
0.436281 0.479754 0.059360
0.455102 0.478643 0.059809
0.484898 0.476656 0.061425
0.524454 0.477679 0.065314
0.566436 0.479248 0.069436
0.605906 0.481007 0.073310
0.637972 0.482493 0.076460
0.657786 0.483223 0.078415
0.663347 0.482945 0.078984
0.682167 0.483671 0.080844
0.715449 0.485577 0.084110
0.754397 0.488056 0.087925
0.790361 0.490306 0.091185
0.814684 0.491581 0.093189
0.821869 0.491500 0.093788
0.843795 0.492614 0.095583
0.877493 0.494706 0.098317
0.900086 0.496092 0.100862
0.095854 0.509530 0.080383
0.105989 0.508657 0.080262
0.126176 0.507809 0.080127
0.151370 0.506975 0.079985
0.176568 0.506144 0.079842
0.196813 0.505302 0.079708
0.207191 0.504437 0.079590
0.212533 0.503560 0.079481
0.232157 0.502722 0.079350
0.263384 0.505432 0.076273
0.305038 0.515595 0.066988
0.349309 0.521236 0.061472
0.387364 0.520425 0.061338
0.417134 0.519594 0.061220
0.433729 0.518724 0.061128
0.438546 0.517818 0.061060
0.456790 0.516957 0.060966
0.487137 0.515824 0.061276
0.523490 0.513537 0.063269
0.565361 0.514540 0.067382
0.605097 0.515837 0.071284
0.637841 0.516986 0.074504
0.658779 0.517511 0.076576
0.664741 0.517072 0.077195
0.681834 0.517417 0.078895
0.714095 0.518914 0.082067
0.752786 0.521030 0.085861
0.789253 0.523109 0.089437
0.814920 0.524400 0.091967
0.822799 0.524246 0.092775
0.842418 0.525075 0.094535
0.875548 0.527039 0.097260
0.899655 0.528460 0.099229
0.099822 0.549058 0.083754
0.109600 0.548170 0.083633
0.129522 0.547307 0.083495
0.154578 0.546460 0.083349
0.179802 0.545612 0.083203
0.200269 0.544752 0.083065
0.211102 0.543862 0.082945
0.216073 0.542953 0.082836
0.235066 0.542086 0.082702
0.264951 0.541253 0.082548
0.304378 0.550205 0.074232
0.349571 0.560801 0.064536
0.388626 0.561439 0.063157
0.418936 0.560572 0.063032
0.436420 0.559661 0.062936
0.441154 0.558705 0.062870
0.458364 0.557793 0.062776
0.488296 0.556926 0.062653
0.525666 0.555709 0.063028
0.564493 0.553313 0.065171
0.604472 0.554166 0.069093
0.637867 0.555006 0.072375
0.659897 0.555367 0.074555
0.666556 0.554855 0.075247
0.681870 0.554898 0.076779
0.713048 0.556043 0.079845
0.751416 0.557836 0.083606
0.788413 0.559783 0.087227
0.815462 0.561109 0.089884
0.824578 0.561062 0.090808
0.841783 0.561674 0.092514
0.874038 0.563555 0.095670
0.898691 0.565024 0.098050
0.103550 0.585715 0.086854
0.112978 0.584912 0.086742
0.132642 0.584137 0.086612
0.157565 0.583375 0.086471
0.182818 0.582613 0.086330
0.203510 0.581833 0.086197
0.214797 0.581019 0.086083
0.219463 0.580180 0.085984
0.237827 0.579383 0.085857
0.267243 0.578622 0.085707
0.304524 0.583179 0.081115
0.347889 0.593785 0.071459
0.389772 0.600705 0.064878
0.420609 0.599906 0.064752
0.438969 0.599057 0.064656
0.443769 0.598153 0.064595
0.459937 0.597289 0.064506
0.489089 0.596475 0.064385
0.526403 0.595692 0.064242
0.566454 0.594357 0.064855
0.603799 0.592034 0.066932
0.637816 0.592629 0.070267
0.660907 0.592892 0.072546
0.668566 0.592413 0.073335
0.682102 0.592378 0.074686
0.712221 0.593375 0.077638
0.750253 0.595033 0.081350
0.787633 0.596830 0.084997
0.815903 0.598104 0.087765
0.826724 0.598135 0.088852
0.841399 0.598470 0.090310
0.872751 0.600131 0.093372
0.897911 0.601545 0.095826
0.106595 0.615417 0.089341
0.115683 0.614810 0.089249
0.135095 0.614231 0.089135
0.159893 0.613664 0.089011
0.185178 0.613095 0.088884
0.206097 0.612505 0.088766
0.217840 0.611876 0.088669
0.222264 0.611214 0.088588
0.240004 0.610594 0.088478
0.268952 0.610011 0.088342
0.304868 0.610918 0.086962
0.346837 0.621633 0.077365
0.389243 0.631701 0.068298
0.421808 0.633435 0.066201
0.441030 0.632760 0.066111
0.446045 0.632019 0.066059
0.461163 0.631315 0.065981
0.489524 0.630661 0.065867
0.526340 0.630040 0.065730
0.566865 0.629433 0.065581
0.605470 0.628021 0.066560
0.637568 0.626020 0.068382
0.661680 0.626368 0.070743
0.670548 0.626095 0.071636
0.682332 0.625981 0.072810
0.711302 0.626814 0.075638
0.748868 0.628308 0.079292
0.786546 0.630011 0.082954
0.815957 0.631312 0.085820
0.828823 0.631523 0.087096
0.840984 0.631698 0.088305
0.871259 0.633227 0.091252
0.896781 0.634629 0.093732
0.108520 0.634204 0.090890
0.117277 0.633911 0.090828
0.136446 0.633645 0.090743
0.161122 0.633390 0.090645
0.186444 0.633130 0.090545
0.207594 0.632845 0.090454
0.219795 0.632518 0.090383
0.224043 0.632150 0.090330
0.241164 0.631823 0.090248
0.269644 0.631532 0.090137
0.304973 0.631262 0.090009
0.345753 0.640852 0.081615
0.387406 0.651206 0.072566
0.422182 0.657125 0.067217
0.442252 0.656742 0.067138
0.447635 0.656286 0.067101
0.461696 0.655858 0.067039
0.489347 0.655520 0.066941
0.525797 0.655228 0.066816
0.566257 0.654950 0.066677
0.606020 0.654666 0.066537
0.639040 0.653199 0.067962
0.661899 0.651536 0.069349
0.672089 0.651478 0.070356
0.682183 0.651435 0.071354
0.709953 0.652260 0.074050
0.746993 0.653738 0.077636
0.784899 0.655480 0.081302
0.815371 0.656922 0.084253
0.830212 0.657405 0.085705
0.840301 0.657583 0.086702
0.869323 0.659100 0.089513
0.895057 0.660570 0.092001
0.109036 0.639542 0.091297
0.117446 0.639426 0.091254
0.136355 0.639365 0.091190
0.160894 0.639341 0.091115
0.186239 0.639338 0.091039
0.207605 0.639339 0.090974
0.220255 0.639323 0.090931
0.224385 0.639291 0.090910
0.240885 0.639325 0.090863
0.268898 0.639423 0.090788
0.303944 0.639563 0.090697
0.344023 0.648063 0.083593
0.385405 0.658813 0.074585
0.421400 0.667072 0.067645
0.442358 0.667113 0.067584
0.448235 0.667077 0.067564
0.461443 0.667063 0.067523
0.488418 0.667101 0.067442
0.524385 0.667172 0.067332
0.564624 0.667256 0.067206
0.604472 0.667332 0.067078
0.638449 0.666619 0.067982
0.662766 0.665883 0.068869
0.672755 0.664679 0.069676
0.681405 0.664875 0.070515
0.707927 0.665881 0.073071
0.744381 0.667534 0.076578
0.782445 0.669492 0.080238
0.813899 0.671226 0.083262
0.830625 0.672102 0.084876
0.839114 0.672452 0.085701
0.866710 0.674104 0.088354
0.892508 0.675748 0.090832
0.110581 0.654430 0.092527
0.118570 0.653814 0.092445
0.137142 0.653250 0.092341
0.161463 0.652719 0.092224
0.186743 0.652206 0.092106
0.208235 0.651691 0.091999
0.221234 0.651156 0.091913
0.225208 0.650596 0.091852
0.240986 0.650096 0.091763
0.268425 0.649658 0.091647
0.303164 0.649282 0.091514
0.342695 0.655840 0.085604
0.383919 0.666258 0.076463
0.420410 0.674914 0.068797
0.442386 0.675456 0.067943
0.448680 0.675021 0.067905
0.460951 0.674626 0.067850
0.487157 0.674308 0.067754
0.522567 0.674047 0.067631
0.562509 0.673824 0.067492
0.602364 0.673616 0.067351
0.637002 0.672896 0.067904
0.662005 0.671837 0.068898
0.672810 0.670052 0.069377
0.680232 0.670004 0.070109
0.705420 0.670754 0.072545
0.741193 0.672184 0.075994
0.779310 0.673982 0.079664
0.811633 0.675643 0.082776
0.830125 0.676549 0.084562
0.837464 0.676774 0.085279
0.863436 0.678271 0.087778
0.889129 0.679883 0.090245
0.113615 0.683058 0.094926
0.121201 0.682121 0.094819
0.139454 0.681232 0.094689
0.163573 0.680375 0.094544
0.188805 0.679530 0.094398
0.210436 0.678677 0.094261
0.223796 0.677798 0.094147
0.227725 0.676930 0.094062
0.242991 0.676131 0.093950
0.270137 0.675390 0.093806
0.304667 0.674690 0.093641
0.343053 0.677916 0.090194
0.383423 0.688007 0.080989
0.419400 0.696400 0.073205
0.443780 0.700511 0.069010
0.450578 0.699688 0.068953
0.461905 0.698894 0.068883
0.487330 0.698175 0.068770
0.522169 0.697513 0.068626
0.561792 0.696885 0.068466
0.601628 0.696270 0.068303
0.637159 0.695646 0.068152
0.663081 0.694253 0.069013
0.676096 0.693092 0.069528
0.682107 0.692149 0.069733
0.703934 0.690354 0.071277
0.738952 0.691175 0.074673
0.777037 0.692403 0.078361
0.810130 0.693577 0.081568
0.830272 0.694104 0.083534
0.836922 0.693837 0.084210
0.861073 0.694718 0.086558
0.886492 0.695914 0.089016
0.117400 0.718304 0.097873
0.124602 0.717237 0.097759
0.142553 0.716217 0.097618
0.166508 0.715230 0.097462
0.191877 0.714303 0.097306
0.213740 0.713362 0.097159
0.227382 0.712386 0.097034
0.231285 0.711365 0.096936
0.246126 0.710396 0.096808
0.272890 0.709485 0.096646
0.307124 0.708612 0.096461
0.344437 0.707808 0.096223
0.383785 0.717724 0.086985
0.419059 0.726001 0.079113
0.444044 0.731338 0.073700
0.452507 0.732494 0.071788
0.463765 0.733128 0.070321
0.488415 0.732185 0.070196
0.522685 0.731296 0.070039
0.561991 0.730440 0.069863
0.601803 0.729593 0.069684
0.637648 0.728731 0.069516
0.665106 0.727828 0.069376
0.679547 0.726617 0.069606
0.684821 0.725354 0.069875
