Dreamcore_Eternal3PM.cube
# Dreamcore - Eternal 3PM v2 (Warm Overcast Haze)
TITLE "Dreamcore_Eternal3PM"
LUT_3D_SIZE 9
DOMAIN_MIN 0.0 0.0 0.0
DOMAIN_MAX 1.0 1.0 1.0
0.058454 0.062382 0.041217
0.156279 0.067869 0.047692
0.221840 0.071432 0.051435
0.381909 0.080633 0.061071
0.453801 0.084642 0.065234
0.614648 0.094046 0.074884
0.694437 0.098620 0.079527
0.814846 0.105708 0.086657
0.908086 0.112530 0.093520
0.064195 0.153807 0.049916
0.156397 0.158075 0.045939
0.220091 0.160797 0.052105
0.379407 0.171631 0.063705
0.451800 0.175674 0.067842
0.613192 0.185272 0.077399
0.693434 0.189666 0.082035
0.814839 0.196638 0.089165
0.906403 0.204272 0.097819
0.068694 0.213791 0.054818
0.158501 0.220988 0.048173
0.219993 0.219424 0.048587
0.378220 0.229221 0.063768
0.450307 0.234040 0.069093
0.611973 0.244388 0.078814
0.692656 0.249022 0.083482
0.815006 0.256319 0.090659
0.905633 0.264298 0.100360
0.082389 0.366751 0.068355
0.166044 0.366172 0.068067
0.227587 0.375909 0.059284
0.383287 0.378577 0.056821
0.455462 0.381479 0.063836
0.614348 0.392326 0.079370
0.690820 0.396150 0.085612
0.815884 0.403696 0.094804
0.901866 0.409815 0.107044
0.088633 0.435814 0.074051
0.170843 0.435503 0.073794
0.228148 0.436732 0.071608
0.385831 0.450424 0.058207
0.452975 0.446766 0.059862
0.607120 0.453594 0.074980
0.683084 0.457506 0.082435
0.814827 0.466340 0.093901
0.900139 0.471890 0.102752
0.103550 0.585715 0.086854
0.182818 0.582613 0.086330
0.237827 0.579383 0.085857
0.389772 0.600705 0.064878
0.459937 0.597289 0.064506
0.603799 0.592034 0.066932
0.682102 0.592378 0.074686
0.815903 0.598104 0.087765
0.897911 0.601545 0.095826
0.110581 0.654430 0.092527
0.186743 0.652206 0.092106
0.240986 0.650096 0.091763
0.383919 0.666258 0.076463
0.460951 0.674626 0.067850
0.602364 0.673616 0.067351
0.680232 0.670004 0.070109
0.811633 0.675643 0.082776
0.889129 0.679883 0.090245
0.124274 0.781296 0.103102
0.198293 0.778784 0.102639
0.252191 0.775982 0.102216
0.385750 0.776678 0.098781
0.463765 0.794327 0.080844
0.602552 0.800418 0.072553
0.689628 0.797028 0.072059
0.807851 0.790875 0.075568
0.881658 0.790684 0.082799
0.132815 0.858179 0.109386
0.205382 0.854219 0.108780
0.258276 0.850062 0.108230
0.387528 0.846320 0.107388
0.463845 0.858021 0.093443
0.598120 0.874568 0.075486
0.694074 0.870543 0.074897
0.805031 0.866652 0.074358
0.871811 0.859705 0.077630
0.065858 0.069917 0.136300
0.160589 0.064817 0.141515
0.227346 0.067039 0.142747
0.387692 0.075739 0.149672
0.459702 0.079547 0.152928
0.620781 0.088478 0.161300
0.700687 0.092838 0.165202
0.821316 0.099597 0.171451
0.915971 0.104917 0.176267
0.065124 0.158186 0.138583
0.161400 0.163169 0.143115
0.225967 0.166583 0.147197
0.386447 0.175411 0.156008
0.458853 0.179126 0.159720
0.620259 0.188317 0.168836
0.700513 0.192578 0.173015
0.820921 0.200407 0.180733
0.915047 0.206171 0.186336
0.070950 0.216838 0.141541
0.162847 0.221283 0.146559
0.225202 0.224716 0.143982
0.384693 0.235136 0.156437
0.457513 0.239042 0.159985
0.619198 0.248501 0.168880
0.699849 0.252867 0.172991
0.821055 0.260747 0.180755
0.914153 0.267388 0.187382
0.087547 0.368347 0.155710
0.175278 0.374389 0.158466
0.232376 0.373753 0.157685
0.388488 0.383835 0.149944
0.460907 0.387223 0.156605
0.619256 0.398162 0.170431
0.695866 0.401762 0.174897
0.820166 0.409197 0.184138
0.909606 0.414551 0.191272
0.094671 0.437630 0.160670
0.179916 0.443644 0.162414
0.236250 0.441917 0.161196
0.389737 0.454523 0.148770
0.457433 0.451337 0.149140
0.611420 0.459008 0.163402
0.687547 0.463245 0.169546
0.820201 0.471911 0.178594
0.900692 0.478251 0.190264
0.111435 0.586981 0.172696
0.191353 0.589497 0.171578
0.246138 0.586151 0.170041
0.390435 0.597575 0.156892
0.463729 0.600666 0.150178
0.607532 0.595816 0.151231
0.686353 0.596551 0.158397
0.820200 0.602830 0.171152
0.893722 0.605089 0.186822
0.119435 0.656176 0.176051
0.194938 0.659100 0.173740
0.249005 0.656951 0.172262
0.386119 0.660712 0.167175
0.464875 0.678545 0.151013
0.605653 0.677584 0.150062
0.684526 0.674477 0.152167
0.815562 0.680505 0.164480
0.885617 0.682035 0.178599
0.134900 0.783444 0.185698
0.206480 0.785291 0.182054
0.260233 0.782387 0.181192
0.392687 0.779743 0.180045
0.465333 0.788593 0.169393
0.605689 0.803553 0.153706
0.693511 0.800099 0.152750
0.811315 0.794336 0.155629
0.879043 0.789831 0.168356
0.144487 0.860143 0.191680
0.213376 0.860129 0.186702
0.266145 0.855909 0.185714
0.394986 0.852120 0.184434
0.467358 0.851502 0.180597
0.600104 0.872934 0.159525
0.695881 0.868966 0.158432
0.804277 0.865222 0.157276
0.869988 0.858127 0.160749
0.071502 0.075896 0.198229
0.161568 0.065838 0.206891
0.228071 0.065901 0.206773
0.390988 0.072126 0.210801
0.463042 0.075952 0.213120
0.624171 0.084909 0.220323
0.704117 0.089285 0.223827
0.824841 0.096066 0.229658
0.919506 0.101401 0.234218
0.068004 0.160884 0.200449
0.165125 0.167004 0.204385
0.228563 0.163960 0.207112
0.389984 0.172250 0.213699
0.462574 0.175778 0.217004
0.624268 0.184521 0.225466
0.704637 0.188673 0.229455
0.825950 0.195887 0.236335
0.920436 0.201394 0.241577
0.068963 0.219623 0.199658
0.164850 0.225507 0.205647
0.228639 0.228211 0.207911
0.388896 0.237234 0.217159
0.461848 0.240944 0.220782
0.623675 0.250201 0.229786
0.704405 0.254519 0.233949
0.825570 0.262723 0.241951
0.919958 0.268020 0.246998
0.087072 0.368866 0.211094
0.179508 0.376153 0.218198
0.238563 0.379259 0.218978
0.391998 0.387384 0.213853
0.464713 0.391341 0.220781
0.622465 0.401747 0.232726
0.699538 0.404735 0.235723
0.823532 0.412644 0.245669
0.914797 0.417043 0.250189
0.094734 0.437525 0.216302
0.184992 0.445502 0.222989
0.242067 0.446876 0.221897
0.392202 0.457160 0.211796
0.460342 0.454343 0.211672
0.614182 0.462856 0.225858
0.690570 0.467077 0.230993
0.818656 0.476498 0.244281
0.905416 0.481704 0.248726
0.111434 0.585931 0.227249
0.198147 0.590897 0.232681
0.251855 0.590597 0.229591
0.391121 0.592465 0.223928
0.466271 0.602750 0.211988
0.609914 0.598239 0.212765
0.689313 0.599396 0.220040
0.816985 0.604531 0.238769
0.896478 0.608988 0.247255
0.119496 0.655421 0.229819
0.202749 0.661098 0.235153
0.254922 0.661861 0.231414
0.390317 0.660532 0.230176
0.464952 0.675736 0.216507
0.607786 0.680397 0.211051
0.687568 0.677689 0.212752
0.812843 0.681144 0.230249
0.887841 0.686167 0.238856
0.134979 0.782589 0.239011
0.216296 0.787546 0.244646
0.266075 0.786811 0.239429
0.398158 0.784090 0.238036
0.467798 0.783431 0.234934
0.606513 0.801947 0.217436
0.694031 0.798474 0.216240
0.809295 0.792547 0.219507
0.881119 0.792277 0.227846
0.144513 0.858799 0.244175
0.224233 0.862239 0.249583
0.271885 0.859853 0.243171
0.400338 0.856043 0.241701
0.471980 0.851911 0.240450
0.602211 0.874483 0.219145
0.699109 0.870785 0.217725
0.806097 0.867077 0.216444
0.872158 0.860377 0.219674
0.085679 0.090900 0.351919
0.168759 0.081888 0.358670
0.231133 0.071340 0.368163
0.393484 0.069337 0.370296
0.467916 0.070868 0.371600
0.632867 0.076122 0.375182
0.712871 0.080519 0.377002
0.833711 0.087333 0.380957
0.928402 0.092689 0.384421
0.084940 0.174589 0.350209
0.179347 0.182029 0.358425
0.234236 0.175494 0.362587
0.394786 0.167158 0.370745
0.469771 0.168371 0.371989
0.633039 0.175640 0.376009
0.713502 0.179688 0.378551
0.835338 0.186207 0.383395
0.930164 0.191195 0.387372
0.080088 0.228899 0.354487
0.177605 0.236178 0.356232
0.240040 0.240351 0.361398
0.395091 0.231196 0.370099
0.470667 0.232448 0.371314
0.632863 0.241340 0.376422
0.713775 0.245462 0.379516
0.836560 0.252122 0.384999
0.931267 0.256568 0.388184
0.081487 0.377012 0.356033
0.175864 0.383028 0.361861
0.240670 0.386962 0.365642
0.401633 0.397164 0.375084
0.473910 0.400581 0.378421
0.631717 0.408212 0.385390
0.708723 0.410812 0.387617
0.837408 0.416948 0.393110
0.928511 0.420827 0.396517
0.087260 0.448421 0.358730
0.179681 0.453827 0.363696
0.243370 0.455776 0.365626
0.397467 0.458496 0.371852
0.468925 0.463090 0.369029
0.622440 0.472905 0.380322
0.698125 0.476634 0.383487
0.832170 0.484194 0.389078
0.918462 0.488727 0.392172
0.104780 0.594571 0.363072
0.197608 0.590607 0.368971
0.258344 0.592283 0.371493
0.404338 0.600261 0.375872
0.469466 0.598518 0.371884
0.617851 0.606273 0.365009
0.694816 0.606974 0.374806
0.826251 0.615894 0.387850
0.906045 0.620150 0.392996
0.117733 0.657716 0.363146
0.202713 0.660539 0.368190
0.262710 0.664335 0.370944
0.405011 0.673604 0.374750
0.472030 0.672142 0.372569
0.613453 0.685953 0.361689
0.693358 0.683834 0.362228
0.821047 0.691458 0.376241
0.895405 0.697431 0.384051
0.135348 0.781882 0.369788
0.216516 0.786767 0.374356
0.275621 0.789317 0.377124
0.412406 0.796249 0.378616
0.481386 0.792874 0.376188
0.612263 0.806334 0.362945
0.701857 0.805266 0.358814
0.816760 0.800094 0.360448
0.888241 0.800196 0.367949
0.144842 0.857628 0.371313
0.224414 0.861031 0.375579
0.282476 0.862267 0.378110
0.414112 0.867479 0.378037
0.485955 0.863243 0.375470
0.603206 0.867340 0.367445
0.707030 0.877092 0.355754
0.812333 0.873361 0.353028
0.879079 0.867434 0.354590
0.091918 0.097505 0.420103
0.174359 0.089888 0.425208
0.233350 0.079378 0.434862
0.394592 0.070474 0.442885
0.467805 0.070746 0.443109
0.634212 0.074622 0.446990
0.716758 0.076536 0.448652
0.837708 0.083359 0.451500
0.932424 0.088717 0.454389
0.091287 0.181183 0.418964
0.185597 0.188637 0.427355
0.240054 0.183492 0.429890
0.395914 0.168181 0.443983
0.469692 0.168134 0.444176
0.636665 0.171760 0.447959
0.717457 0.175533 0.449566
0.839403 0.182053 0.453362
0.934253 0.187035 0.456842
0.090064 0.235300 0.418779
0.183932 0.242853 0.425830
0.246293 0.246970 0.431201
0.396230 0.232218 0.444068
0.470617 0.232215 0.444261
0.636820 0.237161 0.447932
0.717793 0.241280 0.450091
0.840661 0.247878 0.454511
0.935213 0.252078 0.456819
0.084994 0.380278 0.426538
0.179209 0.386290 0.432574
0.244020 0.390233 0.436585
0.403351 0.399401 0.443138
0.475462 0.395732 0.445766
0.635124 0.402825 0.450474
0.712540 0.405088 0.452537
0.842815 0.410577 0.457690
0.934124 0.413799 0.460949
0.087357 0.448324 0.426538
0.179393 0.453105 0.431128
0.242752 0.455453 0.433382
0.401405 0.464757 0.442202
0.473155 0.467482 0.444468
0.625612 0.474693 0.451257
0.703262 0.477836 0.454038
0.838213 0.485123 0.460621
0.924420 0.489581 0.464653
0.100938 0.598902 0.430393
0.189436 0.601837 0.434419
0.253593 0.598879 0.436988
0.409248 0.602272 0.447803
0.476029 0.602532 0.447347
0.620120 0.608783 0.445208
0.699554 0.612300 0.454534
0.831443 0.621171 0.465695
0.911809 0.624514 0.469756
0.108610 0.669776 0.429582
0.197569 0.667357 0.434885
0.261949 0.664926 0.439432
0.411336 0.676563 0.450502
0.479793 0.678956 0.449893
0.617120 0.690274 0.443058
0.698154 0.688828 0.444408
0.825459 0.697813 0.460069
0.899649 0.704375 0.468223
0.131676 0.786251 0.437964
0.216507 0.785835 0.444699
0.275512 0.788321 0.448278
0.420492 0.799106 0.458776
0.489503 0.799278 0.456690
0.612237 0.800941 0.452584
0.706572 0.808900 0.445130
0.820958 0.804346 0.447979
0.892316 0.804988 0.457241
0.144950 0.856313 0.443664
0.224378 0.859686 0.448908
0.282364 0.860910 0.452495
0.423287 0.870347 0.462752
0.494567 0.869792 0.460083
0.607748 0.866077 0.458749
0.712373 0.880831 0.447021
0.816181 0.877251 0.445946
0.883585 0.872057 0.448954
0.106084 0.112488 0.573356
0.188914 0.107938 0.574470
0.243648 0.097457 0.584159
0.398696 0.074502 0.606300
0.471321 0.074145 0.605910
0.634264 0.074517 0.606271
0.716940 0.076378 0.607973
0.841867 0.079372 0.610736
0.939635 0.081724 0.612809
0.105567 0.196149 0.572344
0.199776 0.203611 0.580754
0.254514 0.200362 0.580434
0.399476 0.176075 0.603547
0.473260 0.171427 0.607032
0.636781 0.171561 0.607306
0.719927 0.173049 0.608954
0.845874 0.175702 0.611652
0.943182 0.178263 0.613575
0.105253 0.250499 0.571076
0.198158 0.257857 0.579316
0.260325 0.261795 0.584685
0.400527 0.244145 0.599690
0.474210 0.235516 0.607145
0.638195 0.235776 0.607382
0.721811 0.237326 0.609006
0.848642 0.239692 0.610473
0.943815 0.243130 0.609488
0.096188 0.391118 0.584340
0.193444 0.397147 0.585321
0.260789 0.401940 0.584010
0.416739 0.413552 0.596619
0.479172 0.404729 0.600680
0.639297 0.397148 0.604079
0.719214 0.396877 0.602433
0.851148 0.401555 0.602389
0.941949 0.404837 0.602479
0.096967 0.457489 0.582493
0.188536 0.461710 0.585392
0.251640 0.463978 0.586282
0.411652 0.472859 0.585815
0.480367 0.475703 0.588226
0.631035 0.466966 0.593264
0.711080 0.468427 0.591440
0.847091 0.475253 0.593001
0.933343 0.479361 0.593912
0.101219 0.597924 0.572262
0.189354 0.600821 0.574702
0.251201 0.601751 0.575309
0.407712 0.608276 0.581264
0.481289 0.610391 0.582984
0.629690 0.618705 0.590446
0.708597 0.620175 0.591232
0.842439 0.625396 0.595161
0.922778 0.627872 0.597004
0.108066 0.670438 0.565633
0.192777 0.674467 0.567874
0.254573 0.677124 0.568874
0.408969 0.684876 0.575555
0.485553 0.683699 0.577287
0.619954 0.690242 0.580248
0.706675 0.697610 0.578770
0.833793 0.708824 0.591079
0.908256 0.714334 0.593305
0.121023 0.800565 0.563227
0.207801 0.799909 0.564760
0.269359 0.799082 0.566048
0.420185 0.798126 0.575392
0.497037 0.802028 0.578234
0.622075 0.806595 0.578746
0.713862 0.814940 0.570952
0.827601 0.811114 0.570839
0.898630 0.812639 0.578180
0.134130 0.871824 0.557026
0.218371 0.868696 0.560551
0.279501 0.865016 0.562558
0.422921 0.869062 0.571575
0.503133 0.872563 0.574574
0.618777 0.875514 0.573222
0.714384 0.877246 0.566832
0.821356 0.882426 0.559103
0.889214 0.877833 0.558942
0.112974 0.119778 0.648383
0.195863 0.115873 0.648538
0.249845 0.106310 0.657484
0.399790 0.081265 0.681893
0.473295 0.076100 0.686490
0.635561 0.075760 0.686274
0.716950 0.076300 0.686804
0.841980 0.079312 0.689732
0.939763 0.081677 0.691961
0.112560 0.203419 0.647866
0.206664 0.210892 0.656416
0.260912 0.207175 0.656243
0.402135 0.184895 0.677529
0.475282 0.173278 0.688162
0.638080 0.172652 0.687827
0.719965 0.172837 0.688335
0.846013 0.175502 0.691205
0.943925 0.177478 0.693372
0.112333 0.257823 0.647121
0.205112 0.265194 0.655507
0.267193 0.269061 0.661029
0.404960 0.253036 0.674200
0.475654 0.241104 0.685147
0.639493 0.236863 0.688457
0.721871 0.237134 0.688970
0.848776 0.239189 0.689604
0.945979 0.240328 0.689026
0.106042 0.396710 0.657165
0.204154 0.404299 0.656202
0.268363 0.409471 0.659983
0.423206 0.420400 0.673435
0.484398 0.413098 0.674915
0.639505 0.397543 0.684856
0.718225 0.396070 0.682650
0.854298 0.397391 0.683125
0.945767 0.399547 0.682830
0.102523 0.462279 0.660797
0.193960 0.466500 0.663648
0.259782 0.468700 0.660152
0.418235 0.479962 0.663319
0.486652 0.482434 0.666644
0.631213 0.467593 0.677081
0.711327 0.466880 0.675500
0.851231 0.470101 0.676633
0.937103 0.474236 0.677570
0.105026 0.600568 0.650372
0.192834 0.603462 0.653765
0.254649 0.604435 0.655596
0.411246 0.611224 0.662223
0.485300 0.613629 0.665672
0.628807 0.618237 0.669620
0.711216 0.612911 0.672131
0.847104 0.617959 0.676103
0.928040 0.619800 0.679074
0.108243 0.669791 0.644075
0.192829 0.673939 0.647975
0.254525 0.676657 0.650575
0.408574 0.684464 0.657950
0.485122 0.689076 0.662328
0.627255 0.699346 0.671869
0.713919 0.705223 0.677376
0.840114 0.712435 0.683520
0.915639 0.717090 0.687640
0.121228 0.799658 0.647381
0.207852 0.798948 0.649965
0.268233 0.800102 0.653245
0.416154 0.807953 0.663054
0.495581 0.808469 0.668068
0.628414 0.810111 0.677225
0.716022 0.811445 0.679263
0.833935 0.817644 0.682556
0.905190 0.821510 0.693999
0.132988 0.872230 0.647953
0.214897 0.873283 0.652904
0.274337 0.873246 0.656788
0.419322 0.876588 0.666956
0.502664 0.873451 0.672900
0.626286 0.879255 0.681971
0.723270 0.881054 0.683167
0.827356 0.888311 0.680257
0.896007 0.884828 0.682247
0.124556 0.132024 0.773651
0.206582 0.127359 0.774004
0.261270 0.121133 0.779861
0.404287 0.096133 0.804478
0.475745 0.084767 0.815523
0.639046 0.079123 0.820860
0.719699 0.078892 0.820819
0.842179 0.079268 0.821300
0.939983 0.081653 0.823729
0.124290 0.215684 0.773837
0.218300 0.223181 0.782584
0.271743 0.218680 0.782607
0.409771 0.199737 0.800796
0.478304 0.187894 0.811891
0.641631 0.175922 0.823139
0.722741 0.175290 0.823033
0.846260 0.175333 0.823474
0.944191 0.177321 0.825838
0.124182 0.270175 0.773796
0.216845 0.277567 0.782374
0.278780 0.281304 0.788086
0.414855 0.267979 0.798142
0.480999 0.256073 0.809298
0.643096 0.240180 0.824497
0.724401 0.239527 0.824283
0.849008 0.238734 0.823577
0.945906 0.239890 0.824523
0.124701 0.409277 0.775364
0.217177 0.417053 0.781964
0.280262 0.422020 0.787717
0.433763 0.431594 0.801130
0.496076 0.427846 0.801074
0.642051 0.401237 0.823601
0.720097 0.398018 0.822317
0.854196 0.396673 0.820661
0.947144 0.396887 0.820528
0.116979 0.471195 0.785983
0.212320 0.476959 0.783867
0.276546 0.480876 0.783356
0.430028 0.492556 0.795473
0.497766 0.494260 0.799177
0.633707 0.476725 0.812293
0.713420 0.469112 0.815242
0.851712 0.468940 0.812861
0.939879 0.470299 0.811977
0.114805 0.609094 0.786463
0.202265 0.611969 0.790071
0.267285 0.611843 0.788382
0.422452 0.619946 0.793070
0.497330 0.622127 0.789718
0.639491 0.629766 0.798427
0.713100 0.616444 0.804869
0.850698 0.612762 0.804019
0.933715 0.612008 0.802382
0.116095 0.676766 0.777324
0.200439 0.680917 0.779996
0.265116 0.681559 0.777733
0.416335 0.691680 0.784927
0.492950 0.696276 0.786855
0.632841 0.704290 0.788142
0.716765 0.708883 0.789703
0.844604 0.704316 0.792328
0.921291 0.708648 0.790720
0.121570 0.798813 0.767872
0.208026 0.798042 0.766696
0.268299 0.799132 0.767235
0.415809 0.806908 0.773753
0.495212 0.809336 0.775499
0.628952 0.816168 0.781217
0.724820 0.820122 0.784426
0.841456 0.825728 0.789577
0.911244 0.827011 0.790115
0.132531 0.871688 0.758658
0.215010 0.871986 0.759389
0.274358 0.871942 0.759456
0.417766 0.878485 0.765389
0.500907 0.880520 0.767160
0.626078 0.885109 0.771954
0.729950 0.884257 0.774104
0.828397 0.888340 0.772460
0.901087 0.890139 0.772377
0.133019 0.140973 0.865388
0.214373 0.135738 0.865751
0.270023 0.131946 0.869212
0.409362 0.106962 0.893854
0.478380 0.095604 0.904928
0.641548 0.081551 0.918716
0.722250 0.081334 0.918699
0.844284 0.081179 0.918653
0.940147 0.081622 0.919148
0.132822 0.224573 0.865644
0.226713 0.232068 0.874400
0.279554 0.226985 0.874436
0.416660 0.210452 0.890251
0.482858 0.198608 0.901378
0.644167 0.178226 0.921072
0.725327 0.177601 0.920993
0.848347 0.177055 0.920858
0.944383 0.177142 0.921339
0.132764 0.279079 0.865686
0.225286 0.286472 0.874272
0.287104 0.290104 0.879999
0.422955 0.278716 0.887681
0.486939 0.266813 0.898871
0.645657 0.242508 0.922523
0.725838 0.241526 0.921970
0.850941 0.240082 0.920337
0.945680 0.239422 0.919063
0.134646 0.418600 0.865581
0.225679 0.426026 0.873934
0.288770 0.431000 0.879714
0.441111 0.439400 0.892682
0.504195 0.437075 0.890871
0.643463 0.411392 0.911981
0.721673 0.399714 0.918521
0.855507 0.397467 0.915256
0.946419 0.396090 0.912800
0.131523 0.479298 0.869854
0.223653 0.485932 0.870530
0.284657 0.489307 0.874028
0.437803 0.500936 0.885505
0.505047 0.502040 0.888508
0.637656 0.486878 0.898437
0.714758 0.472733 0.907049
0.852538 0.469962 0.904407
0.938818 0.469966 0.901201
0.121638 0.614460 0.878636
0.212846 0.616364 0.877289
0.275017 0.617509 0.876863
0.431828 0.626483 0.874447
0.505174 0.629815 0.876066
0.646060 0.636766 0.883928
0.717128 0.625507 0.887265
0.850958 0.612800 0.891985
0.932414 0.610947 0.888429
0.122574 0.682495 0.866966
0.210946 0.684727 0.864402
0.272106 0.687612 0.864480
0.423021 0.697860 0.870551
0.500348 0.702122 0.869186
0.639306 0.711564 0.869120
0.723736 0.716386 0.871584
0.844512 0.705134 0.877576
0.922322 0.706348 0.874118
0.125521 0.801620 0.851944
0.212212 0.800773 0.848923
0.272298 0.801721 0.848563
0.419307 0.809322 0.854098
0.498971 0.811680 0.855147
0.631836 0.818398 0.860065
0.728664 0.822470 0.862822
0.837980 0.820983 0.862545
0.912923 0.818046 0.860731
0.131779 0.871222 0.836679
0.214997 0.870615 0.835759
0.274270 0.870575 0.835436
0.417245 0.877114 0.840975
0.500818 0.879224 0.842664
0.625199 0.884846 0.847557
0.733189 0.889634 0.851873
0.831305 0.889360 0.852385
0.907259 0.896784 0.859102
