Dreamcore_Eternal3PM.cube
# Dreamcore - Eternal 3PM v2 (Warm Overcast Haze)
TITLE "Dreamcore_Eternal3PM"
LUT_3D_SIZE 5
DOMAIN_MIN 0.0 0.0 0.0
DOMAIN_MAX 1.0 1.0 1.0
0.058454 0.062382 0.041217
0.221840 0.071432 0.051435
0.453801 0.084642 0.065234
0.694437 0.098620 0.079527
0.908086 0.112530 0.093520
0.068694 0.213791 0.054818
0.219993 0.219424 0.048587
0.450307 0.234040 0.069093
0.692656 0.249022 0.083482
0.905633 0.264298 0.100360
0.088633 0.435814 0.074051
0.228148 0.436732 0.071608
0.452975 0.446766 0.059862
0.683084 0.457506 0.082435
0.900139 0.471890 0.102752
0.110581 0.654430 0.092527
0.240986 0.650096 0.091763
0.460951 0.674626 0.067850
0.680232 0.670004 0.070109
0.889129 0.679883 0.090245
0.132815 0.858179 0.109386
0.258276 0.850062 0.108230
0.463845 0.858021 0.093443
0.694074 0.870543 0.074897
0.871811 0.859705 0.077630
0.071502 0.075896 0.198229
0.228071 0.065901 0.206773
0.463042 0.075952 0.213120
0.704117 0.089285 0.223827
0.919506 0.101401 0.234218
0.068963 0.219623 0.199658
0.228639 0.228211 0.207911
0.461848 0.240944 0.220782
0.704405 0.254519 0.233949
0.919958 0.268020 0.246998
0.094734 0.437525 0.216302
0.242067 0.446876 0.221897
0.460342 0.454343 0.211672
0.690570 0.467077 0.230993
0.905416 0.481704 0.248726
0.119496 0.655421 0.229819
0.254922 0.661861 0.231414
0.464952 0.675736 0.216507
0.687568 0.677689 0.212752
0.887841 0.686167 0.238856
0.144513 0.858799 0.244175
0.271885 0.859853 0.243171
0.471980 0.851911 0.240450
0.699109 0.870785 0.217725
0.872158 0.860377 0.219674
0.091918 0.097505 0.420103
0.233350 0.079378 0.434862
0.467805 0.070746 0.443109
0.716758 0.076536 0.448652
0.932424 0.088717 0.454389
0.090064 0.235300 0.418779
0.246293 0.246970 0.431201
0.470617 0.232215 0.444261
0.717793 0.241280 0.450091
0.935213 0.252078 0.456819
0.087357 0.448324 0.426538
0.242752 0.455453 0.433382
0.473155 0.467482 0.444468
0.703262 0.477836 0.454038
0.924420 0.489581 0.464653
0.108610 0.669776 0.429582
0.261949 0.664926 0.439432
0.479793 0.678956 0.449893
0.698154 0.688828 0.444408
0.899649 0.704375 0.468223
0.144950 0.856313 0.443664
0.282364 0.860910 0.452495
0.494567 0.869792 0.460083
0.712373 0.880831 0.447021
0.883585 0.872057 0.448954
0.112974 0.119778 0.648383
0.249845 0.106310 0.657484
0.473295 0.076100 0.686490
0.716950 0.076300 0.686804
0.939763 0.081677 0.691961
0.112333 0.257823 0.647121
0.267193 0.269061 0.661029
0.475654 0.241104 0.685147
0.721871 0.237134 0.688970
0.945979 0.240328 0.689026
0.102523 0.462279 0.660797
0.259782 0.468700 0.660152
0.486652 0.482434 0.666644
0.711327 0.466880 0.675500
0.937103 0.474236 0.677570
0.108243 0.669791 0.644075
0.254525 0.676657 0.650575
0.485122 0.689076 0.662328
0.713919 0.705223 0.677376
0.915639 0.717090 0.687640
0.132988 0.872230 0.647953
0.274337 0.873246 0.656788
0.502664 0.873451 0.672900
0.723270 0.881054 0.683167
0.896007 0.884828 0.682247
0.133019 0.140973 0.865388
0.270023 0.131946 0.869212
0.478380 0.095604 0.904928
0.722250 0.081334 0.918699
0.940147 0.081622 0.919148
0.132764 0.279079 0.865686
0.287104 0.290104 0.879999
0.486939 0.266813 0.898871
0.725838 0.241526 0.921970
0.945680 0.239422 0.919063
0.131523 0.479298 0.869854
0.284657 0.489307 0.874028
0.505047 0.502040 0.888508
0.714758 0.472733 0.907049
0.938818 0.469966 0.901201
0.122574 0.682495 0.866966
0.272106 0.687612 0.864480
0.500348 0.702122 0.869186
0.723736 0.716386 0.871584
0.922322 0.706348 0.874118
0.131779 0.871222 0.836679
0.274270 0.870575 0.835436
0.500818 0.879224 0.842664
0.733189 0.889634 0.851873
0.907259 0.896784 0.859102
