Dreamcore.cube
# Created for Nothing Camera preset - Dreamcore
TITLE "Dreamcore"
LUT_3D_SIZE 33
DOMAIN_MIN 0.0 0.0 0.0
DOMAIN_MAX 1.0 1.0 1.0
0.385294 0.385294 0.385294
0.423623 0.370884 0.370764
0.434503 0.362183 0.362019
0.458769 0.350543 0.350298
0.501694 0.335083 0.334707
0.554897 0.317747 0.317210
0.610001 0.300289 0.299588
0.658636 0.284271 0.283424
0.692365 0.271134 0.270181
0.703760 0.262089 0.261090
0.729803 0.250468 0.249383
0.780767 0.234981 0.233747
0.841050 0.219460 0.218054
0.896685 0.205783 0.204220
0.934073 0.195138 0.193467
0.944890 0.187425 0.185712
0.969940 0.178801 0.177011
1.000000 0.180440 0.178586
1.000000 0.214992 0.213216
1.000000 0.239941 0.238222
1.000000 0.243333 0.241621
1.000000 0.238401 0.236678
1.000000 0.237288 0.235563
1.000000 0.237288 0.235563
1.000000 0.237288 0.235563
1.000000 0.237288 0.235563
1.000000 0.237288 0.235563
1.000000 0.237288 0.235563
1.000000 0.237288 0.235563
1.000000 0.237288 0.235563
1.000000 0.237288 0.235563
1.000000 0.237288 0.235563
1.000000 0.237288 0.235563
0.353421 0.421673 0.353421
0.403599 0.403346 0.338324
0.430250 0.401964 0.333766
0.446491 0.398002 0.326688
0.486076 0.390573 0.315874
0.536680 0.376267 0.298993
0.592298 0.360546 0.281226
0.644504 0.345428 0.264435
0.684667 0.332503 0.250127
0.704018 0.323272 0.239749
0.719232 0.314635 0.230227
0.764126 0.300588 0.215630
0.823841 0.284545 0.199600
0.882666 0.269861 0.185527
0.927005 0.257931 0.174354
0.943611 0.249552 0.166532
0.961892 0.241085 0.158900
0.999972 0.231134 0.150441
1.000000 0.257609 0.186438
1.000000 0.279864 0.215961
1.000000 0.286157 0.225745
1.000000 0.280633 0.221490
1.000000 0.279366 0.220539
1.000000 0.279366 0.220539
1.000000 0.279366 0.220539
1.000000 0.279366 0.220539
1.000000 0.279366 0.220539
1.000000 0.279366 0.220539
1.000000 0.279366 0.220539
1.000000 0.279366 0.220539
1.000000 0.279366 0.220539
1.000000 0.279366 0.220539
1.000000 0.279366 0.220539
0.323469 0.443733 0.323469
0.383929 0.424707 0.308185
0.426102 0.425554 0.303033
0.437527 0.424531 0.295967
0.469203 0.421425 0.287364
0.517671 0.415397 0.276010
0.574359 0.406273 0.261660
0.629467 0.394483 0.245618
0.674870 0.383031 0.230759
0.702174 0.374567 0.219398
0.712113 0.368897 0.211284
0.749001 0.358123 0.198667
0.806672 0.343519 0.182803
0.867791 0.328985 0.168431
0.917836 0.316844 0.157138
0.943276 0.308253 0.149181
0.955251 0.301252 0.142804
0.989758 0.291721 0.135246
1.000000 0.303959 0.161761
1.000000 0.322545 0.195134
1.000000 0.330879 0.211586
1.000000 0.326130 0.208902
1.000000 0.324906 0.208144
1.000000 0.324906 0.208144
1.000000 0.324906 0.208144
1.000000 0.324906 0.208144
1.000000 0.324906 0.208144
1.000000 0.324906 0.208144
1.000000 0.324906 0.208144
1.000000 0.324906 0.208144
1.000000 0.324906 0.208144
1.000000 0.324906 0.208144
1.000000 0.324906 0.208144
0.295418 0.455456 0.295418
0.368485 0.441001 0.284101
0.418757 0.434888 0.275306
0.437001 0.436195 0.270131
0.458922 0.435613 0.261964
0.501947 0.432888 0.251484
0.555929 0.428043 0.239138
0.613055 0.421644 0.225422
0.663353 0.414579 0.211940
0.697806 0.408720 0.200606
0.708837 0.405740 0.192990
0.736348 0.399404 0.182768
0.789625 0.388208 0.168487
0.852666 0.375126 0.153269
0.907231 0.363958 0.142133
0.940554 0.356056 0.134275
0.950337 0.351170 0.128993
0.980359 0.343472 0.122622
1.000000 0.346605 0.139844
1.000000 0.361751 0.176428
1.000000 0.371145 0.198893
1.000000 0.368560 0.199289
1.000000 0.367568 0.198747
1.000000 0.367568 0.198747
1.000000 0.367568 0.198747
1.000000 0.367568 0.198747
1.000000 0.367568 0.198747
1.000000 0.367568 0.198747
1.000000 0.367568 0.198747
1.000000 0.367568 0.198747
1.000000 0.367568 0.198747
1.000000 0.367568 0.198747
1.000000 0.367568 0.198747
0.264454 0.480618 0.264454
0.350125 0.478576 0.257661
0.404680 0.453542 0.248521
0.437994 0.452286 0.242514
0.452242 0.451356 0.238085
0.488809 0.446378 0.229169
0.540147 0.439789 0.218179
0.596824 0.432701 0.206128
0.650471 0.425744 0.193681
0.691002 0.420060 0.182612
0.709033 0.417744 0.174996
0.726435 0.415811 0.167739
0.774296 0.409188 0.155828
0.836682 0.399509 0.141461
0.895850 0.390242 0.129523
0.935973 0.384061 0.121969
0.947479 0.381716 0.117608
0.972182 0.377168 0.112676
1.000000 0.376115 0.121234
1.000000 0.389461 0.160423
1.000000 0.400092 0.188273
1.000000 0.400567 0.192955
1.000000 0.399983 0.192647
1.000000 0.399983 0.192647
1.000000 0.399983 0.192647
1.000000 0.399983 0.192647
1.000000 0.399983 0.192647
1.000000 0.399983 0.192647
1.000000 0.399983 0.192647
1.000000 0.399983 0.192647
1.000000 0.399983 0.192647
1.000000 0.399983 0.192647
1.000000 0.399983 0.192647
0.232054 0.517615 0.232054
0.318519 0.514369 0.226140
0.383779 0.484355 0.220951
0.430578 0.481429 0.215635
0.443933 0.478652 0.210493
0.477186 0.476216 0.207517
0.524588 0.467369 0.198266
0.580652 0.457963 0.187685
0.635723 0.449006 0.177080
0.681601 0.441237 0.167069
0.707319 0.435770 0.159601
0.718439 0.432268 0.154260
0.759941 0.424932 0.145030
0.820769 0.414338 0.132764
0.883780 0.402554 0.119945
0.929851 0.394317 0.112703
0.946742 0.390895 0.108953
0.965475 0.387501 0.105565
1.000000 0.383613 0.106376
1.000000 0.396657 0.147594
1.000000 0.409341 0.180229
1.000000 0.413663 0.190135
1.000000 0.413650 0.190075
1.000000 0.413650 0.190075
1.000000 0.413650 0.190075
1.000000 0.413650 0.190075
1.000000 0.413650 0.190075
1.000000 0.413650 0.190075
1.000000 0.413650 0.190075
1.000000 0.413650 0.190075
1.000000 0.413650 0.190075
1.000000 0.413650 0.190075
1.000000 0.413650 0.190075
0.199991 0.562866 0.199991
0.284102 0.558765 0.194980
0.363936 0.541373 0.191974
0.415600 0.520147 0.189731
0.436615 0.516363 0.185599
0.460502 0.512655 0.181713
0.510094 0.509030 0.180169
0.564386 0.497313 0.171240
0.621060 0.486249 0.161854
0.670115 0.476539 0.153369
0.702287 0.469127 0.146839
0.712317 0.464376 0.142996
0.746096 0.456841 0.136484
0.804065 0.445857 0.126650
0.869197 0.433709 0.115829
0.921329 0.422039 0.107975
0.946017 0.415124 0.104626
0.959061 0.410173 0.102773
0.995637 0.402220 0.099975
1.000000 0.408953 0.138257
1.000000 0.419145 0.174525
1.000000 0.423197 0.189184
1.000000 0.422806 0.189029
1.000000 0.422806 0.189029
1.000000 0.422806 0.189029
1.000000 0.422806 0.189029
1.000000 0.422806 0.189029
1.000000 0.422806 0.189029
1.000000 0.422806 0.189029
1.000000 0.422806 0.189029
1.000000 0.422806 0.189029
1.000000 0.422806 0.189029
1.000000 0.422806 0.189029
0.169905 0.612317 0.169905
0.248891 0.607953 0.165827
0.335201 0.603572 0.162031
0.396407 0.567952 0.165229
0.429626 0.560295 0.162818
0.444250 0.556097 0.159998
0.487679 0.551913 0.157478
0.548746 0.547564 0.157492
0.605597 0.534234 0.149569
0.658132 0.522743 0.142077
0.695866 0.513486 0.136367
0.709094 0.507384 0.133587
0.733584 0.500057 0.129932
0.787423 0.489438 0.122904
0.852783 0.476890 0.114048
0.911183 0.464943 0.106728
0.942589 0.456227 0.104889
0.952913 0.450330 0.103528
0.986342 0.441299 0.100458
1.000000 0.440262 0.128537
1.000000 0.446159 0.166226
1.000000 0.448156 0.184668
1.000000 0.447572 0.185254
1.000000 0.447572 0.185254
1.000000 0.447572 0.185254
1.000000 0.447572 0.185254
1.000000 0.447572 0.185254
1.000000 0.447572 0.185254
1.000000 0.447572 0.185254
1.000000 0.447572 0.185254
1.000000 0.447572 0.185254
1.000000 0.447572 0.185254
1.000000 0.447572 0.185254
0.143318 0.661410 0.143318
0.214650 0.657344 0.140179
0.300520 0.653195 0.137374
0.376797 0.634872 0.138840
0.417279 0.606131 0.143350
0.430140 0.602004 0.141579
0.465315 0.597834 0.140145
0.523359 0.593628 0.139052
0.590338 0.589000 0.140689
0.644847 0.575466 0.134435
0.687724 0.564867 0.129504
0.707899 0.557440 0.127246
0.723912 0.550612 0.125760
0.772110 0.540035 0.120741
0.836227 0.528055 0.113410
0.901516 0.516284 0.102384
0.939106 0.506406 0.099916
0.948827 0.499745 0.098526
0.974743 0.490308 0.096707
1.000000 0.481547 0.108944
1.000000 0.479764 0.146474
1.000000 0.480030 0.172721
1.000000 0.479754 0.175890
1.000000 0.479754 0.175890
1.000000 0.479754 0.175890
1.000000 0.479754 0.175890
1.000000 0.479754 0.175890
1.000000 0.479754 0.175890
1.000000 0.479754 0.175890
1.000000 0.479754 0.175890
1.000000 0.479754 0.175890
1.000000 0.479754 0.175890
1.000000 0.479754 0.175890
0.121681 0.704981 0.121681
0.183033 0.701742 0.119473
0.266130 0.698361 0.117640
0.349682 0.694844 0.116185
0.405461 0.666099 0.123073
0.421445 0.652559 0.125408
0.445138 0.641798 0.127192
0.497782 0.638080 0.127175
0.564795 0.634279 0.127530
0.631348 0.629798 0.130695
0.677964 0.617679 0.126037
0.704904 0.609624 0.122957
0.716210 0.603838 0.121196
0.759107 0.594022 0.115877
0.818715 0.580627 0.108546
0.879456 0.567343 0.100811
0.930642 0.556045 0.090338
0.947001 0.547467 0.088340
0.962962 0.539115 0.086204
0.998596 0.528039 0.083505
1.000000 0.520606 0.121514
1.000000 0.517964 0.154726
1.000000 0.517318 0.159932
1.000000 0.517318 0.159932
1.000000 0.517318 0.159932
1.000000 0.517318 0.159932
1.000000 0.517318 0.159932
1.000000 0.517318 0.159932
1.000000 0.517318 0.159932
1.000000 0.517318 0.159932
1.000000 0.517318 0.159932
1.000000 0.517318 0.159932
1.000000 0.517318 0.159932
0.106459 0.737149 0.106459
0.155660 0.735220 0.105162
0.233841 0.733095 0.104271
0.319338 0.730781 0.103790
0.388098 0.716902 0.107634
0.416568 0.699541 0.112919
0.431328 0.688458 0.116076
0.474858 0.675523 0.119480
0.539517 0.672878 0.119252
0.609357 0.670204 0.118771
0.668020 0.666137 0.120801
0.699774 0.655512 0.116441
0.709523 0.648940 0.113999
0.740310 0.639352 0.109174
0.794652 0.626774 0.101672
0.856526 0.613661 0.093152
0.915477 0.603134 0.080312
0.947012 0.593939 0.074287
0.956016 0.586976 0.071735
0.985072 0.577005 0.069199
1.000000 0.564781 0.092334
1.000000 0.556275 0.128984
1.000000 0.554999 0.135986
1.000000 0.554999 0.135986
1.000000 0.554999 0.135986
1.000000 0.554999 0.135986
1.000000 0.554999 0.135986
1.000000 0.554999 0.135986
1.000000 0.554999 0.135986
1.000000 0.554999 0.135986
1.000000 0.554999 0.135986
1.000000 0.554999 0.135986
1.000000 0.554999 0.135986
0.099214 0.751185 0.099214
0.134208 0.750994 0.098800
0.205500 0.750561 0.098784
0.291139 0.749987 0.098645
0.368475 0.749310 0.098222
0.410386 0.728814 0.104497
0.421868 0.721765 0.105734
0.456659 0.701270 0.111186
0.515388 0.697725 0.110451
0.582810 0.695535 0.108979
0.646456 0.693090 0.107336
0.691277 0.689011 0.108342
0.707759 0.682503 0.104474
0.725506 0.676295 0.100281
0.772620 0.665826 0.092935
0.833215 0.653800 0.084030
0.891841 0.642375 0.075190
0.943191 0.636131 0.058377
0.954479 0.629711 0.055349
0.974861 0.622419 0.054041
1.000000 0.610784 0.065059
1.000000 0.597682 0.105301
1.000000 0.595568 0.113800
1.000000 0.595568 0.113800
1.000000 0.595568 0.113800
1.000000 0.595568 0.113800
1.000000 0.595568 0.113800
1.000000 0.595568 0.113800
1.000000 0.595568 0.113800
1.000000 0.595568 0.113800
1.000000 0.595568 0.113800
1.000000 0.595568 0.113800
1.000000 0.595568 0.113800
0.095276 0.765151 0.095276
0.116778 0.763076 0.095039
0.180686 0.761246 0.094472
0.265757 0.759657 0.093593
0.347687 0.757328 0.092512
0.402251 0.739565 0.096859
0.416252 0.730822 0.097790
0.442750 0.716004 0.100773
0.493015 0.706372 0.101821
0.558205 0.706587 0.099268
0.623820 0.706462 0.096618
0.677769 0.706353 0.095111
0.706022 0.703263 0.093962
0.715673 0.700172 0.090029
0.753441 0.692937 0.083153
0.810729 0.683060 0.074690
0.872118 0.673123 0.066790
0.921749 0.664929 0.060098
0.956028 0.663956 0.045014
0.967615 0.659350 0.043485
0.999399 0.650951 0.042566
1.000000 0.633790 0.081412
1.000000 0.630656 0.090457
1.000000 0.630656 0.090457
1.000000 0.630656 0.090457
1.000000 0.630656 0.090457
1.000000 0.630656 0.090457
1.000000 0.630656 0.090457
1.000000 0.630656 0.090457
1.000000 0.630656 0.090457
1.000000 0.630656 0.090457
1.000000 0.630656 0.090457
1.000000 0.630656 0.090457
0.083509 0.805179 0.083509
0.099220 0.799134 0.083108
0.152681 0.793459 0.082377
0.233285 0.788170 0.081330
0.318748 0.783284 0.079982
0.386295 0.771575 0.081123
0.412951 0.753769 0.084474
0.430360 0.740333 0.086077
0.472429 0.719187 0.090496
0.534960 0.716600 0.087968
0.601832 0.714449 0.085254
0.661496 0.712744 0.082366
0.701781 0.712136 0.082699
0.711421 0.708521 0.081750
0.739110 0.703406 0.077305
0.791713 0.695531 0.070283
0.852906 0.687334 0.062338
0.907493 0.680429 0.055066
0.945952 0.678136 0.045047
0.960251 0.678536 0.037337
0.988077 0.673705 0.033705
1.000000 0.658729 0.058966
1.000000 0.654909 0.068124
1.000000 0.654909 0.068124
1.000000 0.654909 0.068124
1.000000 0.654909 0.068124
1.000000 0.654909 0.068124
1.000000 0.654909 0.068124
1.000000 0.654909 0.068124
1.000000 0.654909 0.068124
1.000000 0.654909 0.068124
1.000000 0.654909 0.068124
1.000000 0.654909 0.068124
0.067442 0.850935 0.067442
0.085518 0.843878 0.066474
0.125853 0.837022 0.065273
0.200131 0.830385 0.063853
0.286288 0.823986 0.062225
0.362578 0.817844 0.060402
0.405668 0.797153 0.064435
0.418250 0.784103 0.065313
0.454212 0.759693 0.070835
0.510927 0.745278 0.073913
0.578607 0.741327 0.072893
0.642277 0.737606 0.071836
0.689989 0.734224 0.071151
0.710086 0.731331 0.071442
0.728607 0.726283 0.071412
0.774049 0.715338 0.065403
0.833544 0.704149 0.057885
0.891282 0.694054 0.050519
0.933069 0.686651 0.044777
0.949494 0.684442 0.038853
0.978020 0.683674 0.026713
1.000000 0.671765 0.038213
1.000000 0.667321 0.047123
1.000000 0.667321 0.047123
1.000000 0.667321 0.047123
1.000000 0.667321 0.047123
1.000000 0.667321 0.047123
1.000000 0.667321 0.047123
1.000000 0.667321 0.047123
1.000000 0.667321 0.047123
1.000000 0.667321 0.047123
1.000000 0.667321 0.047123
1.000000 0.667321 0.047123
0.048340 0.900592 0.048340
0.076953 0.893513 0.046806
0.102618 0.886466 0.045129
0.168351 0.879474 0.043319
0.252659 0.872558 0.041388
0.334722 0.866036 0.040003
0.391561 0.855614 0.041318
0.406805 0.841784 0.044119
0.438683 0.820196 0.050237
0.488971 0.788452 0.060549
0.554753 0.782294 0.060167
0.619925 0.777235 0.059375
0.672717 0.772325 0.058571
0.702063 0.767573 0.057757
0.715301 0.763073 0.057305
0.759251 0.757259 0.059149
0.814376 0.742677 0.052375
0.873628 0.729869 0.045091
0.921745 0.719266 0.038932
0.945413 0.712220 0.035268
0.961363 0.709315 0.027946
1.000000 0.703627 0.017829
1.000000 0.697886 0.026169
1.000000 0.697886 0.026169
1.000000 0.697886 0.026169
1.000000 0.697886 0.026169
1.000000 0.697886 0.026169
1.000000 0.697886 0.026169
1.000000 0.697886 0.026169
1.000000 0.697886 0.026169
1.000000 0.697886 0.026169
1.000000 0.697886 0.026169
1.000000 0.697886 0.026169
0.028218 0.947608 0.028218
0.067691 0.941464 0.026104
0.084925 0.935599 0.025179
0.142949 0.929745 0.024564
0.225949 0.923824 0.023966
0.310487 0.917855 0.023383
0.373928 0.911854 0.022816
0.395662 0.903634 0.023257
0.421805 0.885171 0.028306
0.471351 0.855326 0.038362
0.530629 0.829145 0.046686
0.596258 0.823601 0.046033
0.652674 0.818111 0.045392
0.689094 0.812688 0.044762
0.700665 0.807342 0.044141
0.737872 0.802083 0.043531
0.797551 0.795658 0.046130
0.855218 0.779434 0.039291
0.907903 0.766529 0.032869
0.940932 0.756755 0.028447
0.949671 0.750379 0.026503
0.989952 0.749353 0.008495
0.998974 0.747139 0.006914
0.998974 0.747139 0.006914
0.998974 0.747139 0.006914
0.998974 0.747139 0.006914
0.998974 0.747139 0.006914
0.998974 0.747139 0.006914
0.998974 0.747139 0.006914
0.998974 0.747139 0.006914
0.998974 0.747139 0.006914
0.998974 0.747139 0.006914
0.998974 0.747139 0.006914
0.012517 0.986045 0.012517
0.058066 0.982042 0.011536
0.073322 0.977788 0.010613
0.123865 0.973308 0.009745
0.202902 0.968623 0.008931
0.287579 0.963755 0.008168
0.355833 0.958725 0.007454
0.386377 0.953552 0.006787
0.405516 0.945425 0.007485
0.452436 0.918729 0.016768
0.510357 0.885148 0.029056
0.572944 0.869556 0.033101
0.631869 0.864304 0.032501
0.674009 0.859019 0.031934
0.689491 0.853714 0.031397
0.715505 0.848403 0.030890
0.772088 0.843098 0.030412
0.838398 0.836383 0.033330
0.892308 0.820349 0.027032
0.932817 0.808762 0.022011
0.946437 0.801086 0.019724
0.966272 0.794490 0.014769
0.978502 0.795353 0.008785
0.978502 0.795353 0.008785
0.978502 0.795353 0.008785
0.978502 0.795353 0.008785
0.978502 0.795353 0.008785
0.978502 0.795353 0.008785
0.978502 0.795353 0.008785
0.978502 0.795353 0.008785
0.978502 0.795353 0.008785
0.978502 0.795353 0.008785
0.978502 0.795353 0.008785
0.009979 1.000000 0.009979
0.056785 1.000000 0.007111
0.070461 1.000000 0.003935
0.111131 1.000000 0.000477
0.185682 0.996758 0.000000
0.269520 0.992799 0.000000
0.340960 0.988623 0.000000
0.379620 0.984249 0.000000
0.393476 0.979697 0.000000
0.434763 0.968522 0.000000
0.492234 0.940015 0.009767
0.551322 0.908733 0.021678
0.611787 0.904509 0.021003
0.658449 0.900143 0.020381
0.681443 0.895653 0.019812
0.697130 0.891055 0.019292
0.745753 0.886364 0.018820
0.812607 0.881596 0.018395
0.877316 0.874969 0.021552
0.921911 0.860814 0.016319
0.945269 0.851898 0.013166
0.955020 0.844940 0.011414
0.960532 0.842888 0.010688
0.960532 0.842888 0.010688
0.960532 0.842888 0.010688
0.960532 0.842888 0.010688
0.960532 0.842888 0.010688
0.960532 0.842888 0.010688
0.960532 0.842888 0.010688
0.960532 0.842888 0.010688
0.960532 0.842888 0.010688
0.960532 0.842888 0.010688
0.960532 0.842888 0.010688
0.009265 1.000000 0.009265
0.058626 1.000000 0.006635
0.075390 1.000000 0.004329
0.109297 1.000000 0.002357
0.177187 1.000000 0.000726
0.257952 0.999159 0.000000
0.330686 0.997264 0.000000
0.375407 0.995062 0.000000
0.387410 0.992574 0.000000
0.422344 0.987583 0.000000
0.475653 0.972075 0.000000
0.535233 0.946888 0.007335
0.593652 0.933039 0.011850
0.643777 0.930344 0.011061
0.673239 0.927413 0.010345
0.683817 0.924265 0.009700
0.723510 0.920919 0.009123
0.785575 0.917393 0.008611
0.854248 0.913785 0.008724
0.910386 0.907513 0.011466
0.940766 0.896801 0.007753
0.949081 0.890935 0.006223
0.952694 0.889324 0.005707
0.952694 0.889324 0.005707
0.952694 0.889324 0.005707
0.952694 0.889324 0.005707
0.952694 0.889324 0.005707
0.952694 0.889324 0.005707
0.952694 0.889324 0.005707
0.952694 0.889324 0.005707
0.952694 0.889324 0.005707
0.952694 0.889324 0.005707
0.952694 0.889324 0.005707
0.019415 1.000000 0.019415
0.067559 1.000000 0.015122
0.086285 1.000000 0.011080
0.110857 1.000000 0.007298
0.171435 1.000000 0.003787
0.247999 1.000000 0.000554
0.321663 0.997609 0.000000
0.371828 0.994957 0.000000
0.385580 0.992607 0.000000
0.414225 0.990229 0.000000
0.463055 0.977199 0.000000
0.521206 0.962004 0.000000
0.578503 0.944854 0.005871
0.631153 0.944551 0.004805
0.665929 0.943893 0.003834
0.676408 0.942903 0.002954
0.706372 0.941601 0.002163
0.762544 0.940009 0.001458
0.829845 0.938147 0.000835
0.892730 0.936253 0.001936
0.934182 0.930597 0.003640
0.946389 0.924737 0.001806
0.947895 0.923804 0.001511
0.947895 0.923804 0.001511
0.947895 0.923804 0.001511
0.947895 0.923804 0.001511
0.947895 0.923804 0.001511
0.947895 0.923804 0.001511
0.947895 0.923804 0.001511
0.947895 0.923804 0.001511
0.947895 0.923804 0.001511
0.947895 0.923804 0.001511
0.947895 0.923804 0.001511
0.038585 1.000000 0.038585
0.084412 1.000000 0.033323
0.105379 1.000000 0.028230
0.121758 1.000000 0.023318
0.173951 1.000000 0.018599
0.244320 1.000000 0.014085
0.314641 1.000000 0.009786
0.366804 1.000000 0.005710
0.383928 1.000000 0.001867
0.406007 0.998266 0.000000
0.451059 0.986622 0.000000
0.507159 0.970171 0.000000
0.564229 0.952358 0.001019
0.619371 0.950581 0.000320
0.658955 0.948689 0.000000
0.674138 0.946743 0.000000
0.693767 0.945068 0.000000
0.742811 0.943666 0.000000
0.806490 0.942541 0.000000
0.870660 0.941694 0.000000
0.922751 0.944063 0.000000
0.944264 0.939806 0.000000
0.944687 0.939074 0.000000
0.944687 0.939074 0.000000
0.944687 0.939074 0.000000
0.944687 0.939074 0.000000
0.944687 0.939074 0.000000
0.944687 0.939074 0.000000
0.944687 0.939074 0.000000
0.944687 0.939074 0.000000
0.944687 0.939074 0.000000
0.944687 0.939074 0.000000
0.944687 0.939074 0.000000
0.042999 1.000000 0.042999
0.088316 1.000000 0.037625
0.109618 1.000000 0.032404
0.124697 1.000000 0.027348
0.175235 1.000000 0.022469
0.244248 1.000000 0.017778
0.313839 1.000000 0.013288
0.366185 1.000000 0.009006
0.384203 1.000000 0.004944
0.404534 1.000000 0.001109
0.448621 0.990025 0.000000
0.504260 0.973424 0.000000
0.561450 0.956298 0.000000
0.616471 0.952620 0.000000
0.656806 0.950122 0.000000
0.673427 0.947881 0.000000
0.691262 0.945901 0.000000
0.739021 0.944184 0.000000
0.802144 0.942734 0.000000
0.866573 0.941554 0.000000
0.919669 0.943660 0.000000
0.944290 0.941127 0.000000
0.944193 0.939439 0.000000
0.944193 0.939439 0.000000
0.944193 0.939439 0.000000
0.944193 0.939439 0.000000
0.944193 0.939439 0.000000
0.944193 0.939439 0.000000
0.944193 0.939439 0.000000
0.944193 0.939439 0.000000
0.944193 0.939439 0.000000
0.944193 0.939439 0.000000
0.944193 0.939439 0.000000
0.042999 1.000000 0.042999
0.088316 1.000000 0.037625
0.109618 1.000000 0.032404
0.124697 1.000000 0.027348
0.175235 1.000000 0.022469
0.244248 1.000000 0.017778
0.313839 1.000000 0.013288
0.366185 1.000000 0.009006
0.384203 1.000000 0.004944
0.404534 1.000000 0.001109
0.448621 0.990025 0.000000
0.504260 0.973424 0.000000
0.561450 0.956298 0.000000
0.616471 0.952620 0.000000
0.656806 0.950122 0.000000
0.673427 0.947881 0.000000
0.691262 0.945901 0.000000
0.739021 0.944184 0.000000
0.802144 0.942734 0.000000
0.866573 0.941554 0.000000
0.919669 0.943660 0.000000
0.944290 0.941127 0.000000
0.944193 0.939439 0.000000
0.944193 0.939439 0.000000
0.944193 0.939439 0.000000
0.944193 0.939439 0.000000
0.944193 0.939439 0.000000
0.944193 0.939439 0.000000
0.944193 0.939439 0.000000
0.944193 0.939439 0.000000
0.944193 0.939439 0.000000
0.944193 0.939439 0.000000
0.944193 0.939439 0.000000
0.042999 1.000000 0.042999
0.088316 1.000000 0.037625
0.109618 1.000000 0.032404
0.124697 1.000000 0.027348
0.175235 1.000000 0.022469
0.244248 1.000000 0.017778
0.313839 1.000000 0.013288
0.366185 1.000000 0.009006
0.384203 1.000000 0.004944
0.404534 1.000000 0.001109
0.448621 0.990025 0.000000
0.504260 0.973424 0.000000
0.561450 0.956298 0.000000
0.616471 0.952620 0.000000
0.656806 0.950122 0.000000
0.673427 0.947881 0.000000
0.691262 0.945901 0.000000
0.739021 0.944184 0.000000
0.802144 0.942734 0.000000
0.866573 0.941554 0.000000
0.919669 0.943660 0.000000
0.944290 0.941127 0.000000
0.944193 0.939439 0.000000
0.944193 0.939439 0.000000
0.944193 0.939439 0.000000
0.944193 0.939439 0.000000
0.944193 0.939439 0.000000
0.944193 0.939439 0.000000
0.944193 0.939439 0.000000
0.944193 0.939439 0.000000
0.944193 0.939439 0.000000
0.944193 0.939439 0.000000
0.944193 0.939439 0.000000
0.042999 1.000000 0.042999
0.088316 1.000000 0.037625
0.109618 1.000000 0.032404
0.124697 1.000000 0.027348
0.175235 1.000000 0.022469
0.244248 1.000000 0.017778
0.313839 1.000000 0.013288
0.366185 1.000000 0.009006
0.384203 1.000000 0.004944
0.404534 1.000000 0.001109
0.448621 0.990025 0.000000
0.504260 0.973424 0.000000
0.561450 0.956298 0.000000
0.616471 0.952620 0.000000
0.656806 0.950122 0.000000
0.673427 0.947881 0.000000
0.691262 0.945901 0.000000
0.739021 0.944184 0.000000
0.802144 0.942734 0.000000
0.866573 0.941554 0.000000
0.919669 0.943660 0.000000
0.944290 0.941127 0.000000
0.944193 0.939439 0.000000
0.944193 0.939439 0.000000
0.944193 0.939439 0.000000
0.944193 0.939439 0.000000
0.944193 0.939439 0.000000
0.944193 0.939439 0.000000
0.944193 0.939439 0.000000
0.944193 0.939439 0.000000
0.944193 0.939439 0.000000
0.944193 0.939439 0.000000
0.944193 0.939439 0.000000
0.042999 1.000000 0.042999
0.088316 1.000000 0.037625
0.109618 1.000000 0.032404
0.124697 1.000000 0.027348
0.175235 1.000000 0.022469
0.244248 1.000000 0.017778
0.313839 1.000000 0.013288
0.366185 1.000000 0.009006
0.384203 1.000000 0.004944
0.404534 1.000000 0.001109
0.448621 0.990025 0.000000
0.504260 0.973424 0.000000
0.561450 0.956298 0.000000
0.616471 0.952620 0.000000
0.656806 0.950122 0.000000
0.673427 0.947881 0.000000
0.691262 0.945901 0.000000
0.739021 0.944184 0.000000
0.802144 0.942734 0.000000
0.866573 0.941554 0.000000
0.919669 0.943660 0.000000
0.944290 0.941127 0.000000
0.944193 0.939439 0.000000
0.944193 0.939439 0.000000
0.944193 0.939439 0.000000
0.944193 0.939439 0.000000
