Dreamcore_Poolrooms.cube
# Dreamcore - Poolrooms v2 (Cool Fluorescent Liminal)
TITLE "Dreamcore_Poolrooms"
LUT_3D_SIZE 33
DOMAIN_MIN 0.0 0.0 0.0
DOMAIN_MAX 1.0 1.0 1.0
0.024677 0.069808 0.079992
0.040983 0.070052 0.079916
0.069210 0.071539 0.079510
0.096534 0.071756 0.079453
0.123634 0.074849 0.082176
0.144312 0.077203 0.084399
0.153230 0.078198 0.085349
0.161216 0.079085 0.086202
0.184602 0.081867 0.088898
0.218607 0.085922 0.092856
0.258346 0.090645 0.097486
0.298927 0.095463 0.102220
0.335447 0.099796 0.106484
0.362994 0.103057 0.109696
0.376645 0.104656 0.111273
0.382480 0.105320 0.111927
0.403437 0.107797 0.114369
0.435968 0.111664 0.118184
0.475148 0.116334 0.122794
0.516048 0.121217 0.127619
0.553724 0.125719 0.132070
0.583224 0.129242 0.135554
0.599587 0.131183 0.137475
0.605446 0.131859 0.138143
0.628375 0.134595 0.140852
0.663615 0.138823 0.145038
0.702116 0.143452 0.149623
0.734812 0.147383 0.153519
0.752618 0.149512 0.155630
0.762292 0.150657 0.156765
0.793865 0.154461 0.160538
0.830261 0.158857 0.164900
0.850148 0.162852 0.168851
0.025013 0.086219 0.080284
0.041077 0.086128 0.079950
0.067990 0.086056 0.079425
0.097314 0.086587 0.081237
0.124071 0.089291 0.083911
0.144815 0.091560 0.086190
0.153932 0.092518 0.087186
0.161687 0.093322 0.088032
0.184859 0.095928 0.090650
0.218733 0.099802 0.094519
0.258423 0.104377 0.099083
0.299027 0.109074 0.103771
0.335631 0.113311 0.108007
0.363313 0.116498 0.111210
0.377140 0.118047 0.112795
0.382894 0.118638 0.113436
0.403724 0.121020 0.115846
0.436184 0.124789 0.119626
0.475345 0.129362 0.124205
0.516266 0.134154 0.129002
0.553999 0.138573 0.133433
0.583582 0.142024 0.136907
0.600045 0.143907 0.138830
0.605877 0.144516 0.139492
0.628732 0.147168 0.142177
0.663953 0.151309 0.146338
0.702476 0.155853 0.150901
0.735220 0.159707 0.154783
0.753084 0.161773 0.156891
0.762732 0.162848 0.158018
0.794296 0.166571 0.161772
0.830713 0.170885 0.166114
0.850344 0.175059 0.170354
0.025841 0.112115 0.079813
0.043703 0.109616 0.079261
0.071570 0.107715 0.080491
0.096410 0.104787 0.079753
0.123793 0.108932 0.083619
0.145681 0.112317 0.086622
0.155075 0.113349 0.087632
0.162568 0.114076 0.088403
0.185447 0.116580 0.090892
0.219124 0.120374 0.094664
0.258720 0.124896 0.099173
0.299318 0.129561 0.103841
0.335989 0.133779 0.108078
0.363795 0.136957 0.111296
0.377796 0.138499 0.112903
0.383471 0.139053 0.113536
0.404169 0.141394 0.115933
0.436553 0.145131 0.119711
0.475687 0.149682 0.124296
0.516626 0.154457 0.129107
0.554412 0.158864 0.133556
0.584076 0.162303 0.137051
0.600639 0.164173 0.138991
0.606447 0.164751 0.139653
0.629227 0.167370 0.142338
0.664427 0.171488 0.146510
0.702971 0.176015 0.151091
0.735762 0.179855 0.154992
0.753685 0.181902 0.157114
0.763309 0.182946 0.158242
0.794863 0.186646 0.162008
0.831300 0.190943 0.166368
0.850405 0.195501 0.171164
0.034986 0.133671 0.080089
0.050301 0.133605 0.081128
0.074636 0.135694 0.082794
0.100336 0.136067 0.081928
0.123140 0.130603 0.082151
0.143529 0.133099 0.084580
0.153704 0.134940 0.086242
0.161466 0.136234 0.087457
0.185296 0.140056 0.090838
0.219669 0.144656 0.094924
0.259164 0.149209 0.099372
0.299751 0.153907 0.104015
0.336485 0.158157 0.108252
0.364415 0.161365 0.111483
0.378587 0.162933 0.113112
0.384188 0.163477 0.113738
0.404753 0.165812 0.116123
0.437059 0.169555 0.119899
0.476166 0.174119 0.124491
0.517121 0.178914 0.129317
0.554959 0.183342 0.133788
0.584704 0.186801 0.137304
0.601368 0.188686 0.139264
0.607153 0.189259 0.139926
0.629858 0.191875 0.142613
0.665038 0.196002 0.146798
0.703602 0.200544 0.151399
0.736440 0.204399 0.155321
0.754422 0.206455 0.157460
0.764022 0.207495 0.158590
0.795567 0.211202 0.162370
0.832025 0.215511 0.166751
0.850484 0.220487 0.172225
0.039376 0.159495 0.082459
0.053364 0.160664 0.083407
0.077585 0.162776 0.085085
0.102621 0.163060 0.083611
0.127176 0.156010 0.084878
0.144806 0.155734 0.084633
0.153205 0.155867 0.084672
0.159459 0.156029 0.085343
0.183353 0.160520 0.089162
0.218340 0.166397 0.094418
0.259068 0.172307 0.099474
0.300150 0.177484 0.104237
0.336950 0.181816 0.108475
0.365005 0.185092 0.111721
0.379350 0.186715 0.113371
0.384882 0.187275 0.113991
0.405315 0.189632 0.116364
0.437544 0.193414 0.120137
0.476624 0.198026 0.124737
0.517597 0.202873 0.129579
0.555489 0.207351 0.134070
0.585315 0.210858 0.137608
0.602081 0.212783 0.139588
0.607845 0.213374 0.140251
0.630475 0.216012 0.142939
0.665636 0.220175 0.147138
0.704221 0.224760 0.151759
0.737107 0.228656 0.155702
0.755149 0.230746 0.157857
0.764726 0.231805 0.158991
0.796263 0.235544 0.162785
0.832742 0.239891 0.167186
0.850562 0.245211 0.173333
0.041874 0.180294 0.084229
0.055640 0.181493 0.085173
0.079749 0.183648 0.086860
0.104283 0.183904 0.084931
0.129980 0.180752 0.085505
0.147982 0.175429 0.086777
0.156285 0.175285 0.086650
0.162067 0.175162 0.086550
0.181755 0.176009 0.087708
0.216785 0.182398 0.093107
0.257814 0.189131 0.099064
0.299647 0.195208 0.104237
0.337220 0.200179 0.108656
0.365404 0.203547 0.111917
0.379924 0.205246 0.113591
0.385392 0.205843 0.114205
0.405696 0.208245 0.116566
0.437851 0.212088 0.120337
0.476909 0.216769 0.124943
0.517903 0.221686 0.129798
0.555851 0.226236 0.134307
0.585760 0.229809 0.137865
0.602628 0.231795 0.139864
0.608373 0.232425 0.140529
0.630931 0.235105 0.143217
0.666073 0.239323 0.147426
0.704681 0.243968 0.152064
0.737617 0.247924 0.156026
0.755719 0.250068 0.158197
0.765275 0.251167 0.159333
0.796804 0.254957 0.163140
0.832731 0.259778 0.168134
0.850622 0.264916 0.174243
0.042911 0.189481 0.084959
0.056456 0.190727 0.085897
0.080454 0.192940 0.087587
0.104779 0.193249 0.085475
0.130485 0.191885 0.085570
0.149295 0.184342 0.087704
0.157790 0.184260 0.087586
0.163435 0.184201 0.087497
0.182407 0.184557 0.087528
0.215789 0.189646 0.092425
0.256831 0.196620 0.098497
0.298911 0.203141 0.104042
0.336756 0.208429 0.108602
0.365454 0.212162 0.111957
0.380152 0.213949 0.113654
0.385561 0.214597 0.114263
0.405740 0.217052 0.116613
0.437827 0.220959 0.120380
0.476868 0.225712 0.124989
0.517887 0.230706 0.129854
0.555895 0.235333 0.134377
0.585891 0.238983 0.137951
0.602862 0.241042 0.139968
0.608591 0.241728 0.140634
0.631077 0.244462 0.143319
0.666204 0.248744 0.147534
0.704838 0.253459 0.152184
0.737825 0.257486 0.156160
0.755990 0.259698 0.158344
0.765524 0.260852 0.159482
0.797048 0.264705 0.163296
0.832710 0.269779 0.168593
0.850647 0.274866 0.174686
0.043767 0.197184 0.085562
0.057072 0.198349 0.086482
0.080940 0.200494 0.088163
0.105086 0.200742 0.085900
0.130658 0.200478 0.085619
0.150264 0.191278 0.088412
0.158932 0.191142 0.088289
0.164426 0.191031 0.088199
0.182784 0.190819 0.087983
0.214922 0.194908 0.091887
0.255976 0.201982 0.098001
0.298147 0.208658 0.103806
0.336191 0.214094 0.108489
0.365317 0.218050 0.111940
0.380282 0.219884 0.113674
0.385633 0.220483 0.114277
0.405683 0.222886 0.116613
0.437701 0.226753 0.120373
0.476722 0.231473 0.124983
0.517764 0.236438 0.129854
0.555829 0.241039 0.134388
0.585909 0.244664 0.137976
0.602982 0.246698 0.140006
0.608693 0.247341 0.140672
0.631104 0.250030 0.143350
0.666213 0.254277 0.147567
0.704870 0.258962 0.152224
0.737906 0.262961 0.156210
0.756131 0.265145 0.158404
0.765642 0.266259 0.159541
0.797159 0.270078 0.163357
0.832709 0.275201 0.168795
0.850656 0.280211 0.174903
0.046576 0.220376 0.087632
0.059641 0.221473 0.088538
0.083379 0.223565 0.090219
0.106965 0.223685 0.087451
0.132595 0.223383 0.087182
0.153442 0.217619 0.089045
0.162604 0.212883 0.090611
0.167937 0.212437 0.090628
0.186140 0.212187 0.090421
0.213330 0.211624 0.090604
0.254464 0.219133 0.096841
0.296724 0.226158 0.103024
0.335143 0.232150 0.108267
0.364569 0.236415 0.111947
0.379936 0.238465 0.113789
0.385350 0.239120 0.114419
0.405719 0.241839 0.116842
0.438026 0.245954 0.120657
0.477020 0.250673 0.125271
0.518080 0.255638 0.130154
0.556198 0.260236 0.134704
0.586358 0.263850 0.138310
0.603531 0.265864 0.140358
0.609224 0.266464 0.141023
0.631559 0.269114 0.143700
0.666646 0.273336 0.147926
0.705324 0.278003 0.152598
0.738406 0.281982 0.156600
0.756689 0.284137 0.158808
0.766177 0.285207 0.159945
0.797684 0.288996 0.163771
0.832608 0.294442 0.169871
0.850715 0.299148 0.175847
0.050746 0.254405 0.090791
0.063572 0.255460 0.091688
0.087181 0.257525 0.093375
0.109949 0.257496 0.089862
0.135639 0.257183 0.089614
0.156079 0.256761 0.089475
0.166975 0.251983 0.091275
0.172850 0.249158 0.092289
0.191286 0.243904 0.094151
0.218741 0.243585 0.093889
0.252506 0.244337 0.095288
0.294905 0.251893 0.101607
0.333450 0.258278 0.107219
0.363109 0.262969 0.111481
0.378820 0.265343 0.113663
0.384250 0.266068 0.114322
0.404657 0.269053 0.116871
0.437328 0.273695 0.120947
0.477119 0.279123 0.125756
0.518708 0.284500 0.130727
0.556877 0.289141 0.135297
0.587115 0.292785 0.138926
0.604387 0.294810 0.140994
0.610063 0.295390 0.141661
0.632321 0.298034 0.144338
0.667386 0.302271 0.148578
0.706082 0.306958 0.153271
0.739210 0.310952 0.157296
0.757551 0.313106 0.159520
0.767016 0.314157 0.160660
0.798512 0.317949 0.164502
0.832240 0.323324 0.171131
0.850486 0.327698 0.177321
0.055660 0.294413 0.094629
0.068247 0.295446 0.095519
0.091727 0.297508 0.097217
0.113546 0.297334 0.092833
0.139297 0.297034 0.092611
0.159829 0.296766 0.092430
0.170115 0.296555 0.092322
0.176169 0.295158 0.092797
0.197059 0.286126 0.096580
0.224805 0.281099 0.098447
0.257533 0.280774 0.098186
0.292867 0.281919 0.100081
0.331581 0.288802 0.105811
0.361427 0.293807 0.110162
0.377330 0.296344 0.112457
0.382700 0.297111 0.113218
0.402972 0.300305 0.116132
0.435713 0.305431 0.120826
0.475847 0.311495 0.125973
0.517934 0.317524 0.131261
0.556931 0.322871 0.136021
0.587914 0.327050 0.139762
0.605409 0.329196 0.141863
0.611071 0.329779 0.142532
0.633251 0.332447 0.145212
0.668293 0.336733 0.149468
0.707006 0.341474 0.154186
0.740024 0.345419 0.158216
0.758369 0.347352 0.160445
0.767041 0.348068 0.161488
0.797026 0.351462 0.165155
0.831338 0.356422 0.171400
0.849893 0.361235 0.179116
0.060695 0.335471 0.098682
0.073043 0.336502 0.099567
0.096213 0.338559 0.101098
0.117255 0.338287 0.096012
0.143066 0.338018 0.095817
0.163733 0.337778 0.095658
0.174219 0.337586 0.095561
0.179786 0.337417 0.095493
0.200652 0.333507 0.097105
0.231065 0.320191 0.103065
0.263779 0.319485 0.103037
0.297768 0.319201 0.102816
0.329679 0.319853 0.104490
0.359712 0.325240 0.108930
0.375817 0.327980 0.111284
0.381151 0.328800 0.112051
0.401313 0.332160 0.114984
0.434015 0.337536 0.119725
0.474077 0.343963 0.125503
0.516367 0.350581 0.131461
0.555757 0.356492 0.136451
0.586920 0.360996 0.140422
0.604721 0.363408 0.142620
0.610484 0.364105 0.143317
0.632688 0.366949 0.146041
0.667685 0.371491 0.150316
0.706183 0.376271 0.155008
0.739302 0.380111 0.159064
0.758813 0.382212 0.161448
0.766740 0.382838 0.162404
0.795544 0.386117 0.165943
0.830337 0.390823 0.171863
0.849132 0.395820 0.181059
0.065227 0.372578 0.102432
0.077336 0.373621 0.103312
0.099161 0.375587 0.103660
0.120567 0.375361 0.098986
0.146439 0.375138 0.098817
0.167241 0.374940 0.098679
0.177928 0.374783 0.098594
0.183372 0.374647 0.098535
0.203052 0.374456 0.098409
0.235527 0.363243 0.103654
0.269410 0.354648 0.107532
0.303436 0.354416 0.107347
0.334645 0.354201 0.107184
0.358134 0.353463 0.107905
0.374440 0.356423 0.110316
0.379738 0.357309 0.111087
0.399787 0.360847 0.114035
0.432445 0.366489 0.118816
0.472516 0.373198 0.124647
0.514825 0.380079 0.130774
0.554166 0.386307 0.136450
0.585184 0.390899 0.140682
0.603369 0.393390 0.142983
0.608904 0.393918 0.143672
0.630125 0.396805 0.146379
0.664603 0.401561 0.150779
0.703340 0.406747 0.155598
0.737671 0.411267 0.159835
0.758763 0.413899 0.162416
0.766350 0.414628 0.163327
0.794007 0.417904 0.166733
0.829288 0.422452 0.172215
0.848198 0.427474 0.182901
0.068631 0.400662 0.105310
0.080501 0.401730 0.106183
0.101443 0.403660 0.105800
0.122969 0.403490 0.101291
0.148901 0.403323 0.101143
0.169839 0.403177 0.101023
0.180727 0.403067 0.100948
0.186055 0.402977 0.100899
0.205568 0.402840 0.100792
0.237679 0.396058 0.103982
0.273599 0.381466 0.111006
0.307662 0.381293 0.110851
0.338956 0.381135 0.110716
0.363449 0.381171 0.110661
0.377543 0.382069 0.110885
0.381996 0.382246 0.110922
0.398562 0.382601 0.113352
0.430970 0.388366 0.118133
0.470506 0.395079 0.123928
0.512299 0.401943 0.130021
0.551385 0.408176 0.135695
0.582842 0.413055 0.140249
0.601778 0.415868 0.142983
0.607265 0.416518 0.143768
0.627418 0.419482 0.146504
0.661470 0.424514 0.150856
0.700366 0.430141 0.155871
0.735166 0.434949 0.160285
0.757310 0.437869 0.163050
0.764575 0.438660 0.163943
0.791299 0.442208 0.167264
0.828199 0.447192 0.171915
0.847088 0.452390 0.184365
0.070281 0.414601 0.106721
0.081912 0.415701 0.107586
0.102568 0.417662 0.107051
0.123944 0.417552 0.102430
0.149936 0.417446 0.102297
0.171009 0.417359 0.102189
0.182098 0.417305 0.102123
0.187318 0.417271 0.102083
0.206664 0.417193 0.101988
0.238228 0.412770 0.104059
0.275380 0.397423 0.111600
0.309614 0.394976 0.112631
0.340991 0.394878 0.112515
0.365472 0.394802 0.112427
0.379134 0.395103 0.112480
0.383480 0.395345 0.112538
0.396996 0.393421 0.112864
0.428743 0.399248 0.117566
0.467978 0.406178 0.123337
0.509707 0.413289 0.129440
0.548988 0.419791 0.135160
0.580921 0.424957 0.139797
0.600642 0.428077 0.142652
0.606221 0.428896 0.143453
0.625195 0.431859 0.146198
0.658571 0.437066 0.150780
0.697437 0.442969 0.155774
0.732862 0.448212 0.160362
0.756096 0.451510 0.163332
0.763283 0.452444 0.164231
0.788505 0.455957 0.167403
0.825262 0.461091 0.172006
0.845651 0.466496 0.184739
0.070953 0.420599 0.107295
0.082332 0.421653 0.108141
0.103013 0.423595 0.107758
0.124093 0.423465 0.102878
0.150137 0.423338 0.102747
0.171335 0.423231 0.102641
0.182617 0.423156 0.102577
0.187727 0.423100 0.102537
0.206897 0.423003 0.102445
0.238097 0.419590 0.104003
0.275667 0.404221 0.111567
0.309806 0.400236 0.113291
0.341022 0.399999 0.113162
0.365550 0.399786 0.113059
0.379395 0.399644 0.113001
0.383654 0.399843 0.113060
0.399390 0.400698 0.113284
0.426855 0.402696 0.117184
0.465781 0.409573 0.122920
0.507435 0.416671 0.129022
0.546898 0.423198 0.134777
0.579297 0.428427 0.139488
0.599789 0.431653 0.142460
0.605599 0.432484 0.143297
0.623419 0.435249 0.145878
0.656077 0.440355 0.150535
0.694826 0.446276 0.155506
0.730692 0.451612 0.160146
0.755013 0.455127 0.163296
0.762369 0.456088 0.164220
0.786034 0.459390 0.167206
0.822516 0.464509 0.171791
0.844120 0.469968 0.184575
0.073551 0.442138 0.109556
0.084675 0.443135 0.110386
0.104813 0.444995 0.109607
0.125809 0.444839 0.104689
0.151901 0.444686 0.104569
0.173223 0.444549 0.104471
0.184695 0.444442 0.104410
0.189645 0.444158 0.104354
0.208421 0.443734 0.104244
0.238102 0.443288 0.104104
0.276855 0.427843 0.111668
0.311798 0.419003 0.115790
0.343104 0.418592 0.115651
0.367900 0.418201 0.115535
0.382180 0.417834 0.115446
0.386074 0.417487 0.115380
0.400655 0.417558 0.115415
0.424529 0.416541 0.116582
0.463149 0.423374 0.122302
0.504728 0.430452 0.128421
0.544372 0.436969 0.134228
0.577229 0.442199 0.139025
0.598482 0.445435 0.142121
0.604663 0.446179 0.143017
0.621309 0.448626 0.145438
0.653249 0.453519 0.150083
0.691754 0.459387 0.155471
0.728092 0.464756 0.160149
0.753469 0.468348 0.163435
0.761297 0.469261 0.164445
0.783444 0.472306 0.167326
0.819531 0.477238 0.171898
0.842360 0.482320 0.184599
0.077616 0.475584 0.113162
0.088484 0.476542 0.113978
0.107713 0.478304 0.112450
0.128728 0.478131 0.107606
0.154759 0.477547 0.107467
0.176112 0.476978 0.107345
0.187788 0.476433 0.107252
0.192499 0.475903 0.107179
0.210818 0.475348 0.107071
0.240150 0.474776 0.106940
0.278536 0.464346 0.111960
0.315617 0.448404 0.119778
0.347015 0.447874 0.119644
0.372081 0.447360 0.119527
0.386828 0.446861 0.119429
0.390713 0.446377 0.119348
0.404332 0.445885 0.119255
0.428987 0.445952 0.119304
0.460145 0.445923 0.121551
0.501643 0.453119 0.127701
0.541456 0.459750 0.133569
0.574759 0.465080 0.138461
0.596757 0.468406 0.141684
0.603442 0.469137 0.142661
0.618887 0.471322 0.144920
0.650104 0.476080 0.149485
0.688343 0.481909 0.155069
0.724925 0.487394 0.160407
0.751344 0.491175 0.163838
0.759870 0.492113 0.164928
0.780363 0.494885 0.167579
0.816249 0.499948 0.172259
0.840425 0.504578 0.184841
0.082488 0.515670 0.117585
0.093023 0.516099 0.118331
0.111208 0.517267 0.115993
0.131987 0.516618 0.111080
0.158017 0.515971 0.110956
0.179510 0.515335 0.110844
0.191492 0.514715 0.110753
0.196015 0.514107 0.110677
0.213880 0.513481 0.110578
0.242864 0.512843 0.110464
0.279726 0.508463 0.112340
0.319463 0.492221 0.120474
0.352008 0.483528 0.124592
0.377346 0.482948 0.124486
0.392562 0.482376 0.124389
0.396502 0.481810 0.124300
0.409513 0.481241 0.124208
0.433247 0.480672 0.124114
0.464355 0.480871 0.124223
0.498320 0.481046 0.126962
0.538292 0.487900 0.132899
0.572025 0.493426 0.137889
0.594750 0.496919 0.141242
0.602075 0.497719 0.142320
0.616291 0.499691 0.144413
0.646752 0.504383 0.148896
0.684752 0.510249 0.154480
0.721648 0.515839 0.159896
0.748866 0.519792 0.163888
0.758279 0.520844 0.165267
0.776916 0.523384 0.167999
0.812375 0.528617 0.172723
0.838390 0.532934 0.184612
0.087368 0.555927 0.122122
0.097605 0.556322 0.122851
0.114915 0.557404 0.119874
0.135407 0.556759 0.114808
0.161440 0.556117 0.114705
0.183076 0.555480 0.114611
0.195366 0.554852 0.114529
0.199733 0.554229 0.114455
0.217146 0.553597 0.114371
0.245786 0.552960 0.114281
0.281136 0.552325 0.114194
0.322101 0.538774 0.121054
0.357187 0.523660 0.128683
0.382963 0.520719 0.129842
0.398650 0.520135 0.129757
0.402709 0.519548 0.129669
0.415116 0.518963 0.129585
0.438393 0.518385 0.129509
0.468587 0.517815 0.129445
0.502580 0.518245 0.129640
0.535014 0.517905 0.132286
0.569162 0.523711 0.137375
0.592596 0.527444 0.140858
0.600695 0.528400 0.142059
0.613653 0.530202 0.143980
0.643329 0.534888 0.148377
0.681053 0.540858 0.153957
0.718240 0.546663 0.159450
0.746330 0.550909 0.163596
0.756888 0.552227 0.165152
0.773659 0.554558 0.167625
0.808345 0.559788 0.172738
0.836163 0.563836 0.184095
0.091857 0.593101 0.126393
0.101805 0.593534 0.127113
0.118442 0.594621 0.123694
0.138534 0.594053 0.118362
0.164573 0.593485 0.118286
0.186355 0.592920 0.118216
0.198955 0.592356 0.118149
0.203200 0.591791 0.118085
0.220167 0.591224 0.118020
0.248465 0.590658 0.117958
0.283602 0.590096 0.117905
0.323381 0.582733 0.121561
0.360731 0.567624 0.129377
0.388213 0.556482 0.135000
0.404373 0.555954 0.134936
0.408617 0.555413 0.134858
0.420426 0.554878 0.134790
0.443248 0.554357 0.134741
0.473152 0.553847 0.134708
0.506230 0.553347 0.134689
0.539600 0.554076 0.134976
0.566307 0.552551 0.136951
0.590430 0.556589 0.140561
0.599439 0.557789 0.141907
0.611135 0.559518 0.143653
0.640044 0.564313 0.147963
0.677493 0.570508 0.153538
0.714900 0.576566 0.159097
0.743765 0.581072 0.163381
0.755669 0.582672 0.165145
0.770512 0.584754 0.167345
0.804459 0.589997 0.172377
0.834515 0.594078 0.182201
0.095420 0.622729 0.129847
0.105087 0.623279 0.130567
0.121330 0.624475 0.126979
0.140922 0.624059 0.121281
0.166974 0.623643 0.121236
0.188905 0.623226 0.121194
0.201819 0.622804 0.121150
0.205975 0.622376 0.121102
0.222500 0.621951 0.121062
0.250461 0.621531 0.121033
0.285387 0.621117 0.121016
0.323473 0.619053 0.121918
0.362539 0.604046 0.129880
0.391815 0.591724 0.136313
0.409025 0.585702 0.139299
0.413522 0.585280 0.139243
0.424739 0.584867 0.139200
0.447112 0.584472 0.139184
0.476728 0.584093 0.139190
0.509701 0.583723 0.139212
0.542187 0.583372 0.139244
0.571544 0.584501 0.139621
0.588459 0.581209 0.140355
0.598381 0.582760 0.141845
0.608915 0.584407 0.143426
0.637016 0.589266 0.147639
0.674116 0.595636 0.153191
0.711688 0.601945 0.158803
0.741287 0.606755 0.163219
0.754550 0.608699 0.165195
0.767612 0.610593 0.167139
0.800728 0.615872 0.172073
0.832704 0.620306 0.180558
0.097533 0.640425 0.131924
0.106930 0.641177 0.132651
0.123102 0.642597 0.129210
0.142139 0.642414 0.123086
0.168207 0.642230 0.123075
0.190294 0.642043 0.123065
0.203524 0.641847 0.123051
0.207626 0.641640 0.123028
0.223715 0.641438 0.123018
0.251344 0.641244 0.123023
0.286063 0.641057 0.123044
0.323451 0.640875 0.123077
0.362843 0.627958 0.130099
0.393341 0.615757 0.136667
0.411728 0.607818 0.140860
0.416716 0.605375 0.142033
0.427364 0.604879 0.142175
0.449344 0.604703 0.142201
0.478766 0.604552 0.142254
0.511713 0.604412 0.142325
0.544317 0.604275 0.142403
0.572873 0.604297 0.142513
0.594538 0.605613 0.142907
0.603664 0.605915 0.143026
0.607063 0.601507 0.143254
0.634326 0.606440 0.147358
0.671044 0.612995 0.152875
0.708742 0.619572 0.158528
0.739033 0.624715 0.163064
0.753608 0.627051 0.165244
0.765101 0.628834 0.166962
0.797293 0.634162 0.171775
0.830701 0.639098 0.179284
0.098122 0.645503 0.132507
0.107221 0.646241 0.133214
0.123591 0.647709 0.130178
0.142032 0.647568 0.123583
0.168097 0.647438 0.123582
0.190318 0.647315 0.123583
0.203845 0.647196 0.123579
0.207907 0.647076 0.123567
0.223545 0.646973 0.123570
0.250826 0.646891 0.123591
0.285325 0.646830 0.123629
0.322641 0.646786 0.123682
0.361872 0.635444 0.129954
0.393010 0.623307 0.136613
0.412142 0.615356 0.140942
0.417548 0.612984 0.142204
0.427823 0.611273 0.143131
0.449437 0.611278 0.143186
0.478597 0.611311 0.143270
0.511429 0.611366 0.143374
0.544089 0.611434 0.143488
0.572766 0.611503 0.143595
0.594675 0.612783 0.143966
0.604585 0.613401 0.144144
0.611827 0.613810 0.144264
0.632113 0.612762 0.147080
0.668414 0.619490 0.152543
0.706200 0.626331 0.158220
0.737140 0.631823 0.162863
0.752980 0.634593 0.165238
0.763120 0.636346 0.166757
0.794292 0.641729 0.171428
0.828481 0.647101 0.178483
0.100355 0.664136 0.134730
0.109114 0.664522 0.135378
0.125381 0.665662 0.132459
0.143176 0.665199 0.125351
0.169196 0.664746 0.125327
0.191508 0.664297 0.125304
0.205287 0.663845 0.125273
0.209291 0.663388 0.125229
0.224432 0.662949 0.125203
0.251317 0.662532 0.125199
0.285609 0.662149 0.125215
0.322936 0.661801 0.125248
0.361727 0.652738 0.130094
0.393735 0.640120 0.136848
0.413573 0.631652 0.141272
0.419357 0.628772 0.142602
0.429370 0.624040 0.144952
0.450524 0.623593 0.145040
0.479331 0.623315 0.145083
0.511953 0.623058 0.145147
0.544572 0.622812 0.145220
0.573402 0.622565 0.145287
0.595138 0.622865 0.145459
0.605771 0.623311 0.145626
0.612293 0.623415 0.145699
0.629885 0.620245 0.146812
0.665759 0.626701 0.152219
0.703618 0.633364 0.157914
0.735186 0.638767 0.162655
0.752266 0.641539 0.165216
0.761290 0.642878 0.166568
0.791372 0.647882 0.171078
0.826163 0.653259 0.177752
0.104176 0.695951 0.138588
0.112610 0.696117 0.139194
0.128575 0.697041 0.136201
0.145677 0.696393 0.128541
0.171661 0.695752 0.128515
0.194073 0.695110 0.128486
0.208111 0.694460 0.128443
0.212129 0.693833 0.128385
0.226922 0.693233 0.128351
0.253612 0.692657 0.128345
0.287758 0.692101 0.128362
0.324957 0.691560 0.128395
0.362335 0.687047 0.130638
0.395596 0.674115 0.137502
0.416526 0.665259 0.142050
0.422880 0.661984 0.143469
0.432746 0.657219 0.145717
0.454103 0.650445 0.149116
0.482572 0.649968 0.149143
0.514996 0.649512 0.149193
0.547584 0.649066 0.149253
0.576575 0.648614 0.149304
0.598240 0.648141 0.149324
0.608880 0.647626 0.149292
0.614654 0.647374 0.149299
0.635652 0.648349 0.149650
0.662590 0.646353 0.151963
0.700492 0.652978 0.157686
0.732652 0.658406 0.162532
0.750928 0.661253 0.165281
0.759061 0.662265 0.166500
0.787966 0.666949 0.170847
0.823929 0.672729 0.176472
0.108627 0.733089 0.143167
0.116752 0.733178 0.143747
0.132421 0.734028 0.140691
0.148778 0.733348 0.132402
0.174861 0.732702 0.132393
0.197437 0.732052 0.132379
0.211673 0.731385 0.132344
0.215688 0.730695 0.132281
0.230197 0.730028 0.132248
0.256627 0.729390 0.132252
0.290570 0.728775 0.132285
0.327652 0.728174 0.132336
0.363535 0.727575 0.132391
0.397421 0.716301 0.138362
0.419577 0.707207 0.143045
0.426623 0.703668 0.144570
0.436370 0.699017 0.146720
0.458476 0.689200 0.151773
0.487062 0.683934 0.154379
0.519302 0.683402 0.154439
0.551870 0.682878 0.154509
0.581033 0.682345 0.154567
0.603085 0.681784 0.154590
0.614355 0.681173 0.154552
0.619403 0.680534 0.154478
