Dreamcore_Anemoia.cube
# Dreamcore - Anemoia v2 (Balanced Nostalgic)
TITLE "Dreamcore_Anemoia"
LUT_3D_SIZE 33
DOMAIN_MIN 0.0 0.0 0.0
DOMAIN_MAX 1.0 1.0 1.0
0.025095 0.053289 0.057369
0.039759 0.054281 0.058211
0.065397 0.055607 0.059409
0.095824 0.058057 0.061566
0.125414 0.060582 0.063950
0.148240 0.062515 0.065786
0.158397 0.063357 0.066586
0.166452 0.064018 0.067214
0.190771 0.066069 0.069163
0.226331 0.069079 0.072024
0.267909 0.072606 0.075372
0.310274 0.076205 0.078783
0.348180 0.079428 0.081834
0.376376 0.081822 0.084097
0.389597 0.082933 0.085146
0.396459 0.083498 0.085679
0.419557 0.085459 0.087530
0.454422 0.088436 0.090337
0.495795 0.091978 0.093675
0.538407 0.095635 0.097115
0.576977 0.098947 0.100229
0.606218 0.101457 0.102585
0.620830 0.102701 0.103751
0.628454 0.103339 0.104350
0.655258 0.105643 0.106510
0.693387 0.108934 0.109593
0.733181 0.112376 0.112814
0.764964 0.115124 0.115384
0.779042 0.116272 0.116453
0.793918 0.117446 0.117541
0.829902 0.120424 0.120313
0.865991 0.123511 0.123190
0.879614 0.126225 0.125817
0.026043 0.067278 0.057810
0.040512 0.068113 0.058549
0.065108 0.068290 0.059131
0.096111 0.071813 0.062496
0.125573 0.074112 0.064675
0.148467 0.075924 0.066430
0.158796 0.076703 0.067215
0.166671 0.077279 0.067809
0.190819 0.079218 0.069693
0.226277 0.082112 0.072483
0.267819 0.085528 0.075765
0.310205 0.089025 0.079120
0.348184 0.092156 0.082126
0.376493 0.094474 0.084363
0.389864 0.095529 0.085407
0.396638 0.096024 0.085925
0.419634 0.097897 0.087739
0.454444 0.100775 0.090499
0.495803 0.104216 0.093783
0.538434 0.107770 0.097172
0.577053 0.110988 0.100241
0.606363 0.113415 0.102566
0.621060 0.114594 0.103721
0.628635 0.115165 0.104307
0.655385 0.117378 0.106429
0.693502 0.120567 0.109462
0.733316 0.123907 0.112634
0.765139 0.126565 0.115165
0.779266 0.127703 0.116279
0.794107 0.128904 0.117450
0.830095 0.131927 0.120319
0.866206 0.134964 0.123199
0.879583 0.137834 0.126085
0.030771 0.089584 0.059201
0.045482 0.089946 0.060799
0.068290 0.091865 0.062075
0.095125 0.092277 0.060955
0.125692 0.096249 0.064807
0.148916 0.098460 0.066755
0.159402 0.099254 0.067518
0.167093 0.099806 0.068077
0.191051 0.101744 0.069898
0.226390 0.104644 0.072632
0.267886 0.108065 0.075877
0.310291 0.111563 0.079211
0.348341 0.114693 0.082210
0.376766 0.117006 0.084449
0.390287 0.118051 0.085502
0.396977 0.118515 0.086013
0.419873 0.120360 0.087815
0.454631 0.123219 0.090566
0.495981 0.126645 0.093846
0.538639 0.130187 0.097233
0.577312 0.133393 0.100305
0.606697 0.135806 0.102635
0.621481 0.136968 0.103798
0.629009 0.137508 0.104380
0.655709 0.139695 0.106498
0.693821 0.142865 0.109531
0.733663 0.146189 0.112705
0.765532 0.148829 0.115242
0.779711 0.149946 0.116361
0.794518 0.151117 0.117530
0.830510 0.154119 0.120400
0.866644 0.157137 0.123284
0.879535 0.160339 0.126671
0.036336 0.116669 0.062516
0.049651 0.118220 0.063925
0.071820 0.119939 0.064663
0.097805 0.120342 0.061951
0.124645 0.120633 0.062497
0.148374 0.123601 0.065474
0.159270 0.124848 0.066770
0.166936 0.125680 0.067663
0.191121 0.128273 0.069934
0.226619 0.131621 0.072841
0.268067 0.135164 0.076044
0.310488 0.138752 0.079354
0.348609 0.141947 0.082343
0.377149 0.144305 0.084582
0.390819 0.145375 0.085644
0.397429 0.145834 0.086147
0.420224 0.147690 0.087937
0.454930 0.150574 0.090678
0.496270 0.154029 0.093953
0.538955 0.157600 0.097339
0.577682 0.160831 0.100413
0.607142 0.163263 0.102748
0.622015 0.164435 0.103919
0.629497 0.164970 0.104498
0.656147 0.167161 0.106612
0.694256 0.170345 0.109646
0.734125 0.173685 0.112823
0.766042 0.176338 0.115364
0.780272 0.177459 0.116488
0.795045 0.178628 0.117656
0.831043 0.181639 0.120529
0.867201 0.184667 0.123416
0.879488 0.188229 0.127423
0.040631 0.144421 0.065606
0.053763 0.145970 0.066998
0.075302 0.147510 0.067209
0.100711 0.147375 0.066512
0.127354 0.148235 0.063330
0.148244 0.148310 0.063359
0.158888 0.149148 0.064670
0.166433 0.150007 0.065575
0.190510 0.152873 0.068425
0.226157 0.157002 0.072344
0.268063 0.161377 0.076085
0.310682 0.165316 0.079500
0.348875 0.168637 0.082480
0.377530 0.171083 0.084721
0.391351 0.172209 0.085793
0.397882 0.172689 0.086289
0.420577 0.174591 0.088067
0.455232 0.177538 0.090799
0.496563 0.181061 0.094069
0.539274 0.184697 0.097454
0.578057 0.187986 0.100531
0.607592 0.190467 0.102872
0.622553 0.191674 0.104050
0.629991 0.192226 0.104627
0.656592 0.194449 0.106738
0.694696 0.197675 0.109772
0.734595 0.201059 0.112952
0.766558 0.203751 0.115499
0.780841 0.204899 0.116629
0.795580 0.206088 0.117795
0.831583 0.209135 0.120670
0.867766 0.212200 0.123562
0.879450 0.216053 0.128188
0.044000 0.166194 0.068018
0.056949 0.167758 0.069396
0.077980 0.169185 0.069199
0.103355 0.168955 0.068856
0.129876 0.170435 0.064678
0.150614 0.170251 0.064407
0.160426 0.170129 0.064266
0.167042 0.170253 0.064392
0.190023 0.172197 0.066830
0.225609 0.176438 0.070972
0.267506 0.181290 0.075513
0.310447 0.185845 0.079373
0.349022 0.189632 0.082577
0.377795 0.192190 0.084821
0.391767 0.193391 0.085904
0.398222 0.193911 0.086394
0.420818 0.195879 0.088162
0.455422 0.198910 0.090886
0.496746 0.202522 0.094152
0.539484 0.206244 0.097538
0.578322 0.209610 0.100619
0.607933 0.212157 0.102967
0.622982 0.213419 0.104153
0.630377 0.214006 0.104727
0.656929 0.216279 0.106835
0.695029 0.219566 0.109870
0.734956 0.223012 0.113054
0.766966 0.225762 0.115606
0.781301 0.226957 0.116741
0.796008 0.228184 0.117907
0.832017 0.231285 0.120785
0.868224 0.234404 0.123681
0.879424 0.238449 0.128807
0.045560 0.176508 0.069124
0.058326 0.178103 0.070488
0.079086 0.179524 0.070113
0.104454 0.179350 0.069778
0.130724 0.180847 0.065839
0.151784 0.180969 0.065024
0.161770 0.180901 0.064885
0.168063 0.180853 0.064790
0.189621 0.181587 0.066007
0.225158 0.185895 0.070164
0.266994 0.190843 0.074932
0.310023 0.195691 0.079102
0.348736 0.199708 0.082446
0.377826 0.202561 0.084833
0.391950 0.203842 0.085928
0.398333 0.204412 0.086413
0.420830 0.206444 0.088173
0.455385 0.209552 0.090893
0.496701 0.213245 0.094158
0.539467 0.217047 0.097546
0.578360 0.220491 0.100631
0.608047 0.223110 0.102986
0.623185 0.224436 0.104180
0.630538 0.225072 0.104753
0.657040 0.227403 0.106858
0.695137 0.230756 0.109894
0.735092 0.234269 0.113082
0.767149 0.237084 0.115640
0.781537 0.238338 0.116780
0.796211 0.239617 0.117945
0.832225 0.242780 0.120825
0.868456 0.245961 0.123725
0.879411 0.250115 0.129113
0.046552 0.183214 0.069821
0.059119 0.184745 0.071160
0.079670 0.186099 0.070673
0.105016 0.185887 0.070335
0.131030 0.187126 0.066943
0.152425 0.187564 0.065380
0.162572 0.187457 0.065238
0.168737 0.187372 0.065143
0.189248 0.187166 0.065479
0.224723 0.191448 0.069645
0.266555 0.196376 0.074427
0.309585 0.201282 0.078829
0.348393 0.205374 0.082288
0.377694 0.208335 0.084770
0.392031 0.209667 0.085916
0.398342 0.210201 0.086396
0.420739 0.212206 0.088148
0.455243 0.215296 0.090863
0.496549 0.218975 0.094127
0.539341 0.222765 0.097517
0.578288 0.226195 0.100608
0.608049 0.228798 0.102969
0.623274 0.230105 0.104171
0.630584 0.230709 0.104741
0.657034 0.233011 0.106843
0.695125 0.236342 0.109879
0.735106 0.239838 0.113070
0.767209 0.242633 0.115633
0.781647 0.243866 0.116779
0.796287 0.245116 0.117941
0.832304 0.248257 0.120823
0.868557 0.251418 0.123726
0.879402 0.255570 0.129238
0.049971 0.205127 0.072265
0.062338 0.206595 0.073581
0.082365 0.207757 0.072677
0.107691 0.207512 0.072338
0.133121 0.207979 0.070588
0.155046 0.209554 0.066732
0.165355 0.209407 0.066587
0.171396 0.209282 0.066492
0.191858 0.209084 0.066231
0.224260 0.210395 0.068178
0.266119 0.215327 0.072999
0.309084 0.220306 0.077856
0.348013 0.224690 0.081775
0.377439 0.227814 0.084465
0.391988 0.229247 0.085708
0.398286 0.229817 0.086234
0.420796 0.232053 0.088143
0.455415 0.235335 0.090960
0.496712 0.239046 0.094220
0.539529 0.242861 0.097611
0.578528 0.246305 0.100705
0.608363 0.248909 0.103073
0.623676 0.250200 0.104282
0.630943 0.250767 0.104849
0.657342 0.253049 0.106947
0.695427 0.256373 0.109984
0.735434 0.259862 0.113179
0.767582 0.262645 0.115746
0.782071 0.263851 0.116898
0.796677 0.265067 0.118059
0.832698 0.268190 0.120943
0.868974 0.271334 0.123850
0.879388 0.275505 0.129807
0.055146 0.237945 0.075971
0.067316 0.239371 0.077265
0.086593 0.240269 0.075727
0.111901 0.240013 0.075390
0.137088 0.239760 0.075057
0.158249 0.241382 0.071293
0.169449 0.242359 0.068965
0.175508 0.242370 0.068573
0.195839 0.242158 0.068315
0.226651 0.241900 0.067938
0.265709 0.244104 0.070927
0.308757 0.249113 0.075828
0.347656 0.253580 0.080203
0.377100 0.256918 0.083491
0.391830 0.258514 0.084959
0.398086 0.259120 0.085525
0.420533 0.261522 0.087593
0.455238 0.265151 0.090711
0.496890 0.269371 0.094274
0.539953 0.273497 0.097806
0.579006 0.277014 0.100903
0.608916 0.279663 0.103277
0.624316 0.280969 0.104494
0.631542 0.281524 0.105059
0.657890 0.283826 0.107154
0.695969 0.287188 0.110191
0.736004 0.290715 0.113390
0.768198 0.293522 0.115963
0.782739 0.294728 0.117120
0.797311 0.295936 0.118280
0.833204 0.299032 0.121156
0.868814 0.301886 0.124011
0.879322 0.305873 0.130704
0.061321 0.276863 0.080394
0.073295 0.278263 0.081668
0.091694 0.278862 0.079374
0.116987 0.278613 0.079042
0.142224 0.278366 0.078713
0.162538 0.278566 0.077688
0.173307 0.279610 0.075341
0.179359 0.280125 0.074045
0.200655 0.281544 0.070825
0.231400 0.281294 0.070454
0.268112 0.281152 0.070149
0.308476 0.283512 0.073476
0.347493 0.288020 0.077889
0.377080 0.291389 0.081209
0.391907 0.293018 0.082863
0.398059 0.293630 0.083544
0.420290 0.296120 0.086020
0.454851 0.300038 0.089808
0.496598 0.304634 0.093659
0.539828 0.309193 0.097552
0.579264 0.313204 0.100938
0.609529 0.316225 0.103507
0.625096 0.317650 0.104778
0.632281 0.318214 0.105341
0.658578 0.320571 0.107433
0.696654 0.324012 0.110472
0.736716 0.327618 0.113675
0.768689 0.330307 0.116232
0.783443 0.331251 0.117406
0.796484 0.332034 0.118442
0.830844 0.334773 0.121196
0.867106 0.337676 0.124106
0.879007 0.341665 0.131772
0.067720 0.317023 0.084978
0.079498 0.318412 0.086234
0.096994 0.318715 0.083160
0.122273 0.318487 0.082836
0.147560 0.318262 0.082513
0.167834 0.318061 0.082249
0.178102 0.318024 0.081893
0.183782 0.318559 0.080629
0.204509 0.320687 0.076304
0.236348 0.322078 0.073082
0.272939 0.321835 0.072656
0.310987 0.321878 0.072508
0.347365 0.323744 0.075544
0.377094 0.327158 0.078894
0.392083 0.328824 0.080573
0.398177 0.329440 0.081250
0.420321 0.331940 0.083726
0.454826 0.335881 0.087575
0.496312 0.340629 0.092189
0.539526 0.345540 0.096687
0.579097 0.349887 0.100342
0.609412 0.353113 0.103129
0.625102 0.354672 0.104486
0.632304 0.355330 0.105102
0.658215 0.357683 0.107336
0.695680 0.361175 0.110542
0.735241 0.364698 0.113814
0.767630 0.367334 0.116406
0.783943 0.368441 0.117706
0.795262 0.369073 0.118606
0.828534 0.371760 0.121275
0.865310 0.374760 0.124230
0.878438 0.378628 0.132883
0.073547 0.353510 0.089155
0.085131 0.354900 0.090395
0.101800 0.354952 0.086616
0.127064 0.354757 0.086300
0.152402 0.354564 0.085984
0.172785 0.354394 0.085726
0.183173 0.354263 0.085584
0.188483 0.354151 0.085500
0.208191 0.355697 0.082329
0.240664 0.359058 0.075841
0.277421 0.359052 0.075077
0.315262 0.358847 0.074648
0.349992 0.359062 0.074670
0.377112 0.359833 0.076816
0.392261 0.361545 0.078518
0.398299 0.362177 0.079191
0.420353 0.364697 0.081663
0.454823 0.368670 0.085518
0.496317 0.373455 0.090144
0.539450 0.378422 0.094939
0.578716 0.382870 0.099299
0.608763 0.385978 0.102274
0.624811 0.387432 0.103757
0.631309 0.387795 0.104359
0.656050 0.390189 0.106656
0.692898 0.393833 0.110009
0.732614 0.397660 0.113454
0.766039 0.400791 0.116329
0.784020 0.402287 0.117865
0.794016 0.402944 0.118713
0.826186 0.405726 0.121352
0.863341 0.408869 0.124341
0.877624 0.412541 0.133901
0.077995 0.381363 0.092344
0.089383 0.382763 0.093568
0.105406 0.382644 0.089259
0.130655 0.382491 0.088951
0.156043 0.382339 0.088642
0.176535 0.382208 0.088391
0.187083 0.382113 0.088252
0.192305 0.382036 0.088175
0.211292 0.382501 0.086949
0.242847 0.385947 0.080491
0.280782 0.387626 0.076940
0.318659 0.387466 0.076520
0.353122 0.387319 0.076139
0.379851 0.387682 0.076338
0.392399 0.386733 0.076955
0.398382 0.387391 0.077622
0.420342 0.389938 0.080088
0.454473 0.393795 0.083918
0.495308 0.398338 0.088490
0.537818 0.403065 0.093236
0.576870 0.407378 0.097587
0.607376 0.410685 0.100982
0.624291 0.412398 0.102867
0.630275 0.412829 0.103539
0.653817 0.415286 0.105850
0.690135 0.419137 0.109213
0.729907 0.423295 0.112915
0.763993 0.426683 0.115941
0.783396 0.428460 0.117626
0.792244 0.429111 0.118390
0.823226 0.432092 0.121064
0.860959 0.435758 0.124301
0.876571 0.439418 0.134687
0.080245 0.395576 0.093953
0.090840 0.396916 0.094571
0.107099 0.396827 0.090597
0.132330 0.396720 0.090296
0.157768 0.396614 0.089994
0.178368 0.396528 0.089748
0.189076 0.396476 0.089614
0.194214 0.396443 0.089543
0.212859 0.396365 0.089321
0.243943 0.399854 0.082918
0.282347 0.402464 0.077897
0.320259 0.402353 0.077483
0.354798 0.402255 0.077108
0.381351 0.402325 0.076967
0.395174 0.402586 0.077190
0.400253 0.402597 0.077239
0.419183 0.402851 0.079138
0.452602 0.406715 0.082888
0.493119 0.411398 0.087420
0.535582 0.416295 0.092156
0.574890 0.420811 0.096530
0.605987 0.424359 0.099985
0.623859 0.426352 0.101969
0.629545 0.426914 0.102600
0.651733 0.429407 0.105062
0.687315 0.433428 0.108613
0.727102 0.437830 0.112300
0.761884 0.441597 0.115538
0.782675 0.443743 0.117418
0.790696 0.444477 0.118117
0.820182 0.447493 0.120686
0.857985 0.451369 0.123960
0.876287 0.454943 0.133546
0.081100 0.401144 0.094558
0.091334 0.402424 0.095001
0.107558 0.402321 0.091093
0.132763 0.402200 0.090792
0.158240 0.402081 0.090490
0.178938 0.401981 0.090243
0.189797 0.401915 0.090108
0.194848 0.401868 0.090037
0.213362 0.401778 0.089817
0.244140 0.405008 0.083845
0.282597 0.407919 0.078231
0.320189 0.407648 0.077812
0.354512 0.407393 0.077430
0.380994 0.407163 0.077132
0.395452 0.407382 0.077387
0.400267 0.407327 0.077440
0.417827 0.406863 0.078706
0.450672 0.410609 0.082397
0.490852 0.415210 0.086897
0.533246 0.420061 0.091630
0.572786 0.424573 0.096035
0.604448 0.428160 0.099557
0.623250 0.430241 0.101647
0.628807 0.430773 0.102266
0.649734 0.433109 0.104590
0.684533 0.437059 0.108254
0.724255 0.441483 0.111931
0.759646 0.445346 0.115223
0.781785 0.447698 0.117288
0.789299 0.448401 0.117945
0.817187 0.451282 0.120382
0.854948 0.455198 0.123662
0.876023 0.458724 0.132100
0.084378 0.421644 0.096912
0.093277 0.422724 0.096219
0.110123 0.422597 0.093037
0.135300 0.422454 0.092738
0.160816 0.422313 0.092436
0.181611 0.422188 0.092189
0.192619 0.422095 0.092051
0.197511 0.421801 0.091959
0.215636 0.421353 0.091710
0.245236 0.423367 0.087193
0.283698 0.427152 0.079610
0.321268 0.426734 0.079081
0.355706 0.426270 0.078687
0.382523 0.425827 0.078374
0.397212 0.425412 0.078188
0.401812 0.425143 0.078232
0.419333 0.425200 0.078500
0.448866 0.425996 0.081243
0.488699 0.430371 0.085721
0.531011 0.435027 0.090462
0.570767 0.439376 0.094908
0.602974 0.442837 0.098506
0.622682 0.444830 0.100711
0.628281 0.445170 0.101347
0.647910 0.447159 0.103542
0.681881 0.450832 0.107329
0.721350 0.455122 0.111355
0.757328 0.458914 0.114696
0.780764 0.461242 0.116882
0.788108 0.461758 0.117571
0.814306 0.464361 0.120012
0.851872 0.468082 0.123303
0.875755 0.471229 0.130402
0.089571 0.453903 0.100653
0.096373 0.454699 0.098073
0.114361 0.454565 0.096137
0.139511 0.454412 0.095842
0.164923 0.453783 0.095497
0.185692 0.453170 0.095205
0.196849 0.452586 0.095019
0.201482 0.452022 0.094905
0.219162 0.451425 0.094649
0.247614 0.451972 0.092352
0.284873 0.455642 0.084790
0.323810 0.456960 0.081113
0.358362 0.456343 0.080713
0.385512 0.455744 0.080391
0.400781 0.455168 0.080191
0.405137 0.454611 0.080102
0.421541 0.454038 0.079892
0.449874 0.454126 0.080252
0.486654 0.455656 0.083978
0.528874 0.460166 0.088726
0.568831 0.464401 0.093209
0.601565 0.467781 0.096881
0.622157 0.469733 0.099197
0.627973 0.469947 0.099868
0.646270 0.471631 0.101927
0.679461 0.475067 0.105641
0.718600 0.479204 0.110014
0.754862 0.482998 0.113968
0.779566 0.485390 0.116263
0.787069 0.485788 0.116967
0.811478 0.488103 0.119246
0.848802 0.491837 0.122738
0.875531 0.494730 0.128436
0.095846 0.492754 0.105187
0.100075 0.492654 0.100293
0.119297 0.491955 0.099790
0.144221 0.491244 0.099447
0.169614 0.490535 0.099100
0.190499 0.489839 0.098802
0.201938 0.489166 0.098607
0.206370 0.488510 0.098487
0.223612 0.487826 0.098231
0.251235 0.487122 0.097865
0.287146 0.490301 0.091050
0.327228 0.493832 0.083615
0.361895 0.493127 0.083215
0.389376 0.492435 0.082888
0.405222 0.491760 0.082679
0.409515 0.491101 0.082585
0.425198 0.490428 0.082379
0.452418 0.489745 0.082059
0.487364 0.489825 0.082450
0.526802 0.491588 0.086660
0.566944 0.495762 0.091178
0.600185 0.499115 0.094919
0.621640 0.501076 0.097341
0.627849 0.501239 0.098063
0.644779 0.502666 0.099980
0.677152 0.505914 0.103615
0.716074 0.509933 0.107977
0.752735 0.513686 0.112085
0.778395 0.516144 0.114968
0.786312 0.516513 0.115879
0.808619 0.518599 0.118387
0.845600 0.522388 0.121827
0.875578 0.525385 0.125578
0.102132 0.531605 0.109744
0.105113 0.531166 0.103857
0.124368 0.530457 0.103577
0.149178 0.529738 0.103239
0.174559 0.529019 0.102896
0.195566 0.528309 0.102601
0.207293 0.527617 0.102404
0.211557 0.526938 0.102285
0.228368 0.526236 0.102035
0.255655 0.525516 0.101678
0.290123 0.526988 0.097682
0.329250 0.530788 0.089861
0.365730 0.532241 0.085901
0.393542 0.531526 0.085576
0.409961 0.530823 0.085363
0.414272 0.530129 0.085268
0.429236 0.529427 0.085070
0.455908 0.528716 0.084760
0.489865 0.528003 0.084381
0.527434 0.528153 0.084850
0.565069 0.529664 0.089040
0.598799 0.533049 0.092844
0.621093 0.535077 0.095367
0.627872 0.535269 0.096156
0.643402 0.536495 0.097922
0.674916 0.539609 0.101471
0.713578 0.543565 0.105814
0.750646 0.547376 0.109974
0.777408 0.549990 0.112985
0.786129 0.550473 0.113985
0.806398 0.552320 0.116272
0.842510 0.556038 0.120321
0.874067 0.559255 0.123860
0.107545 0.567545 0.113570
0.109986 0.566924 0.107389
0.129066 0.566283 0.107121
0.153771 0.565632 0.106797
0.179149 0.564980 0.106466
0.200286 0.564334 0.106181
0.212306 0.563699 0.105989
0.216438 0.563074 0.105878
0.232826 0.562430 0.105643
0.259783 0.561772 0.105300
0.293228 0.561667 0.103991
0.331386 0.565559 0.096195
0.369051 0.569121 0.088939
0.397445 0.568744 0.088159
0.414437 0.568090 0.087948
0.418846 0.567439 0.087857
0.433092 0.566782 0.087673
0.459216 0.566121 0.087377
0.492824 0.565458 0.087012
0.529606 0.564860 0.086684
0.565083 0.564302 0.087202
0.597365 0.565876 0.090861
0.620476 0.568036 0.093478
0.628004 0.568347 0.094351
0.642127 0.569491 0.095959
0.672788 0.572592 0.099414
0.711173 0.576605 0.103728
0.748562 0.580497 0.107929
0.776326 0.583249 0.111054
0.786166 0.583876 0.112180
0.804285 0.585483 0.114229
0.839697 0.589137 0.118206
0.872041 0.592462 0.121838
0.110386 0.596223 0.115162
0.113874 0.595753 0.110249
0.132791 0.595264 0.110002
0.157401 0.594765 0.109698
0.182785 0.594263 0.109388
0.204059 0.593764 0.109120
0.216379 0.593273 0.108943
0.220416 0.592786 0.108849
0.236390 0.592284 0.108635
0.263026 0.591769 0.108315
0.296057 0.591247 0.107934
0.333220 0.594453 0.101534
0.370278 0.598194 0.094277
0.400532 0.599912 0.090343
0.418095 0.599392 0.090139
0.422685 0.598869 0.090057
0.436216 0.598342 0.089892
0.461794 0.597812 0.089616
0.495052 0.597282 0.089270
0.531655 0.596752 0.088896
0.567593 0.596558 0.088855
0.596769 0.594895 0.089252
0.619803 0.596437 0.091862
0.628209 0.596992 0.092827
0.640941 0.598059 0.094276
0.670695 0.601144 0.097629
0.708725 0.605207 0.101904
0.746377 0.609221 0.106135
0.775088 0.612172 0.109366
0.786385 0.613053 0.110652
0.802242 0.614472 0.112447
0.836827 0.618113 0.116332
0.869824 0.621593 0.120038
0.112129 0.613806 0.116144
0.116190 0.613579 0.112019
0.134955 0.613333 0.111802
0.159481 0.613077 0.111527
0.184880 0.612816 0.111244
0.206301 0.612555 0.111002
0.218930 0.612298 0.110848
0.222908 0.612043 0.110780
0.238480 0.611772 0.110596
0.264802 0.611489 0.110308
0.297638 0.611199 0.109956
0.334084 0.613642 0.105199
0.370797 0.617632 0.097959
0.402137 0.620820 0.092054
0.420398 0.620663 0.091640
0.425251 0.620361 0.091573
0.438072 0.620055 0.091433
0.463155 0.619764 0.091182
0.496139 0.619478 0.090861
0.532680 0.619194 0.090510
0.568484 0.618908 0.090168
0.599801 0.619222 0.090483
0.619377 0.616958 0.090732
0.628418 0.617425 0.091762
0.639734 0.618487 0.093045
0.668546 0.621627 0.096286
0.706180 0.625809 0.100513
0.744047 0.630014 0.104764
0.773652 0.633231 0.108089
0.786586 0.634463 0.109551
0.800234 0.635776 0.111092
0.833866 0.639461 0.114867
0.867382 0.643149 0.118627
0.112606 0.618721 0.116409
0.116666 0.618560 0.112507
0.135254 0.618396 0.112301
0.159674 0.618236 0.112039
0.185066 0.618086 0.111769
0.206613 0.617952 0.111541
0.219533 0.617834 0.111400
0.223466 0.617734 0.111349
0.238623 0.617634 0.111188
0.264622 0.617538 0.110924
0.297253 0.617450 0.110597
0.333382 0.619669 0.106575
0.370019 0.623900 0.099357
0.401543 0.627368 0.093431
0.420862 0.628018 0.092165
0.426046 0.627997 0.092116
0.438269 0.627988 0.092003
0.462880 0.627992 0.091779
0.495537 0.628001 0.091484
0.531939 0.628010 0.091157
0.567828 0.628016 0.090836
0.599298 0.628391 0.090940
0.621977 0.628897 0.091269
0.629045 0.626760 0.091366
0.638465 0.627337 0.092427
0.666301 0.630609 0.095548
0.703497 0.634986 0.099714
0.741533 0.639456 0.103973
0.771978 0.643016 0.107381
0.786489 0.644675 0.109008
0.798227 0.645999 0.110324
0.830781 0.649793 0.113968
0.864683 0.653749 0.117762
0.114248 0.635178 0.117343
0.118741 0.634653 0.114117
0.137089 0.634124 0.113879
0.161333 0.633598 0.113584
0.186648 0.633079 0.113280
0.208247 0.632571 0.113016
0.221378 0.632076 0.112836
0.225213 0.631594 0.112748
0.239874 0.631112 0.112556
0.265464 0.630632 0.112258
0.297853 0.630170 0.111899
0.333579 0.631360 0.108912
0.370048 0.635267 0.101601
0.401597 0.638420 0.095554
0.421911 0.639476 0.092982
0.427339 0.639065 0.092903
0.438863 0.638662 0.092769
0.462894 0.638273 0.092523
0.495125 0.637896 0.092205
0.531291 0.637531 0.091855
0.567166 0.637178 0.091510
0.598674 0.636961 0.091339
0.621952 0.637215 0.091722
0.632191 0.637082 0.091829
0.637250 0.634087 0.091928
0.664069 0.636980 0.094949
0.700782 0.641055 0.099076
0.738932 0.645305 0.103361
0.770157 0.648736 0.106869
0.786180 0.650364 0.108676
0.796307 0.651296 0.109823
0.827652 0.654761 0.113342
0.861805 0.658584 0.117174
0.117206 0.664569 0.119042
0.122701 0.663820 0.117056
0.140827 0.663067 0.116800
0.164915 0.662315 0.116489
0.190171 0.661567 0.116167
0.211838 0.660826 0.115882
0.225195 0.660092 0.115678
0.229002 0.659393 0.115570
0.243292 0.658700 0.115362
0.268635 0.658007 0.115049
0.300833 0.657320 0.114673
0.335867 0.657027 0.113657
0.371823 0.660724 0.106299
0.403087 0.663681 0.100169
0.424294 0.665400 0.096107
0.430673 0.665461 0.094820
0.441528 0.664812 0.094641
0.464991 0.664155 0.094384
0.496804 0.663510 0.094055
0.532737 0.662877 0.093692
0.568598 0.662251 0.093333
0.600234 0.661628 0.093012
0.623706 0.661208 0.092972
0.634860 0.660882 0.093146
0.641813 0.660422 0.093221
0.662057 0.657509 0.093642
0.698248 0.661268 0.097728
0.736469 0.665270 0.102038
0.768422 0.668527 0.105645
0.785895 0.670062 0.107629
0.794723 0.670571 0.108645
0.824738 0.673608 0.112032
0.859011 0.677193 0.115894
0.120751 0.699571 0.121103
0.127497 0.698750 0.120598
0.145423 0.697925 0.120342
0.169396 0.697106 0.120029
0.194708 0.696314 0.119708
0.216505 0.695522 0.119421
0.230051 0.694732 0.119212
0.233838 0.693941 0.119095
0.247811 0.693150 0.118882
0.272868 0.692362 0.118567
0.304841 0.691579 0.118189
0.339605 0.690799 0.117788
0.374632 0.693259 0.112260
0.405542 0.696158 0.106071
0.426778 0.697830 0.101908
0.433453 0.697826 0.100520
0.444633 0.698313 0.098318
0.468199 0.698284 0.096852
0.499606 0.697514 0.096523
0.535315 0.696752 0.096159
0.571167 0.695995 0.095797
0.603043 0.695237 0.095470
0.626866 0.694471 0.095212
0.638597 0.693686 0.095055
0.644635 0.692894 0.094945
