Dreamcore_Anemoia.cube
# Dreamcore - Anemoia v2 (Balanced Nostalgic)
TITLE "Dreamcore_Anemoia"
LUT_3D_SIZE 9
DOMAIN_MIN 0.0 0.0 0.0
DOMAIN_MAX 1.0 1.0 1.0
0.025095 0.053289 0.057369
0.125414 0.060582 0.063950
0.190771 0.066069 0.069163
0.348180 0.079428 0.081834
0.419557 0.085459 0.087530
0.576977 0.098947 0.100229
0.655258 0.105643 0.106510
0.779042 0.116272 0.116453
0.879614 0.126225 0.125817
0.040631 0.144421 0.065606
0.127354 0.148235 0.063330
0.190510 0.152873 0.068425
0.348875 0.168637 0.082480
0.420577 0.174591 0.088067
0.578057 0.187986 0.100531
0.656592 0.194449 0.106738
0.780841 0.204899 0.116629
0.879450 0.216053 0.128188
0.049971 0.205127 0.072265
0.133121 0.207979 0.070588
0.191858 0.209084 0.066231
0.348013 0.224690 0.081775
0.420796 0.232053 0.088143
0.578528 0.246305 0.100705
0.657342 0.253049 0.106947
0.782071 0.263851 0.116898
0.879388 0.275505 0.129807
0.073547 0.353510 0.089155
0.152402 0.354564 0.085984
0.208191 0.355697 0.082329
0.349992 0.359062 0.074670
0.420353 0.364697 0.081663
0.578716 0.382870 0.099299
0.656050 0.390189 0.106656
0.784020 0.402287 0.117865
0.877624 0.412541 0.133901
0.084378 0.421644 0.096912
0.160816 0.422313 0.092436
0.215636 0.421353 0.091710
0.355706 0.426270 0.078687
0.419333 0.425200 0.078500
0.570767 0.439376 0.094908
0.647910 0.447159 0.103542
0.780764 0.461242 0.116882
0.875755 0.471229 0.130402
0.107545 0.567545 0.113570
0.179149 0.564980 0.106466
0.232826 0.562430 0.105643
0.369051 0.569121 0.088939
0.433092 0.566782 0.087673
0.565083 0.564302 0.087202
0.642127 0.569491 0.095959
0.776326 0.583249 0.111054
0.872041 0.592462 0.121838
0.114248 0.635178 0.117343
0.186648 0.633079 0.113280
0.239874 0.631112 0.112556
0.370048 0.635267 0.101601
0.438863 0.638662 0.092769
0.567166 0.637178 0.091510
0.637250 0.634087 0.091928
0.770157 0.648736 0.106869
0.861805 0.658584 0.117174
0.128820 0.758049 0.126728
0.202816 0.756234 0.125862
0.255754 0.754284 0.125180
0.380124 0.752680 0.123254
0.448916 0.758832 0.109322
0.575992 0.761374 0.100629
0.651625 0.759011 0.099842
0.763058 0.755118 0.100688
0.850586 0.763250 0.110640
0.141127 0.843401 0.135560
0.213876 0.840206 0.134595
0.266001 0.836859 0.133796
0.387517 0.833548 0.132430
0.454787 0.835156 0.123509
0.578850 0.841591 0.106690
0.659527 0.837993 0.105805
0.766631 0.834474 0.104745
0.838227 0.829226 0.106071
0.036414 0.063189 0.156303
0.129684 0.058776 0.160970
0.196618 0.059780 0.161361
0.355775 0.071066 0.167873
0.427229 0.076915 0.172015
0.584779 0.089970 0.182632
0.663132 0.096465 0.187983
0.787050 0.106821 0.196847
0.889143 0.115385 0.204202
0.034259 0.150195 0.152915
0.134643 0.156935 0.158470
0.200701 0.161860 0.162844
0.358357 0.175202 0.175345
0.430150 0.180908 0.180656
0.587708 0.194072 0.192906
0.666267 0.200453 0.198816
0.790564 0.210820 0.208412
0.891087 0.220776 0.217730
0.040140 0.214955 0.155144
0.144185 0.216415 0.162868
0.200799 0.218139 0.160165
0.359179 0.234640 0.175249
0.431093 0.240457 0.180346
0.588476 0.253709 0.192321
0.667244 0.260187 0.198183
0.791948 0.270698 0.207750
0.890932 0.281712 0.218557
0.073793 0.353349 0.168992
0.166741 0.364874 0.178746
0.220431 0.365640 0.176306
0.358806 0.367995 0.167053
0.430704 0.375135 0.174783
0.589542 0.393551 0.191783
0.666703 0.400208 0.197832
0.793339 0.410975 0.208214
0.888583 0.420939 0.221073
0.084642 0.421547 0.175738
0.176436 0.433106 0.185400
0.228232 0.432428 0.181246
0.363892 0.434675 0.169214
0.427589 0.433614 0.168344
0.580387 0.449488 0.185331
0.657973 0.457559 0.193369
0.791379 0.471091 0.204845
0.882418 0.481577 0.220368
0.108120 0.566802 0.191021
0.194270 0.575566 0.196994
0.245050 0.572912 0.192704
0.374983 0.573533 0.183792
0.441016 0.574546 0.174878
0.572906 0.572321 0.173765
0.650985 0.578351 0.182599
0.785746 0.592686 0.197951
0.874928 0.601030 0.215028
0.119185 0.635139 0.196925
0.198703 0.643521 0.198576
0.251779 0.641493 0.197084
0.378234 0.640153 0.194502
0.446100 0.645825 0.179681
0.574602 0.645136 0.176590
0.645571 0.642623 0.176816
0.778852 0.657943 0.192067
0.866975 0.666738 0.205691
0.139407 0.759135 0.210103
0.214768 0.766506 0.209548
0.267583 0.764468 0.208508
0.391505 0.762396 0.206846
0.456087 0.763240 0.200211
0.583250 0.768903 0.184481
0.659303 0.766473 0.183326
0.770811 0.763098 0.183999
0.859337 0.772284 0.192922
0.153373 0.844692 0.219528
0.225587 0.849855 0.217050
0.277598 0.846424 0.215892
0.398796 0.843042 0.214172
0.463542 0.839478 0.212911
0.587194 0.854852 0.183012
0.670026 0.851156 0.181813
0.778406 0.847546 0.180448
0.849318 0.840482 0.183841
0.042932 0.069440 0.220950
0.133765 0.065191 0.226014
0.197922 0.060890 0.227037
0.360638 0.066122 0.230530
0.432134 0.071980 0.232973
0.589704 0.085047 0.241493
0.668088 0.091550 0.246229
0.792061 0.101918 0.254396
0.894162 0.110489 0.261345
0.038964 0.154110 0.218427
0.143807 0.165039 0.224894
0.203338 0.160544 0.226352
0.363113 0.169290 0.231615
0.435016 0.174922 0.236004
0.592749 0.187824 0.247092
0.671421 0.194077 0.252651
0.795901 0.204250 0.261794
0.898021 0.212592 0.269344
0.040309 0.213553 0.214996
0.139534 0.220682 0.220899
0.206273 0.224928 0.224313
0.364694 0.238210 0.236577
0.436935 0.244077 0.242014
0.594622 0.257385 0.254338
0.673502 0.263887 0.260337
0.797176 0.275577 0.271223
0.898796 0.284293 0.279265
0.062660 0.364489 0.222622
0.166780 0.364717 0.232938
0.230101 0.372472 0.239510
0.364673 0.373945 0.230452
0.438263 0.382746 0.239596
0.596830 0.400396 0.255392
0.673085 0.405810 0.260322
0.796300 0.417715 0.273896
0.896046 0.425899 0.281738
0.084696 0.421576 0.230034
0.176436 0.432880 0.239696
0.239024 0.439395 0.245507
0.369408 0.440371 0.232198
0.433160 0.439306 0.231101
0.587232 0.456795 0.249206
0.665302 0.464817 0.256371
0.792599 0.478707 0.272995
0.889531 0.487517 0.280816
0.108185 0.565992 0.244682
0.197036 0.575100 0.253361
0.253979 0.580040 0.254423
0.381446 0.577265 0.251501
0.446513 0.579824 0.237021
0.578265 0.577830 0.235880
0.657342 0.584653 0.245215
0.788720 0.598433 0.264703
0.881207 0.608283 0.277711
0.119280 0.634482 0.250056
0.205662 0.643810 0.258594
0.260347 0.648842 0.257990
0.386420 0.647077 0.256033
0.450546 0.649255 0.246383
0.579744 0.650758 0.238040
0.651464 0.648681 0.238185
0.783931 0.664010 0.254940
0.872371 0.673619 0.268119
0.139518 0.758561 0.262850
0.224420 0.767809 0.271579
0.276053 0.771619 0.268699
0.399693 0.769485 0.266840
0.463001 0.767181 0.265512
0.589734 0.779063 0.240319
0.667695 0.776554 0.239015
0.779307 0.771677 0.241466
0.864367 0.777865 0.253958
0.153404 0.843640 0.271622
0.236864 0.851333 0.280100
0.285919 0.853026 0.275411
0.406823 0.849596 0.273527
0.471746 0.845991 0.272105
0.590233 0.857043 0.247183
0.675189 0.855761 0.241987
0.782943 0.852134 0.240501
0.854134 0.845502 0.243889
0.058727 0.084588 0.376942
0.149888 0.084089 0.379957
0.207064 0.074276 0.384775
0.362587 0.066361 0.387068
0.436248 0.067989 0.388006
0.600827 0.074105 0.392869
0.680103 0.079768 0.394976
0.804133 0.090163 0.399950
0.906242 0.098753 0.404984
0.060633 0.171263 0.372543
0.159561 0.180178 0.380976
0.220242 0.180611 0.382612
0.368196 0.165826 0.386468
0.442543 0.167485 0.387698
0.604750 0.175960 0.392573
0.683454 0.182227 0.395753
0.807987 0.192424 0.402343
0.910130 0.200750 0.408408
0.054310 0.224497 0.372083
0.159737 0.236990 0.377589
0.225624 0.242879 0.383092
0.371541 0.231767 0.385668
0.446515 0.233714 0.387103
0.606571 0.244625 0.392905
0.685568 0.251020 0.397050
0.810596 0.261393 0.404797
0.912585 0.269374 0.410674
0.056285 0.371121 0.369252
0.154279 0.377362 0.374165
0.221227 0.381519 0.377408
0.382441 0.391481 0.385935
0.455653 0.399008 0.392398
0.609872 0.410997 0.403321
0.685969 0.416194 0.407994
0.814097 0.426279 0.417160
0.914061 0.433958 0.424123
0.063450 0.443185 0.371463
0.159975 0.448914 0.375761
0.226106 0.451804 0.377649
0.388412 0.456624 0.389089
0.446546 0.452941 0.380245
0.604282 0.474424 0.400654
0.679177 0.480222 0.405809
0.810343 0.491154 0.414979
0.907050 0.499169 0.421732
0.082119 0.591636 0.374009
0.188767 0.582657 0.379864
0.258705 0.579822 0.386042
0.401875 0.595303 0.396672
0.462340 0.592472 0.394065
0.592191 0.592068 0.382464
0.673011 0.600912 0.394118
0.805413 0.617026 0.413527
0.897871 0.626610 0.423522
0.105997 0.647557 0.374581
0.205792 0.643225 0.383941
0.267138 0.649503 0.389217
0.406621 0.665126 0.398602
0.468685 0.663433 0.396472
0.594204 0.667291 0.378943
0.667661 0.665189 0.379478
0.798864 0.680489 0.400370
0.886774 0.691409 0.414108
0.139916 0.758054 0.386676
0.224687 0.767249 0.394671
0.285363 0.773153 0.399973
0.419453 0.786988 0.406593
0.482790 0.784539 0.404387
0.600225 0.788659 0.387920
0.680007 0.789137 0.379201
0.792539 0.785277 0.380952
0.877685 0.792137 0.394076
0.153716 0.842673 0.392939
0.237045 0.850315 0.400634
0.296818 0.854736 0.405687
0.426077 0.866276 0.410249
0.491071 0.862535 0.407897
0.601418 0.861111 0.400978
0.687131 0.867846 0.378740
0.794447 0.864122 0.376278
0.866631 0.858412 0.378953
0.065859 0.091429 0.447563
0.157904 0.092564 0.449627
0.213397 0.082807 0.454670
0.365737 0.069289 0.460818
0.437348 0.068833 0.459786
0.600969 0.073988 0.463801
0.682907 0.077029 0.466169
0.809660 0.084768 0.469890
0.911784 0.093359 0.473766
0.067829 0.178083 0.443570
0.166664 0.187006 0.452118
0.228096 0.188481 0.453386
0.371370 0.168687 0.460659
0.443381 0.167972 0.459640
0.607422 0.173223 0.463969
0.688958 0.176696 0.466278
0.813552 0.186895 0.470900
0.915710 0.195218 0.475899
0.066951 0.233678 0.441550
0.166890 0.243886 0.449164
0.232806 0.249794 0.454801
0.374742 0.234677 0.460324
0.447183 0.234053 0.459318
0.611534 0.239638 0.463866
0.691115 0.245488 0.466321
0.816185 0.255832 0.472162
0.918042 0.263612 0.476679
0.061253 0.373097 0.439549
0.159082 0.379933 0.445181
0.226024 0.384508 0.448968
0.394468 0.403999 0.463172
0.457221 0.394403 0.459364
0.614519 0.403963 0.465018
0.691000 0.408882 0.468821
0.820350 0.418415 0.476971
0.920749 0.425450 0.483264
0.063667 0.443081 0.439625
0.159886 0.448322 0.443573
0.225925 0.451224 0.445612
0.383897 0.460504 0.452708
0.457015 0.463376 0.455562
0.609062 0.477350 0.467924
0.685879 0.482862 0.472909
0.818122 0.493751 0.482839
0.915044 0.501718 0.490115
0.079039 0.593998 0.442372
0.172531 0.597880 0.446006
0.238794 0.598637 0.448085
0.405331 0.595588 0.461793
0.472138 0.600853 0.465075
0.599617 0.599667 0.454586
0.681513 0.609901 0.470250
0.814347 0.626200 0.488058
0.906130 0.633602 0.495405
0.086460 0.666604 0.441586
0.185374 0.662902 0.445536
0.259258 0.656797 0.450479
0.411765 0.666345 0.466619
0.478859 0.672416 0.469071
0.600018 0.673789 0.453906
0.674742 0.672468 0.455035
0.806906 0.689958 0.478772
0.894897 0.701644 0.492352
0.123041 0.774487 0.447705
0.224708 0.766603 0.457966
0.285306 0.772458 0.463702
0.427095 0.788933 0.478517
0.493228 0.793458 0.478818
0.608101 0.791717 0.475143
0.686493 0.795589 0.456811
0.799515 0.792469 0.459476
0.884866 0.800143 0.474692
0.150920 0.844484 0.456664
0.236994 0.849201 0.465532
0.296702 0.853585 0.471158
0.435295 0.868375 0.485648
0.501834 0.871343 0.484668
0.611623 0.867798 0.482800
0.693229 0.872860 0.462125
0.800741 0.870684 0.457448
0.873686 0.865733 0.461275
0.081620 0.106549 0.603085
0.174151 0.108542 0.604515
0.229500 0.101479 0.607958
0.373087 0.078723 0.620519
0.444454 0.075314 0.621470
0.602136 0.074536 0.619545
0.683352 0.076836 0.621177
0.812998 0.081766 0.625098
0.919656 0.085849 0.628297
0.083640 0.193181 0.599173
0.182376 0.202112 0.607734
0.243758 0.203532 0.608955
0.380890 0.183456 0.617734
0.450508 0.174397 0.621393
0.608333 0.173437 0.619506
0.690106 0.175747 0.621436
0.820264 0.180459 0.625407
0.926945 0.184280 0.628635
0.084984 0.250124 0.596368
0.182623 0.259041 0.604840
0.248558 0.264962 0.610495
0.387584 0.253718 0.616191
0.454549 0.241790 0.620533
0.612275 0.239722 0.619269
0.694539 0.242327 0.621407
0.825084 0.246903 0.624549
0.929814 0.251756 0.625379
0.072701 0.382852 0.597185
0.176668 0.393275 0.601386
0.250381 0.403360 0.605120
0.413387 0.422127 0.615815
0.473282 0.415422 0.615909
0.618938 0.398492 0.616050
0.698874 0.399974 0.616112
0.831765 0.406530 0.618007
0.931843 0.413637 0.620348
0.074658 0.449714 0.593980
0.170472 0.455157 0.597279
0.236316 0.458422 0.598737
0.408889 0.479679 0.605699
0.480163 0.486266 0.610399
0.615133 0.468745 0.608009
0.696115 0.470669 0.608018
0.829686 0.480723 0.611361
0.926862 0.488252 0.615054
0.079465 0.593145 0.585418
0.172684 0.597007 0.587944
0.237747 0.598883 0.588897
0.392771 0.607046 0.594787
0.467078 0.609537 0.596207
0.611543 0.611908 0.597112
0.698009 0.625193 0.610083
0.829245 0.634247 0.617976
0.921446 0.640649 0.623664
0.086904 0.665978 0.580672
0.177606 0.670423 0.583098
0.242529 0.673244 0.584258
0.395181 0.682394 0.590280
0.473390 0.684146 0.592041
0.617282 0.688102 0.601322
0.687879 0.685938 0.591598
0.823701 0.709155 0.616947
0.910206 0.717426 0.622631
0.100407 0.796961 0.579422
0.189815 0.801149 0.581917
0.253882 0.803405 0.582978
0.422667 0.792515 0.592692
0.500442 0.795555 0.599282
0.626089 0.807074 0.605648
0.698406 0.805435 0.595107
0.811496 0.804796 0.588210
0.897622 0.814582 0.604805
0.109493 0.885193 0.576083
0.206624 0.878670 0.578537
0.278620 0.870657 0.581103
0.435049 0.867237 0.595552
0.510565 0.873590 0.601422
0.628504 0.882615 0.605447
0.707529 0.878738 0.601925
0.810407 0.881015 0.578966
0.884505 0.876921 0.581056
0.089423 0.114037 0.680243
0.181843 0.116016 0.681727
0.237990 0.110732 0.684106
0.378108 0.087997 0.696896
0.447951 0.078531 0.702006
0.605654 0.077772 0.700176
0.684201 0.077381 0.699198
0.813249 0.081672 0.702561
0.919912 0.085765 0.705851
0.091495 0.200636 0.676631
0.190134 0.209572 0.685271
0.251504 0.210973 0.686549
0.387622 0.192952 0.694630
0.454738 0.181767 0.699804
0.611867 0.176595 0.700457
0.690689 0.175928 0.699498
0.820516 0.180268 0.703182
0.927201 0.184097 0.706503
0.092884 0.257636 0.674127
0.190418 0.266559 0.682681
0.256378 0.272495 0.688429
0.395591 0.263435 0.693496
0.460246 0.251729 0.698253
0.615830 0.242927 0.700546
0.694949 0.242363 0.699603
0.825203 0.246495 0.701784
0.931482 0.249716 0.702848
0.084965 0.390983 0.673690
0.191075 0.404330 0.678044
0.259569 0.411865 0.683211
0.422578 0.431049 0.692515
0.483634 0.427047 0.691471
0.621537 0.401106 0.696655
0.698239 0.399321 0.693692
0.834394 0.403137 0.695960
0.937341 0.407112 0.697184
0.080347 0.454127 0.672512
0.176821 0.460025 0.675602
0.248369 0.466873 0.676436
0.417747 0.488134 0.682220
0.489126 0.494996 0.687378
0.617578 0.471359 0.689814
0.695614 0.470172 0.687375
0.834972 0.474651 0.690144
0.932269 0.481778 0.692145
0.084358 0.592995 0.660180
0.177287 0.597432 0.663729
0.242293 0.599740 0.665690
0.396991 0.608863 0.673240
0.471553 0.611954 0.676048
0.633548 0.633789 0.690800
0.700267 0.617750 0.683861
0.834866 0.625713 0.688965
0.927818 0.631446 0.694183
0.087114 0.665336 0.656271
0.177700 0.669851 0.659555
0.242545 0.672707 0.661562
0.394916 0.681884 0.668546
0.471177 0.685804 0.671429
0.615902 0.694745 0.678262
0.697488 0.695785 0.679221
0.831526 0.713518 0.696077
0.918832 0.720815 0.702696
0.100628 0.796303 0.658092
0.189907 0.800442 0.661722
0.253901 0.802654 0.664051
0.403199 0.810888 0.671292
0.482213 0.812887 0.674610
0.631669 0.809667 0.687315
0.712178 0.815023 0.691260
0.820007 0.813571 0.682269
0.908065 0.827650 0.705529
0.109679 0.884044 0.659074
0.197523 0.886641 0.662980
0.260689 0.887369 0.665619
0.413992 0.886714 0.673259
0.504661 0.878204 0.680177
0.635630 0.885382 0.694505
0.721224 0.890095 0.698130
0.817769 0.889139 0.680257
0.893662 0.886401 0.685247
0.102147 0.126247 0.805768
0.194441 0.128200 0.807330
0.252283 0.125783 0.807938
0.388269 0.103081 0.821028
0.455269 0.092840 0.826881
0.611426 0.083057 0.831287
0.690010 0.082684 0.830446
0.814306 0.082187 0.829135
0.920332 0.085650 0.831910
0.104295 0.212845 0.802604
0.211369 0.229791 0.802841
0.271844 0.232060 0.803828
0.402255 0.214303 0.813448
0.464951 0.200848 0.821343
0.617667 0.181823 0.832029
0.696525 0.181171 0.831206
0.821309 0.180430 0.829927
0.927626 0.183896 0.833003
0.105748 0.269926 0.800542
0.210604 0.284431 0.801795
0.277832 0.292984 0.806438
0.413233 0.286204 0.811651
0.472974 0.272270 0.819344
0.621659 0.248219 0.832573
0.700652 0.247624 0.831735
0.825654 0.246257 0.829838
0.931649 0.249310 0.832310
0.107316 0.407668 0.796868
0.212544 0.420061 0.798102
0.280948 0.428002 0.801811
0.438031 0.446065 0.816665
0.501068 0.445309 0.816187
0.628032 0.412051 0.829317
0.703333 0.404199 0.830442
0.834433 0.402516 0.828163
0.938554 0.405043 0.830193
0.096860 0.465285 0.799223
0.202406 0.476935 0.800742
0.279447 0.486649 0.797491
0.433737 0.503386 0.811266
0.505502 0.510954 0.817102
0.628455 0.490227 0.822992
0.700775 0.475154 0.826200
0.834835 0.474272 0.823584
0.935730 0.477445 0.825062
0.094106 0.600660 0.794351
0.186820 0.605124 0.798661
0.251801 0.607454 0.801115
0.414408 0.620173 0.806593
0.503119 0.632955 0.807797
0.649902 0.649826 0.820780
0.710436 0.632093 0.819866
0.839089 0.620318 0.818753
0.935720 0.621913 0.819690
0.096012 0.668436 0.786954
0.186414 0.673561 0.790618
0.251112 0.676824 0.792570
0.403053 0.686898 0.799749
0.479366 0.691280 0.802160
0.641664 0.713582 0.810620
0.725452 0.723649 0.817319
0.837031 0.704100 0.811573
0.927582 0.709070 0.812167
0.101022 0.795676 0.782795
0.190164 0.799769 0.785460
0.254076 0.801936 0.786599
0.403052 0.810121 0.792418
0.481263 0.813113 0.794161
0.619553 0.820370 0.799215
0.710775 0.824133 0.801526
0.834743 0.828804 0.806150
0.921028 0.840601 0.817821
0.110006 0.882930 0.779666
0.197711 0.885489 0.781858
0.260805 0.886187 0.782568
0.406429 0.892833 0.787877
0.486980 0.894717 0.789423
0.618769 0.900346 0.793828
0.727753 0.892896 0.799017
0.832461 0.899296 0.802881
0.903144 0.896225 0.792199
0.124248 0.147231 0.895585
0.214340 0.149816 0.897156
0.271702 0.149341 0.896468
0.399637 0.122149 0.914287
0.463471 0.109479 0.922633
0.616064 0.087316 0.936942
0.694679 0.086953 0.936115
0.819029 0.086471 0.934819
0.921216 0.086103 0.933766
0.126336 0.231185 0.892557
0.224679 0.242628 0.901423
0.284551 0.244541 0.902786
0.414779 0.229469 0.910869
0.475230 0.215839 0.919126
0.622315 0.186395 0.937456
0.701200 0.185354 0.936926
0.826036 0.184625 0.935664
0.928243 0.183987 0.934642
0.127752 0.286597 0.890597
0.224967 0.297790 0.899380
0.290892 0.305618 0.905359
0.427243 0.301844 0.908788
0.484866 0.287765 0.916945
0.626762 0.257364 0.935040
0.704461 0.251596 0.937384
0.830202 0.250245 0.935463
0.931746 0.248986 0.933439
0.131874 0.421852 0.886039
0.227898 0.432553 0.894773
0.294008 0.440087 0.900814
0.451182 0.458862 0.914974
0.513826 0.458121 0.914365
0.636926 0.428375 0.927191
0.707395 0.409741 0.934381
0.838418 0.405972 0.932331
0.938172 0.404406 0.929670
0.123037 0.478477 0.889731
0.227481 0.491966 0.891234
0.292169 0.498038 0.896004
0.446684 0.515681 0.908821
0.518792 0.523929 0.913835
0.640285 0.507157 0.918778
0.706723 0.487398 0.924709
0.838325 0.477668 0.925009
0.935056 0.477076 0.921787
0.101504 0.606282 0.896280
0.193902 0.610684 0.899985
0.263948 0.614577 0.899232
0.441608 0.637201 0.898320
0.517421 0.645077 0.901992
0.662917 0.662628 0.913471
0.724571 0.650216 0.912640
0.841827 0.622700 0.916299
0.934776 0.621037 0.912928
0.103254 0.674188 0.886510
0.193461 0.679285 0.889236
0.258005 0.682517 0.890187
0.409577 0.692549 0.896307
0.497110 0.701785 0.894492
0.655059 0.725974 0.900290
0.738420 0.736474 0.905439
0.839277 0.706672 0.905137
0.928384 0.706963 0.901719
0.106695 0.795094 0.872867
0.195564 0.799606 0.874969
0.259277 0.802050 0.875388
0.407753 0.810996 0.880967
0.486054 0.814378 0.882111
0.623554 0.822318 0.886891
0.715287 0.826592 0.888781
0.856052 0.850558 0.900887
0.923895 0.830054 0.890749
0.110202 0.881764 0.865712
0.197769 0.884285 0.866896
0.260795 0.884955 0.866634
0.406080 0.891566 0.871006
0.486909 0.893463 0.871709
0.618016 0.899046 0.875292
0.717179 0.902315 0.877087
0.833221 0.906879 0.879908
0.913330 0.906937 0.881068
